(.../EAGLE-7.1.0/ulp/pcb-gcode.ulp)
(Copyright 2005 - 2012 by John Johnson)
(See readme.txt for licensing terms.)
(This file generated from the board:)
(.../Gesture_rf_controller_v1/Gesture_rf_controller_v1.brd)
(Current profile is .../EAGLE-7.1.0/ulp/profiles/mach.pp  )
(This file generated 29-5-2015 17:39:38)
(Settings from pcb-machine.h)
(spindle on time = 1.0000)
(  Tool Size)
(0.1000  )
(spindle speed = 30000.0000)
(tool change at 0.0000  0.0000  25.4000 )
(feed rate xy = F508   )
(feed rate z  = F254   )
(Z Axis Settings)
(  High     Up        Down     Drill)
(40.0000 	2.5400  	-0.1000 	-1.8000 )
(Settings from pcb-defaults.h)
(isolate min = 0.0254)
(isolate max = 0.5080)
(isolate step = 0.1270)
(Generated top outlines, top drill, bottom outlines, bottom drill, )
(Unit of measure: mm)
(Metric Mode)
G21
(Absolute Coordinates)
G90
S30000
G00 Z40.0000 
G00 X0.0000  Y0.0000  
M03
G04 P1.000000
G00 Z2.5400  
G00 X-15.2245 Y6.3242  
G01 Z-0.1000 F254   
G01 X-15.3412 Y6.2075  F508   
G01 X-15.4783 Y6.1159  
G01 X-15.6307 Y6.0528  
G01 X-15.7925 Y6.0206  
G01 X-15.9575 Y6.0206  
G01 X-16.1193 Y6.0528  
G01 X-16.2717 Y6.1159  
G01 X-16.4088 Y6.2075  
G01 X-16.5254 Y6.3242  
G01 X-16.6171 Y6.4613  
G01 X-16.6802 Y6.6137  
G01 X-16.7124 Y6.7755  
G01 X-16.7124 Y8.4645  
G01 X-16.6802 Y8.6263  
G01 X-16.6171 Y8.7787  
G01 X-16.5254 Y8.9158  
G01 X-16.4088 Y9.0325  
G01 X-16.2717 Y9.1241  
G01 X-16.1193 Y9.1872  
G01 X-15.9575 Y9.2194  
G01 X-15.7925 Y9.2194  
G01 X-15.6307 Y9.1872  
G01 X-15.4783 Y9.1241  
G01 X-15.3412 Y9.0325  
G01 X-15.2245 Y8.9158  
G01 X-15.1329 Y8.7787  
G01 X-15.0698 Y8.6263  
G01 X-15.0376 Y8.4645  
G01 X-15.0376 Y6.7755  
G01 X-15.0698 Y6.6137  
G01 X-15.1329 Y6.4613  
G01 X-15.2245 Y6.3242  
G00 Z2.5400  
G00 X-17.7645 Y6.3242  
G01 Z-0.1000 F254   
G01 X-17.8812 Y6.2075  F508   
G01 X-18.0183 Y6.1159  
G01 X-18.1707 Y6.0528  
G01 X-18.3325 Y6.0206  
G01 X-18.4975 Y6.0206  
G01 X-18.6593 Y6.0528  
G01 X-18.8117 Y6.1159  
G01 X-18.9488 Y6.2075  
G01 X-19.0654 Y6.3242  
G01 X-19.1571 Y6.4613  
G01 X-19.2202 Y6.6137  
G01 X-19.2524 Y6.7755  
G01 X-19.2524 Y8.4645  
G01 X-19.2202 Y8.6263  
G01 X-19.1571 Y8.7787  
G01 X-19.0654 Y8.9158  
G01 X-18.9488 Y9.0325  
G01 X-18.8117 Y9.1241  
G01 X-18.6593 Y9.1872  
G01 X-18.4975 Y9.2194  
G01 X-18.3325 Y9.2194  
G01 X-18.1707 Y9.1872  
G01 X-18.0183 Y9.1241  
G01 X-17.8812 Y9.0325  
G01 X-17.7645 Y8.9158  
G01 X-17.6729 Y8.7787  
G01 X-17.6098 Y8.6263  
G01 X-17.5776 Y8.4645  
G01 X-17.5776 Y6.7755  
G01 X-17.6098 Y6.6137  
G01 X-17.6729 Y6.4613  
G01 X-17.7645 Y6.3242  
G00 Z2.5400  
G00 X-20.3045 Y6.3242  
G01 Z-0.1000 F254   
G01 X-20.4212 Y6.2075  F508   
G01 X-20.5583 Y6.1159  
G01 X-20.7107 Y6.0528  
G01 X-20.8725 Y6.0206  
G01 X-21.0375 Y6.0206  
G01 X-21.1993 Y6.0528  
G01 X-21.3517 Y6.1159  
G01 X-21.4888 Y6.2075  
G01 X-21.6055 Y6.3242  
G01 X-21.6971 Y6.4613  
G01 X-21.7602 Y6.6137  
G01 X-21.7924 Y6.7755  
G01 X-21.7924 Y8.4645  
G01 X-21.7602 Y8.6263  
G01 X-21.6971 Y8.7787  
G01 X-21.6055 Y8.9158  
G01 X-21.4888 Y9.0325  
G01 X-21.3517 Y9.1241  
G01 X-21.1993 Y9.1872  
G01 X-21.0375 Y9.2194  
G01 X-20.8725 Y9.2194  
G01 X-20.7107 Y9.1872  
G01 X-20.5583 Y9.1241  
G01 X-20.4212 Y9.0325  
G01 X-20.3045 Y8.9158  
G01 X-20.2129 Y8.7787  
G01 X-20.1498 Y8.6263  
G01 X-20.1176 Y8.4645  
G01 X-20.1176 Y6.7755  
G01 X-20.1498 Y6.6137  
G01 X-20.2129 Y6.4613  
G01 X-20.3045 Y6.3242  
G00 Z2.5400  
G00 X-22.8445 Y6.3242  
G01 Z-0.1000 F254   
G01 X-22.9612 Y6.2075  F508   
G01 X-23.0983 Y6.1159  
G01 X-23.2507 Y6.0528  
G01 X-23.4125 Y6.0206  
G01 X-23.5775 Y6.0206  
G01 X-23.7393 Y6.0528  
G01 X-23.8917 Y6.1159  
G01 X-24.0288 Y6.2075  
G01 X-24.1455 Y6.3242  
G01 X-24.2371 Y6.4613  
G01 X-24.3002 Y6.6137  
G01 X-24.3324 Y6.7755  
G01 X-24.3324 Y8.4645  
G01 X-24.3002 Y8.6263  
G01 X-24.2371 Y8.7787  
G01 X-24.1455 Y8.9158  
G01 X-24.0288 Y9.0325  
G01 X-23.8917 Y9.1241  
G01 X-23.7393 Y9.1872  
G01 X-23.5775 Y9.2194  
G01 X-23.4125 Y9.2194  
G01 X-23.2507 Y9.1872  
G01 X-23.0983 Y9.1241  
G01 X-22.9612 Y9.0325  
G01 X-22.8445 Y8.9158  
G01 X-22.7529 Y8.7787  
G01 X-22.6898 Y8.6263  
G01 X-22.6576 Y8.4645  
G01 X-22.6576 Y6.7755  
G01 X-22.6898 Y6.6137  
G01 X-22.7529 Y6.4613  
G01 X-22.8445 Y6.3242  
G00 Z2.5400  
G00 X-25.3845 Y6.3242  
G01 Z-0.1000 F254   
G01 X-25.5012 Y6.2075  F508   
G01 X-25.6383 Y6.1159  
G01 X-25.7907 Y6.0528  
G01 X-25.9525 Y6.0206  
G01 X-26.1175 Y6.0206  
G01 X-26.2793 Y6.0528  
G01 X-26.4317 Y6.1159  
G01 X-26.5688 Y6.2075  
G01 X-26.6854 Y6.3242  
G01 X-26.7771 Y6.4613  
G01 X-26.8402 Y6.6137  
G01 X-26.8724 Y6.7755  
G01 X-26.8724 Y8.4645  
G01 X-26.8402 Y8.6263  
G01 X-26.7771 Y8.7787  
G01 X-26.6854 Y8.9158  
G01 X-26.5688 Y9.0325  
G01 X-26.4317 Y9.1241  
G01 X-26.2793 Y9.1872  
G01 X-26.1175 Y9.2194  
G01 X-25.9525 Y9.2194  
G01 X-25.7907 Y9.1872  
G01 X-25.6383 Y9.1241  
G01 X-25.5012 Y9.0325  
G01 X-25.3845 Y8.9158  
G01 X-25.2929 Y8.7787  
G01 X-25.2298 Y8.6263  
G01 X-25.1976 Y8.4645  
G01 X-25.1976 Y6.7755  
G01 X-25.2298 Y6.6137  
G01 X-25.2929 Y6.4613  
G01 X-25.3845 Y6.3242  
G00 Z2.5400  
G00 X-27.7945 Y8.8522  
G01 Z-0.1000 F254   
G01 X-27.9022 Y8.7445  F508   
G01 X-28.0342 Y8.6683  
G01 X-28.1813 Y8.6289  
G01 X-28.3337 Y8.6289  
G01 X-28.4808 Y8.6683  
G01 X-28.6128 Y8.7445  
G01 X-28.7205 Y8.8522  
G01 X-28.7967 Y8.9842  
G01 X-28.8361 Y9.1313  
G01 X-28.8361 Y9.2837  
G01 X-28.7967 Y9.4308  
G01 X-28.7205 Y9.5628  
G01 X-28.6128 Y9.6705  
G01 X-28.5361 Y9.7148  
G01 X-28.5361 Y14.7327 
G01 X-28.6128 Y14.7770 
G01 X-28.7205 Y14.8847 
G01 X-28.7967 Y15.0167 
G01 X-28.8361 Y15.1638 
G01 X-28.8361 Y15.3162 
G01 X-28.7967 Y15.4633 
G01 X-28.7205 Y15.5953 
G01 X-28.6128 Y15.7030 
G01 X-28.4808 Y15.7792 
G01 X-28.3337 Y15.8186 
G01 X-28.1813 Y15.8186 
G01 X-28.0342 Y15.7792 
G01 X-27.9022 Y15.7030 
G01 X-27.7945 Y15.5953 
G01 X-27.7183 Y15.4633 
G01 X-27.6789 Y15.3162 
G01 X-27.6789 Y15.1638 
G01 X-27.7183 Y15.0167 
G01 X-27.7945 Y14.8847 
G01 X-27.9022 Y14.7770 
G01 X-27.9789 Y14.7327 
G01 X-27.9789 Y9.7148  
G01 X-27.9022 Y9.6705  
G01 X-27.7945 Y9.5628  
G01 X-27.7183 Y9.4308  
G01 X-27.6789 Y9.2837  
G01 X-27.6789 Y9.1313  
G01 X-27.7183 Y8.9842  
G01 X-27.7945 Y8.8522  
G00 Z2.5400  
G00 X-26.7078 Y11.6020 
G01 Z-0.1000 F254   
G01 X-26.8155 Y11.7097 F508   
G01 X-26.8917 Y11.8417 
G01 X-26.9311 Y11.9888 
G01 X-26.9311 Y12.1412 
G01 X-26.8917 Y12.2883 
G01 X-26.8155 Y12.4203 
G01 X-26.7078 Y12.5280 
G01 X-26.5758 Y12.6042 
G01 X-26.4287 Y12.6436 
G01 X-26.2763 Y12.6436 
G01 X-26.1292 Y12.6042 
G01 X-25.9972 Y12.5280 
G01 X-25.8895 Y12.4203 
G01 X-25.8452 Y12.3436 
G01 X-15.7473 Y12.3436 
G01 X-15.7030 Y12.4203 
G01 X-15.5953 Y12.5280 
G01 X-15.4633 Y12.6042 
G01 X-15.3162 Y12.6436 
G01 X-15.1638 Y12.6436 
G01 X-15.0167 Y12.6042 
G01 X-14.8847 Y12.5280 
G01 X-14.7770 Y12.4203 
G01 X-14.7008 Y12.2883 
G01 X-14.6614 Y12.1412 
G01 X-14.6614 Y11.9888 
G01 X-14.7008 Y11.8417 
G01 X-14.7770 Y11.7097 
G01 X-14.8847 Y11.6020 
G01 X-15.0167 Y11.5258 
G01 X-15.1638 Y11.4864 
G01 X-15.3162 Y11.4864 
G01 X-15.4633 Y11.5258 
G01 X-15.5953 Y11.6020 
G01 X-15.7030 Y11.7097 
G01 X-15.7473 Y11.7864 
G01 X-25.8452 Y11.7864 
G01 X-25.8895 Y11.7097 
G01 X-25.9972 Y11.6020 
G01 X-26.1292 Y11.5258 
G01 X-26.2763 Y11.4864 
G01 X-26.4287 Y11.4864 
G01 X-26.5758 Y11.5258 
G01 X-26.7078 Y11.6020 
G00 Z2.5400  
G00 X-30.2268 Y11.5175 
G01 Z-0.1000 F254   
G01 X-30.2268 Y11.3425 F508   
G01 X-30.2609 Y11.1709 
G01 X-30.3279 Y11.0093 
G01 X-30.4251 Y10.8638 
G01 X-30.5488 Y10.7401 
G01 X-30.6943 Y10.6429 
G01 X-30.8559 Y10.5759 
G01 X-31.0275 Y10.5418 
G01 X-31.2025 Y10.5418 
G01 X-31.3741 Y10.5759 
G01 X-31.5357 Y10.6429 
G01 X-31.6812 Y10.7401 
G01 X-31.8049 Y10.8638 
G01 X-31.9021 Y11.0093 
G01 X-31.9691 Y11.1709 
G01 X-32.0032 Y11.3425 
G01 X-32.0032 Y11.5175 
G01 X-31.9691 Y11.6891 
G01 X-31.9021 Y11.8507 
G01 X-31.8049 Y11.9962 
G01 X-31.6812 Y12.1199 
G01 X-31.5357 Y12.2171 
G01 X-31.3741 Y12.2841 
G01 X-31.2025 Y12.3182 
G01 X-31.0275 Y12.3182 
G01 X-30.8559 Y12.2841 
G01 X-30.6943 Y12.2171 
G01 X-30.5488 Y12.1199 
G01 X-30.4251 Y11.9962 
G01 X-30.3279 Y11.8507 
G01 X-30.2609 Y11.6891 
G01 X-30.2268 Y11.5175 
G00 Z2.5400  
G00 X-30.4251 Y13.4038 
G01 Z-0.1000 F254   
G01 X-30.5488 Y13.2801 F508   
G01 X-30.6943 Y13.1829 
G01 X-30.8559 Y13.1159 
G01 X-31.0275 Y13.0818 
G01 X-31.2025 Y13.0818 
G01 X-31.3741 Y13.1159 
G01 X-31.5357 Y13.1829 
G01 X-31.6812 Y13.2801 
G01 X-31.8049 Y13.4038 
G01 X-31.9021 Y13.5493 
G01 X-31.9691 Y13.7109 
G01 X-32.0032 Y13.8825 
G01 X-32.0032 Y14.0575 
G01 X-31.9691 Y14.2291 
G01 X-31.9021 Y14.3907 
G01 X-31.8049 Y14.5362 
G01 X-31.6812 Y14.6599 
G01 X-31.5357 Y14.7571 
G01 X-31.3741 Y14.8241 
G01 X-31.2025 Y14.8582 
G01 X-31.0275 Y14.8582 
G01 X-30.8559 Y14.8241 
G01 X-30.6943 Y14.7571 
G01 X-30.5488 Y14.6599 
G01 X-30.4251 Y14.5362 
G01 X-30.3279 Y14.3907 
G01 X-30.2609 Y14.2291 
G01 X-30.2268 Y14.0575 
G01 X-30.2268 Y13.8825 
G01 X-30.2609 Y13.7109 
G01 X-30.3279 Y13.5493 
G01 X-30.4251 Y13.4038 
G00 Z2.5400  
G00 X-32.9651 Y13.4038 
G01 Z-0.1000 F254   
G01 X-33.0888 Y13.2801 F508   
G01 X-33.2343 Y13.1829 
G01 X-33.3959 Y13.1159 
G01 X-33.5675 Y13.0818 
G01 X-33.7425 Y13.0818 
G01 X-33.9141 Y13.1159 
G01 X-34.0757 Y13.1829 
G01 X-34.2212 Y13.2801 
G01 X-34.3449 Y13.4038 
G01 X-34.4421 Y13.5493 
G01 X-34.5091 Y13.7109 
G01 X-34.5432 Y13.8825 
G01 X-34.5432 Y14.0575 
G01 X-34.5091 Y14.2291 
G01 X-34.4421 Y14.3907 
G01 X-34.3449 Y14.5362 
G01 X-34.2212 Y14.6599 
G01 X-34.0757 Y14.7571 
G01 X-33.9141 Y14.8241 
G01 X-33.7425 Y14.8582 
G01 X-33.5675 Y14.8582 
G01 X-33.3959 Y14.8241 
G01 X-33.2343 Y14.7571 
G01 X-33.0888 Y14.6599 
G01 X-32.9651 Y14.5362 
G01 X-32.8679 Y14.3907 
G01 X-32.8009 Y14.2291 
G01 X-32.7668 Y14.0575 
G01 X-32.7668 Y13.8825 
G01 X-32.8009 Y13.7109 
G01 X-32.8679 Y13.5493 
G01 X-32.9651 Y13.4038 
G00 Z2.5400  
G00 X-33.0888 Y12.1199 
G01 Z-0.1000 F254   
G01 X-32.9651 Y11.9962 F508   
G01 X-32.8679 Y11.8507 
G01 X-32.8009 Y11.6891 
G01 X-32.7668 Y11.5175 
G01 X-32.7668 Y11.3425 
G01 X-32.8009 Y11.1709 
G01 X-32.8679 Y11.0093 
G01 X-32.9651 Y10.8638 
G01 X-33.0888 Y10.7401 
G01 X-33.2343 Y10.6429 
G01 X-33.3959 Y10.5759 
G01 X-33.5675 Y10.5418 
G01 X-33.7425 Y10.5418 
G01 X-33.9141 Y10.5759 
G01 X-34.0757 Y10.6429 
G01 X-34.2212 Y10.7401 
G01 X-34.3449 Y10.8638 
G01 X-34.4421 Y11.0093 
G01 X-34.5091 Y11.1709 
G01 X-34.5432 Y11.3425 
G01 X-34.5432 Y11.5175 
G01 X-34.5091 Y11.6891 
G01 X-34.4421 Y11.8507 
G01 X-34.3449 Y11.9962 
G01 X-34.2212 Y12.1199 
G01 X-34.0757 Y12.2171 
G01 X-33.9141 Y12.2841 
G01 X-33.7425 Y12.3182 
G01 X-33.5675 Y12.3182 
G01 X-33.3959 Y12.2841 
G01 X-33.2343 Y12.2171 
G01 X-33.0888 Y12.1199 
G00 Z2.5400  
G00 X-33.0888 Y15.8201 
G01 Z-0.1000 F254   
G01 X-33.2343 Y15.7229 F508   
G01 X-33.3959 Y15.6559 
G01 X-33.5675 Y15.6218 
G01 X-33.7425 Y15.6218 
G01 X-33.9141 Y15.6559 
G01 X-34.0757 Y15.7229 
G01 X-34.2212 Y15.8201 
G01 X-34.3449 Y15.9438 
G01 X-34.4421 Y16.0893 
G01 X-34.5091 Y16.2509 
G01 X-34.5432 Y16.4225 
G01 X-34.5432 Y16.5975 
G01 X-34.5091 Y16.7691 
G01 X-34.4421 Y16.9307 
G01 X-34.3449 Y17.0762 
G01 X-34.2212 Y17.1999 
G01 X-34.0757 Y17.2971 
G01 X-33.9141 Y17.3641 
G01 X-33.7425 Y17.3982 
G01 X-33.5675 Y17.3982 
G01 X-33.3959 Y17.3641 
G01 X-33.2343 Y17.2971 
G01 X-33.0888 Y17.1999 
G01 X-32.9651 Y17.0762 
G01 X-32.8679 Y16.9307 
G01 X-32.8009 Y16.7691 
G01 X-32.7668 Y16.5975 
G01 X-32.7668 Y16.4225 
G01 X-32.8009 Y16.2509 
G01 X-32.8679 Y16.0893 
G01 X-32.9651 Y15.9438 
G01 X-33.0888 Y15.8201 
G00 Z2.5400  
G00 X-31.6812 Y15.8201 
G01 Z-0.1000 F254   
G01 X-31.8049 Y15.9438 F508   
G01 X-31.9021 Y16.0893 
G01 X-31.9691 Y16.2509 
G01 X-32.0032 Y16.4225 
G01 X-32.0032 Y16.5975 
G01 X-31.9691 Y16.7691 
G01 X-31.9021 Y16.9307 
G01 X-31.8049 Y17.0762 
G01 X-31.6812 Y17.1999 
G01 X-31.5357 Y17.2971 
G01 X-31.3741 Y17.3641 
G01 X-31.2025 Y17.3982 
G01 X-31.0275 Y17.3982 
G01 X-30.8559 Y17.3641 
G01 X-30.6943 Y17.2971 
G01 X-30.5488 Y17.1999 
G01 X-30.4251 Y17.0762 
G01 X-30.3279 Y16.9307 
G01 X-30.2609 Y16.7691 
G01 X-30.2268 Y16.5975 
G01 X-30.2268 Y16.4225 
G01 X-30.2609 Y16.2509 
G01 X-30.3279 Y16.0893 
G01 X-30.4251 Y15.9438 
G01 X-30.5488 Y15.8201 
G01 X-30.6943 Y15.7229 
G01 X-30.8559 Y15.6559 
G01 X-31.0275 Y15.6218 
G01 X-31.2025 Y15.6218 
G01 X-31.3741 Y15.6559 
G01 X-31.5357 Y15.7229 
G01 X-31.6812 Y15.8201 
G00 Z2.5400  
G00 X-31.9595 Y19.4826 
G01 Z-0.1000 F254   
G01 X-32.1213 Y19.5148 F508   
G01 X-32.2737 Y19.5779 
G01 X-32.4108 Y19.6695 
G01 X-32.5275 Y19.7862 
G01 X-32.6191 Y19.9233 
G01 X-32.6822 Y20.0757 
G01 X-32.7144 Y20.2375 
G01 X-32.7144 Y20.4025 
G01 X-32.6822 Y20.5643 
G01 X-32.6191 Y20.7167 
G01 X-32.5275 Y20.8538 
G01 X-32.4108 Y20.9704 
G01 X-32.2737 Y21.0621 
G01 X-32.1213 Y21.1252 
G01 X-31.9595 Y21.1574 
G01 X-30.2705 Y21.1574 
G01 X-30.1087 Y21.1252 
G01 X-29.9563 Y21.0621 
G01 X-29.8192 Y20.9704 
G01 X-29.7025 Y20.8538 
G01 X-29.6109 Y20.7167 
G01 X-29.5478 Y20.5643 
G01 X-29.5156 Y20.4025 
G01 X-29.5156 Y20.2375 
G01 X-29.5478 Y20.0757 
G01 X-29.6109 Y19.9233 
G01 X-29.7025 Y19.7862 
G01 X-29.8192 Y19.6695 
G01 X-29.9563 Y19.5779 
G01 X-30.1087 Y19.5148 
G01 X-30.2705 Y19.4826 
G01 X-31.9595 Y19.4826 
G00 Z2.5400  
G00 X-31.9595 Y22.0226 
G01 Z-0.1000 F254   
G01 X-32.1213 Y22.0548 F508   
G01 X-32.2737 Y22.1179 
G01 X-32.4108 Y22.2095 
G01 X-32.5275 Y22.3262 
G01 X-32.6191 Y22.4633 
G01 X-32.6822 Y22.6157 
G01 X-32.7144 Y22.7775 
G01 X-32.7144 Y22.9425 
G01 X-32.6822 Y23.1043 
G01 X-32.6191 Y23.2567 
G01 X-32.5275 Y23.3938 
G01 X-32.4108 Y23.5104 
G01 X-32.2737 Y23.6021 
G01 X-32.1213 Y23.6652 
G01 X-31.9595 Y23.6974 
G01 X-30.2705 Y23.6974 
G01 X-30.1087 Y23.6652 
G01 X-29.9563 Y23.6021 
G01 X-29.8192 Y23.5104 
G01 X-29.7025 Y23.3938 
G01 X-29.6109 Y23.2567 
G01 X-29.5478 Y23.1043 
G01 X-29.5156 Y22.9425 
G01 X-29.5156 Y22.7775 
G01 X-29.5478 Y22.6157 
G01 X-29.6109 Y22.4633 
G01 X-29.7025 Y22.3262 
G01 X-29.8192 Y22.2095 
G01 X-29.9563 Y22.1179 
G01 X-30.1087 Y22.0548 
G01 X-30.2705 Y22.0226 
G01 X-31.9595 Y22.0226 
G00 Z2.5400  
G00 X-31.9595 Y24.5626 
G01 Z-0.1000 F254   
G01 X-32.1213 Y24.5948 F508   
G01 X-32.2737 Y24.6579 
G01 X-32.4108 Y24.7495 
G01 X-32.5275 Y24.8662 
G01 X-32.6191 Y25.0033 
G01 X-32.6822 Y25.1557 
G01 X-32.7144 Y25.3175 
G01 X-32.7144 Y25.4825 
G01 X-32.6822 Y25.6443 
G01 X-32.6191 Y25.7967 
G01 X-32.5275 Y25.9338 
G01 X-32.4108 Y26.0505 
G01 X-32.2737 Y26.1421 
G01 X-32.1213 Y26.2052 
G01 X-31.9595 Y26.2374 
G01 X-30.2705 Y26.2374 
G01 X-30.1087 Y26.2052 
G01 X-29.9563 Y26.1421 
G01 X-29.8192 Y26.0505 
G01 X-29.7025 Y25.9338 
G01 X-29.6109 Y25.7967 
G01 X-29.5478 Y25.6443 
G01 X-29.5156 Y25.4825 
G01 X-29.5156 Y25.3175 
G01 X-29.5478 Y25.1557 
G01 X-29.6109 Y25.0033 
G01 X-29.7025 Y24.8662 
G01 X-29.8192 Y24.7495 
G01 X-29.9563 Y24.6579 
G01 X-30.1087 Y24.5948 
G01 X-30.2705 Y24.5626 
G01 X-31.9595 Y24.5626 
G00 Z2.5400  
G00 X-23.5328 Y25.5720 
G01 Z-0.1000 F254   
G01 X-23.6405 Y25.6797 F508   
G01 X-23.7167 Y25.8117 
G01 X-23.7561 Y25.9588 
G01 X-23.7561 Y26.1112 
G01 X-23.7167 Y26.2583 
G01 X-23.6405 Y26.3903 
G01 X-23.5328 Y26.4980 
G01 X-23.4008 Y26.5742 
G01 X-23.2537 Y26.6136 
G01 X-23.1013 Y26.6136 
G01 X-22.9542 Y26.5742 
G01 X-22.8222 Y26.4980 
G01 X-22.7145 Y26.3903 
G01 X-22.6702 Y26.3136 
G01 X-18.9223 Y26.3136 
G01 X-18.8780 Y26.3903 
G01 X-18.7703 Y26.4980 
G01 X-18.6383 Y26.5742 
G01 X-18.4912 Y26.6136 
G01 X-18.3388 Y26.6136 
G01 X-18.1917 Y26.5742 
G01 X-18.0597 Y26.4980 
G01 X-17.9520 Y26.3903 
G01 X-17.8758 Y26.2583 
G01 X-17.8364 Y26.1112 
G01 X-17.8364 Y25.9588 
G01 X-17.8758 Y25.8117 
G01 X-17.9520 Y25.6797 
G01 X-18.0597 Y25.5720 
G01 X-18.1917 Y25.4958 
G01 X-18.3388 Y25.4564 
G01 X-18.4912 Y25.4564 
G01 X-18.6383 Y25.4958 
G01 X-18.7703 Y25.5720 
G01 X-18.8780 Y25.6797 
G01 X-18.9223 Y25.7564 
G01 X-22.6702 Y25.7564 
G01 X-22.7145 Y25.6797 
G01 X-22.8222 Y25.5720 
G01 X-22.9542 Y25.4958 
G01 X-23.1013 Y25.4564 
G01 X-23.2537 Y25.4564 
G01 X-23.4008 Y25.4958 
G01 X-23.5328 Y25.5720 
G00 Z2.5400  
G00 X-17.3667 Y25.6233 
G01 Z-0.1000 F254   
G01 X-17.2905 Y25.7553 F508   
G01 X-17.1828 Y25.8630 
G01 X-17.0508 Y25.9392 
G01 X-16.9037 Y25.9786 
G01 X-16.7513 Y25.9786 
G01 X-16.6042 Y25.9392 
G01 X-16.4722 Y25.8630 
G01 X-16.3645 Y25.7553 
G01 X-16.2883 Y25.6233 
G01 X-16.2489 Y25.4762 
G01 X-16.2489 Y25.3238 
G01 X-16.2883 Y25.1767 
G01 X-16.3645 Y25.0447 
G01 X-16.4722 Y24.9370 
G01 X-16.5489 Y24.8927 
G01 X-16.5489 Y13.8423 
G01 X-16.4722 Y13.7980 
G01 X-16.3645 Y13.6903 
G01 X-16.2883 Y13.5583 
G01 X-16.2489 Y13.4112 
G01 X-16.2489 Y13.2588 
G01 X-16.2883 Y13.1117 
G01 X-16.3645 Y12.9797 
G01 X-16.4722 Y12.8720 
G01 X-16.6042 Y12.7958 
G01 X-16.7513 Y12.7564 
G01 X-16.9037 Y12.7564 
G01 X-17.0508 Y12.7958 
G01 X-17.1828 Y12.8720 
G01 X-17.2905 Y12.9797 
G01 X-17.3667 Y13.1117 
G01 X-17.4061 Y13.2588 
G01 X-17.4061 Y13.4112 
G01 X-17.3667 Y13.5583 
G01 X-17.2905 Y13.6903 
G01 X-17.1828 Y13.7980 
G01 X-17.1061 Y13.8423 
G01 X-17.1061 Y24.8927 
G01 X-17.1828 Y24.9370 
G01 X-17.2905 Y25.0447 
G01 X-17.3667 Y25.1767 
G01 X-17.4061 Y25.3238 
G01 X-17.4061 Y25.4762 
G01 X-17.3667 Y25.6233 
G00 Z2.5400  
G00 X-19.9647 Y18.2430 
G01 Z-0.1000 F254   
G01 X-19.8570 Y18.1353 F508   
G01 X-19.7808 Y18.0033 
G01 X-19.7414 Y17.8562 
G01 X-19.7414 Y17.7038 
G01 X-19.7808 Y17.5567 
G01 X-19.8570 Y17.4247 
G01 X-19.9647 Y17.3170 
G01 X-20.0967 Y17.2408 
G01 X-20.2438 Y17.2014 
G01 X-20.3962 Y17.2014 
G01 X-20.5433 Y17.2408 
G01 X-20.6753 Y17.3170 
G01 X-20.7830 Y17.4247 
G01 X-20.8273 Y17.5014 
G01 X-27.7502 Y17.5014 
G01 X-27.7945 Y17.4247 
G01 X-27.9022 Y17.3170 
G01 X-28.0342 Y17.2408 
G01 X-28.1813 Y17.2014 
G01 X-28.3337 Y17.2014 
G01 X-28.4808 Y17.2408 
G01 X-28.6128 Y17.3170 
G01 X-28.7205 Y17.4247 
G01 X-28.7967 Y17.5567 
G01 X-28.8361 Y17.7038 
G01 X-28.8361 Y17.8562 
G01 X-28.7967 Y18.0033 
G01 X-28.7205 Y18.1353 
G01 X-28.6128 Y18.2430 
G01 X-28.4808 Y18.3192 
G01 X-28.3337 Y18.3586 
G01 X-28.1813 Y18.3586 
G01 X-28.0342 Y18.3192 
G01 X-27.9022 Y18.2430 
G01 X-27.7945 Y18.1353 
G01 X-27.7502 Y18.0586 
G01 X-20.8273 Y18.0586 
G01 X-20.7830 Y18.1353 
G01 X-20.6753 Y18.2430 
G01 X-20.5433 Y18.3192 
G01 X-20.3962 Y18.3586 
G01 X-20.2438 Y18.3586 
G01 X-20.0967 Y18.3192 
G01 X-19.9647 Y18.2430 
G00 Z2.5400  
G00 X-13.4774 Y17.0438 
G01 Z-0.1000 F254   
G01 X-13.3608 Y17.1605 F508   
G01 X-13.2237 Y17.2521 
G01 X-13.0713 Y17.3152 
G01 X-12.9095 Y17.3474 
G01 X-11.2205 Y17.3474 
G01 X-11.0587 Y17.3152 
G01 X-10.9063 Y17.2521 
G01 X-10.7692 Y17.1605 
G01 X-10.6525 Y17.0438 
G01 X-10.5609 Y16.9067 
G01 X-10.4978 Y16.7543 
G01 X-10.4656 Y16.5925 
G01 X-10.4656 Y16.4275 
G01 X-10.4978 Y16.2657 
G01 X-10.5609 Y16.1133 
G01 X-10.6525 Y15.9762 
G01 X-10.7692 Y15.8595 
G01 X-10.9063 Y15.7679 
G01 X-11.0587 Y15.7048 
G01 X-11.2205 Y15.6726 
G01 X-12.9095 Y15.6726 
G01 X-13.0713 Y15.7048 
G01 X-13.2237 Y15.7679 
G01 X-13.3608 Y15.8595 
G01 X-13.4774 Y15.9762 
G01 X-13.5691 Y16.1133 
G01 X-13.6322 Y16.2657 
G01 X-13.6644 Y16.4275 
G01 X-13.6644 Y16.5925 
G01 X-13.6322 Y16.7543 
G01 X-13.5691 Y16.9067 
G01 X-13.4774 Y17.0438 
G00 Z2.5400  
G00 X-13.4774 Y14.5038 
G01 Z-0.1000 F254   
G01 X-13.3608 Y14.6204 F508   
G01 X-13.2237 Y14.7121 
G01 X-13.0713 Y14.7752 
G01 X-12.9095 Y14.8074 
G01 X-11.2205 Y14.8074 
G01 X-11.0587 Y14.7752 
G01 X-10.9063 Y14.7121 
G01 X-10.7692 Y14.6204 
G01 X-10.6525 Y14.5038 
G01 X-10.5609 Y14.3667 
G01 X-10.4978 Y14.2143 
G01 X-10.4656 Y14.0525 
G01 X-10.4656 Y13.8875 
G01 X-10.4978 Y13.7257 
G01 X-10.5609 Y13.5733 
G01 X-10.6525 Y13.4362 
G01 X-10.7692 Y13.3195 
G01 X-10.9063 Y13.2279 
G01 X-11.0587 Y13.1648 
G01 X-11.2205 Y13.1326 
G01 X-12.9095 Y13.1326 
G01 X-13.0713 Y13.1648 
G01 X-13.2237 Y13.2279 
G01 X-13.3608 Y13.3195 
G01 X-13.4774 Y13.4362 
G01 X-13.5691 Y13.5733 
G01 X-13.6322 Y13.7257 
G01 X-13.6644 Y13.8875 
G01 X-13.6644 Y14.0525 
G01 X-13.6322 Y14.2143 
G01 X-13.5691 Y14.3667 
G01 X-13.4774 Y14.5038 
G00 Z2.5400  
G00 X-13.4774 Y11.9638 
G01 Z-0.1000 F254   
G01 X-13.3608 Y12.0805 F508   
G01 X-13.2237 Y12.1721 
G01 X-13.0713 Y12.2352 
G01 X-12.9095 Y12.2674 
G01 X-11.2205 Y12.2674 
G01 X-11.0587 Y12.2352 
G01 X-10.9063 Y12.1721 
G01 X-10.7692 Y12.0805 
G01 X-10.6525 Y11.9638 
G01 X-10.5609 Y11.8267 
G01 X-10.4978 Y11.6743 
G01 X-10.4656 Y11.5125 
G01 X-10.4656 Y11.3475 
G01 X-10.4978 Y11.1857 
G01 X-10.5609 Y11.0333 
G01 X-10.6525 Y10.8962 
G01 X-10.7692 Y10.7795 
G01 X-10.9063 Y10.6879 
G01 X-11.0587 Y10.6248 
G01 X-11.2205 Y10.5926 
G01 X-12.9095 Y10.5926 
G01 X-13.0713 Y10.6248 
G01 X-13.2237 Y10.6879 
G01 X-13.3608 Y10.7795 
G01 X-13.4774 Y10.8962 
G01 X-13.5691 Y11.0333 
G01 X-13.6322 Y11.1857 
G01 X-13.6644 Y11.3475 
G01 X-13.6644 Y11.5125 
G01 X-13.6322 Y11.6743 
G01 X-13.5691 Y11.8267 
G01 X-13.4774 Y11.9638 
G00 Z2.5400  
G00 X-13.9322 Y9.9880  
G01 Z-0.1000 F254   
G01 X-13.8245 Y9.8803  F508   
G01 X-13.7483 Y9.7483  
G01 X-13.7089 Y9.6012  
G01 X-13.7089 Y9.4488  
G01 X-13.7483 Y9.3017  
G01 X-13.8245 Y9.1697  
G01 X-13.9322 Y9.0620  
G01 X-14.0642 Y8.9858  
G01 X-14.2113 Y8.9464  
G01 X-14.3637 Y8.9464  
G01 X-14.5108 Y8.9858  
G01 X-14.6428 Y9.0620  
G01 X-14.7505 Y9.1697  
G01 X-14.8267 Y9.3017  
G01 X-14.8661 Y9.4488  
G01 X-14.8661 Y9.4643  
G01 X-17.7329 Y10.6588 
G01 X-17.7422 Y10.6495 
G01 X-17.8742 Y10.5733 
G01 X-18.0213 Y10.5339 
G01 X-18.1737 Y10.5339 
G01 X-18.3208 Y10.5733 
G01 X-18.4528 Y10.6495 
G01 X-18.5605 Y10.7572 
G01 X-18.6367 Y10.8892 
G01 X-18.6761 Y11.0363 
G01 X-18.6761 Y11.1887 
G01 X-18.6367 Y11.3358 
G01 X-18.5605 Y11.4678 
G01 X-18.4528 Y11.5755 
G01 X-18.3208 Y11.6517 
G01 X-18.1737 Y11.6911 
G01 X-18.0213 Y11.6911 
G01 X-17.8742 Y11.6517 
G01 X-17.7422 Y11.5755 
G01 X-17.6345 Y11.4678 
G01 X-17.5583 Y11.3358 
G01 X-17.5189 Y11.1887 
G01 X-17.5189 Y11.1732 
G01 X-14.6520 Y9.9787  
G01 X-14.6428 Y9.9880  
G01 X-14.5108 Y10.0642 
G01 X-14.3637 Y10.1036 
G01 X-14.2113 Y10.1036 
G01 X-14.0642 Y10.0642 
G01 X-13.9322 Y9.9880  
G00 Z2.5400  
G00 X-5.5814 Y21.2490 
G01 Z-0.1000 F254   
G01 X-5.6910 Y21.3586 F508   
G01 X-5.7771 Y21.4874 
G01 X-5.8364 Y21.6306 
G01 X-5.8666 Y21.7825 
G01 X-5.8666 Y21.9375 
G01 X-5.8364 Y22.0894 
G01 X-5.7771 Y22.2326 
G01 X-5.6910 Y22.3614 
G01 X-5.5814 Y22.4710 
G01 X-5.4526 Y22.5571 
G01 X-5.3094 Y22.6164 
G01 X-5.1575 Y22.6466 
G01 X-5.0025 Y22.6466 
G01 X-4.8506 Y22.6164 
G01 X-4.7074 Y22.5571 
G01 X-4.5786 Y22.4710 
G01 X-4.4690 Y22.3614 
G01 X-4.3829 Y22.2326 
G01 X-4.3236 Y22.0894 
G01 X-4.2934 Y21.9375 
G01 X-4.2934 Y21.7825 
G01 X-4.3236 Y21.6306 
G01 X-4.3829 Y21.4874 
G01 X-4.4690 Y21.3586 
G01 X-4.5786 Y21.2490 
G01 X-4.7074 Y21.1629 
G01 X-4.8506 Y21.1036 
G01 X-5.0025 Y21.0734 
G01 X-5.1575 Y21.0734 
G01 X-5.3094 Y21.1036 
G01 X-5.4526 Y21.1629 
G01 X-5.5814 Y21.2490 
G00 Z2.5400  
G00 X-5.5814 Y23.2490 
G01 Z-0.1000 F254   
G01 X-5.6910 Y23.3586 F508   
G01 X-5.7771 Y23.4874 
G01 X-5.8364 Y23.6306 
G01 X-5.8666 Y23.7825 
G01 X-5.8666 Y23.9375 
G01 X-5.8364 Y24.0894 
G01 X-5.7771 Y24.2326 
G01 X-5.6910 Y24.3614 
G01 X-5.5814 Y24.4710 
G01 X-5.4526 Y24.5571 
G01 X-5.3094 Y24.6164 
G01 X-5.1575 Y24.6466 
G01 X-5.0025 Y24.6466 
G01 X-4.8506 Y24.6164 
G01 X-4.7074 Y24.5571 
G01 X-4.5786 Y24.4710 
G01 X-4.4690 Y24.3614 
G01 X-4.3829 Y24.2326 
G01 X-4.3236 Y24.0894 
G01 X-4.2934 Y23.9375 
G01 X-4.2934 Y23.7825 
G01 X-4.3236 Y23.6306 
G01 X-4.3829 Y23.4874 
G01 X-4.4690 Y23.3586 
G01 X-4.5786 Y23.2490 
G01 X-4.7074 Y23.1629 
G01 X-4.8506 Y23.1036 
G01 X-5.0025 Y23.0734 
G01 X-5.1575 Y23.0734 
G01 X-5.3094 Y23.1036 
G01 X-5.4526 Y23.1629 
G01 X-5.5814 Y23.2490 
G00 Z2.5400  
G82 X-14.2875 Y9.5250  Z-0.1000 F508   R2.5400  P0.500000
G82 X-18.0975 Y11.1125 
G82 X-20.3200 Y17.7800 
G82 X-28.2575 Y17.7800 
G82 X-15.2400 Y12.0650 
G82 X-26.3525 Y12.0650 
G82 X-28.2575 Y9.2075  
G82 X-28.2575 Y15.2400 
G82 X-18.4150 Y26.0350 
G82 X-23.1775 Y26.0350 
G82 X-16.8275 Y13.3350 
G82 X-16.8275 Y25.4000 
G82 X-5.0800 Y21.8600 
G82 X-5.0800 Y23.8600 
G82 X-33.6550 Y11.4300 
G82 X-31.1150 Y11.4300 
G82 X-33.6550 Y13.9700 
G82 X-31.1150 Y13.9700 
G82 X-33.6550 Y16.5100 
G82 X-31.1150 Y16.5100 
G82 X-15.8750 Y7.6200  
G82 X-18.4150 Y7.6200  
G82 X-20.9550 Y7.6200  
G82 X-23.4950 Y7.6200  
G82 X-26.0350 Y7.6200  
G82 X-12.0650 Y16.5100 
G82 X-12.0650 Y13.9700 
G82 X-12.0650 Y11.4300 
G82 X-6.9850 Y12.7000 
G82 X-38.7350 Y22.8600 
G82 X-13.3350 Y37.4650 
G82 X-31.1150 Y20.3200 
G82 X-31.1150 Y22.8600 
G82 X-31.1150 Y25.4000 
G00 Z40.0000 
M05
M02
