(.../EAGLE-7.1.0/ulp/pcb-gcode.ulp)
(Copyright 2005 - 2012 by John Johnson)
(See readme.txt for licensing terms.)
(This file generated from the board:)
(.../Gesture_rf_controller_v1/Gesture_rf_controller_v1.brd)
(Current profile is .../EAGLE-7.1.0/ulp/profiles/mach.pp  )
(This file generated 29-5-2015 17:39:33)
(Settings from pcb-machine.h)
(spindle on time = 1.0000)
(  Tool Size)
(0.1000  )
(spindle speed = 30000.0000)
(tool change at 0.0000  0.0000  25.4000 )
(feed rate xy = F508   )
(feed rate z  = F254   )
(Z Axis Settings)
(  High     Up        Down     Drill)
(40.0000 	2.5400  	-0.1000 	-1.8000 )
(Settings from pcb-defaults.h)
(isolate min = 0.0254)
(isolate max = 0.5080)
(isolate step = 0.1270)
(Generated top outlines, top drill, bottom outlines, bottom drill, )
(Unit of measure: mm)
(Metric Mode)
G21
(Absolute Coordinates)
G90
S30000
G00 Z40.0000 
G00 X0.0000  Y0.0000  
M03
G04 P1.000000
G00 Z2.5400  
G00 X6.7735  Y8.8001  
G01 Z-0.1000 F254   
G01 X6.7624  Y8.8142  F508   
G01 X6.7494  Y8.8267  
G01 X6.7397  Y8.8429  
G01 X6.0285  Y9.7435  
G01 X6.0141  Y9.7579  
G01 X6.0059  Y9.7722  
G01 X5.9957  Y9.7851  
G01 X5.9876  Y9.8038  
G01 X5.9774  Y9.8214  
G01 X5.9732  Y9.8373  
G01 X5.9667  Y9.8525  
G01 X5.9637  Y9.8726  
G01 X5.9584  Y9.8923  
G01 X5.9584  Y9.9087  
G01 X5.9561  Y9.9251  
G01 X5.9584  Y9.9453  
G01 X5.9584  Y9.9656  
G01 X5.9627  Y9.9815  
G01 X5.9646  Y9.9979  
G01 X5.9722  Y10.0168 
G01 X5.9774  Y10.0365 
G01 X5.9857  Y10.0507 
G01 X5.9918  Y10.0661 
G01 X6.0039  Y10.0824 
G01 X6.0141  Y10.1000 
G01 X6.0257  Y10.1117 
G01 X6.0356  Y10.1249 
G01 X6.0516  Y10.1375 
G01 X6.0660  Y10.1519 
G01 X6.0802  Y10.1601 
G01 X6.0932  Y10.1703 
G01 X6.1119  Y10.1784 
G01 X6.1295  Y10.1886 
G01 X6.1454  Y10.1928 
G01 X6.1605  Y10.1994 
G01 X6.1807  Y10.2023 
G01 X6.2004  Y10.2076 
G01 X6.2168  Y10.2076 
G01 X6.2331  Y10.2099 
G01 X6.2534  Y10.2076 
G01 X6.2737  Y10.2076 
G01 X6.2896  Y10.2033 
G01 X6.3060  Y10.2014 
G01 X6.3249  Y10.1938 
G01 X6.6438  Y10.1084 
G01 X7.3262  Y10.1084 
G01 X7.9853  Y10.2850 
G01 X8.5763  Y10.6262 
G01 X9.0588  Y11.1087 
G01 X9.4000  Y11.6997 
G01 X9.5766  Y12.3588 
G01 X9.5766  Y13.0412 
G01 X9.4000  Y13.7003 
G01 X9.0588  Y14.2913 
G01 X8.5763  Y14.7738 
G01 X7.9853  Y15.1150 
G01 X7.6372  Y15.2083 
G01 X7.6345  Y15.2090 
G01 X7.5710  Y15.2457 
G01 X7.5191  Y15.2975 
G01 X7.5097  Y15.3137 
G01 X7.4936  Y15.3044 
G01 X7.4646  Y15.2966 
G01 X7.4227  Y15.2854 
G01 X7.3856  Y15.2854 
G01 X7.3494  Y15.2854 
G01 X7.3262  Y15.2916 
G01 X6.6438  Y15.2916 
G01 X5.9847  Y15.1150 
G01 X5.3937  Y14.7738 
G01 X4.9112  Y14.2913 
G01 X4.5700  Y13.7003 
G01 X4.3943  Y13.0447 
G01 X4.3856  Y13.0107 
G01 X4.3845  Y13.0078 
G01 X4.3669  Y12.9773 
G01 X4.3497  Y12.9468 
G01 X4.3229  Y12.9194 
G01 X4.2984  Y12.8944 
G01 X4.2655  Y12.8749 
G01 X4.2353  Y12.8570 
G01 X4.2324  Y12.8558 
G01 X4.1985  Y12.8467 
G01 X4.1646  Y12.8372 
G01 X4.1615  Y12.8368 
G01 X4.1264  Y12.8368 
G01 X4.0913  Y12.8364 
G01 X4.0882  Y12.8368 
G01 X4.0542  Y12.8459 
G01 X4.0202  Y12.8546 
G01 X4.0173  Y12.8558 
G01 X3.9868  Y12.8734 
G01 X3.9563  Y12.8905 
G01 X3.9289  Y12.9173 
G01 X3.9038  Y12.9418 
G01 X3.8844  Y12.9747 
G01 X3.7648  Y13.1767 
G01 X3.7532  Y13.1915 
G01 X3.7461  Y13.2081 
G01 X3.7370  Y13.2236 
G01 X3.7319  Y13.2417 
G01 X2.7178  Y15.6333 
G01 X2.7083  Y15.6495 
G01 X2.7035  Y15.6669 
G01 X2.6965  Y15.6835 
G01 X2.6939  Y15.7021 
G01 X2.0076  Y18.2075 
G01 X2.0003  Y18.2249 
G01 X1.9979  Y18.2427 
G01 X1.9932  Y18.2601 
G01 X1.9931  Y18.2789 
G01 X1.6468  Y20.8534 
G01 X1.6419  Y20.8716 
G01 X1.6419  Y20.8896 
G01 X1.6395  Y20.9075 
G01 X1.6419  Y20.9262 
G01 X1.6419  Y23.5238 
G01 X1.6395  Y23.5425 
G01 X1.6419  Y23.5604 
G01 X1.6419  Y23.5784 
G01 X1.6468  Y23.5966 
G01 X1.9931  Y26.1711 
G01 X1.9932  Y26.1899 
G01 X1.9979  Y26.2073 
G01 X2.0003  Y26.2251 
G01 X2.0076  Y26.2425 
G01 X2.6939  Y28.7479 
G01 X2.6965  Y28.7665 
G01 X2.7035  Y28.7831 
G01 X2.7083  Y28.8005 
G01 X2.7178  Y28.8167 
G01 X3.7319  Y31.2083 
G01 X3.7370  Y31.2264 
G01 X3.7461  Y31.2419 
G01 X3.7532  Y31.2585 
G01 X3.7648  Y31.2733 
G01 X5.0886  Y33.5084 
G01 X5.0960  Y33.5257 
G01 X5.1072  Y33.5398 
G01 X5.1164  Y33.5553 
G01 X5.1298  Y33.5685 
G01 X6.7397  Y35.6071 
G01 X6.7494  Y35.6233 
G01 X6.7624  Y35.6358 
G01 X6.7735  Y35.6499 
G01 X6.7886  Y35.6612 
G01 X8.6559  Y37.4671 
G01 X8.6676  Y37.4818 
G01 X8.6822  Y37.4925 
G01 X8.6951  Y37.5050 
G01 X8.7115  Y37.5141 
G01 X10.5095 Y38.8389 
G01 X10.5206 Y38.8500 
G01 X10.5389 Y38.8606 
G01 X10.5560 Y38.8731 
G01 X10.5706 Y38.8788 
G01 X10.5842 Y38.8867 
G01 X10.6046 Y38.8921 
G01 X10.6243 Y38.8998 
G01 X10.6398 Y38.9016 
G01 X10.6550 Y38.9056 
G01 X10.6762 Y38.9056 
G01 X10.6972 Y38.9080 
G01 X10.7127 Y38.9056 
G01 X10.7284 Y38.9056 
G01 X10.7488 Y38.9002 
G01 X10.7697 Y38.8970 
G01 X10.7841 Y38.8907 
G01 X10.7992 Y38.8867 
G01 X10.8175 Y38.8761 
G01 X10.8369 Y38.8676 
G01 X10.8492 Y38.8578 
G01 X10.8628 Y38.8500 
G01 X10.8777 Y38.8350 
G01 X10.8942 Y38.8218 
G01 X10.9035 Y38.8092 
G01 X10.9146 Y38.7981 
G01 X10.9252 Y38.7798 
G01 X10.9377 Y38.7628 
G01 X10.9435 Y38.7482 
G01 X10.9513 Y38.7346 
G01 X10.9568 Y38.7141 
G01 X10.9645 Y38.6945 
G01 X10.9662 Y38.6789 
G01 X10.9703 Y38.6637 
G01 X10.9703 Y38.6426 
G01 X10.9726 Y38.6216 
G01 X10.9703 Y38.6061 
G01 X10.9703 Y38.5904 
G01 X10.9648 Y38.5699 
G01 X10.9616 Y38.5490 
G01 X10.9554 Y38.5347 
G01 X10.9513 Y38.5195 
G01 X10.9407 Y38.5012 
G01 X10.9323 Y38.4818 
G01 X10.9225 Y38.4696 
G01 X10.9200 Y38.4653 
G01 X10.7434 Y37.8062 
G01 X10.7434 Y37.1238 
G01 X10.9200 Y36.4647 
G01 X11.2612 Y35.8737 
G01 X11.7437 Y35.3912 
G01 X12.3347 Y35.0500 
G01 X12.9938 Y34.8734 
G01 X13.6762 Y34.8734 
G01 X14.3353 Y35.0500 
G01 X14.9263 Y35.3912 
G01 X15.4088 Y35.8737 
G01 X15.7500 Y36.4647 
G01 X15.9266 Y37.1238 
G01 X15.9266 Y37.8062 
G01 X15.7500 Y38.4653 
G01 X15.4088 Y39.0563 
G01 X14.9263 Y39.5388 
G01 X14.3353 Y39.8800 
G01 X13.7563 Y40.0351 
G01 X13.7347 Y40.0385 
G01 X13.7210 Y40.0446 
G01 X13.7066 Y40.0484 
G01 X13.6876 Y40.0594 
G01 X13.6676 Y40.0683 
G01 X13.6560 Y40.0777 
G01 X13.6431 Y40.0851 
G01 X13.6276 Y40.1006 
G01 X13.6105 Y40.1144 
G01 X13.6018 Y40.1265 
G01 X13.5912 Y40.1370 
G01 X13.5803 Y40.1560 
G01 X13.5674 Y40.1737 
G01 X13.5620 Y40.1876 
G01 X13.5546 Y40.2005 
G01 X13.5489 Y40.2217 
G01 X13.5410 Y40.2421 
G01 X13.5394 Y40.2570 
G01 X13.5356 Y40.2714 
G01 X13.5356 Y40.2933 
G01 X13.5332 Y40.3151 
G01 X13.5356 Y40.3298 
G01 X13.5356 Y40.3447 
G01 X13.5412 Y40.3659 
G01 X13.5446 Y40.3876 
G01 X13.5507 Y40.4012 
G01 X13.5545 Y40.4156 
G01 X13.5655 Y40.4346 
G01 X13.5744 Y40.4546 
G01 X13.5838 Y40.4662 
G01 X13.5912 Y40.4791 
G01 X13.6067 Y40.4946 
G01 X13.6205 Y40.5117 
G01 X13.6326 Y40.5204 
G01 X13.6431 Y40.5310 
G01 X13.6621 Y40.5419 
G01 X13.6798 Y40.5549 
G01 X13.6937 Y40.5602 
G01 X13.7066 Y40.5677 
G01 X13.7278 Y40.5733 
G01 X15.6326 Y41.3069 
G01 X15.6491 Y41.3159 
G01 X15.6667 Y41.3201 
G01 X15.6835 Y41.3265 
G01 X15.7022 Y41.3285 
G01 X18.2291 Y41.9307 
G01 X18.2467 Y41.9374 
G01 X18.2646 Y41.9392 
G01 X18.2822 Y41.9434 
G01 X18.3010 Y41.9429 
G01 X20.8856 Y42.2029 
G01 X20.9039 Y42.2071 
G01 X20.9219 Y42.2065 
G01 X20.9399 Y42.2083 
G01 X20.9584 Y42.2053 
G01 X23.5547 Y42.1185 
G01 X23.5734 Y42.1203 
G01 X23.5912 Y42.1173 
G01 X23.6092 Y42.1167 
G01 X23.6272 Y42.1112 
G01 X26.1887 Y41.6791 
G01 X26.2075 Y41.6784 
G01 X26.2247 Y41.6731 
G01 X26.2425 Y41.6701 
G01 X26.2596 Y41.6622 
G01 X28.7406 Y40.8926 
G01 X28.7592 Y40.8894 
G01 X28.7755 Y40.8818 
G01 X28.7927 Y40.8765 
G01 X28.8086 Y40.8664 
G01 X31.1650 Y39.7730 
G01 X31.1829 Y39.7673 
G01 X31.1981 Y39.7576 
G01 X31.2145 Y39.7500 
G01 X31.2289 Y39.7379 
G01 X31.5539 Y39.5305 
G01 X31.5803 Y39.5152 
G01 X31.5847 Y39.5108 
G01 X31.5900 Y39.5074 
G01 X31.6106 Y39.4849 
G01 X31.6321 Y39.4634 
G01 X31.6353 Y39.4579 
G01 X31.6396 Y39.4533 
G01 X31.6536 Y39.4262 
G01 X31.6688 Y39.3999 
G01 X31.6705 Y39.3938 
G01 X31.6734 Y39.3882 
G01 X31.6799 Y39.3584 
G01 X31.6878 Y39.3290 
G01 X31.6878 Y39.3227 
G01 X31.6892 Y39.3165 
G01 X31.6878 Y39.2861 
G01 X31.6878 Y39.2556 
G01 X31.6862 Y39.2496 
G01 X31.6859 Y39.2433 
G01 X31.6767 Y39.2142 
G01 X31.6688 Y39.1848 
G01 X31.6657 Y39.1793 
G01 X31.6638 Y39.1733 
G01 X31.6474 Y39.1477 
G01 X31.6322 Y39.1213 
G01 X31.6277 Y39.1168 
G01 X31.6243 Y39.1115 
G01 X31.6018 Y39.0909 
G01 X31.5754 Y39.0645 
G01 X31.5270 Y39.0161 
G01 X31.5038 Y38.9929 
G01 X31.4751 Y38.9642 
G01 X31.4486 Y38.9489 
G01 X31.4116 Y38.9276 
G01 X31.3824 Y38.9197 
G01 X31.3408 Y38.9086 
G01 X31.3039 Y38.9086 
G01 X31.2674 Y38.9086 
G01 X31.2312 Y38.9183 
G01 X31.1965 Y38.9276 
G01 X31.1669 Y38.9447 
G01 X31.1330 Y38.9642 
G01 X31.1099 Y38.9873 
G01 X31.0812 Y39.0161 
G01 X30.9883 Y39.1090 
G01 X30.7767 Y39.1090 
G01 X30.7561 Y39.1035 
G01 X30.7192 Y39.1035 
G01 X30.6827 Y39.1035 
G01 X30.6621 Y39.1090 
G01 X30.2556 Y39.1090 
G01 X30.2083 Y39.0617 
G01 X30.1448 Y39.0250 
G01 X30.0921 Y39.0109 
G01 X30.0739 Y39.0060 
G01 X30.0006 Y39.0060 
G01 X29.9297 Y39.0250 
G01 X29.8662 Y39.0617 
G01 X29.8189 Y39.1090 
G01 X29.1909 Y39.1090 
G01 X29.1201 Y39.1280 
G01 X29.0565 Y39.1647 
G01 X29.0047 Y39.2165 
G01 X28.9680 Y39.2801 
G01 X28.9490 Y39.3509 
G01 X28.9490 Y39.3942 
G01 X28.8444 Y39.4988 
G01 X28.6964 Y39.4988 
G01 X28.6035 Y39.4059 
G01 X28.5878 Y39.3902 
G01 X28.5517 Y39.3540 
G01 X28.4881 Y39.3174 
G01 X28.4544 Y39.3083 
G01 X28.4173 Y39.2984 
G01 X28.3439 Y39.2984 
G01 X28.3051 Y39.3088 
G01 X28.2731 Y39.3174 
G01 X28.2095 Y39.3540 
G01 X28.1722 Y39.3914 
G01 X28.1577 Y39.4059 
G01 X28.0648 Y39.4988 
G01 X27.9168 Y39.4988 
G01 X27.8122 Y39.3942 
G01 X27.8122 Y38.0768 
G01 X27.9505 Y37.9385 
G01 X27.9886 Y37.9165 
G01 X28.0405 Y37.8647 
G01 X28.0564 Y37.8370 
G01 X28.0771 Y37.8011 
G01 X28.0961 Y37.7303 
G01 X28.0961 Y37.6569 
G01 X28.0879 Y37.6263 
G01 X28.0771 Y37.5861 
G01 X28.0405 Y37.5225 
G01 X27.9886 Y37.4707 
G01 X27.9514 Y37.4335 
G01 X27.9130 Y37.3951 
G01 X27.8763 Y37.3584 
G01 X27.8611 Y37.3432 
G01 X27.8122 Y37.2943 
G01 X27.8122 Y36.3667 
G01 X27.8996 Y36.2794 
G01 X28.1290 Y36.0499 
G01 X28.1604 Y35.9962 
G01 X28.1665 Y35.9855 
G01 X28.1751 Y35.9535 
G01 X28.1855 Y35.9147 
G01 X28.1855 Y35.8413 
G01 X28.1665 Y35.7705 
G01 X28.1299 Y35.7069 
G01 X28.0780 Y35.6551 
G01 X28.0628 Y35.6399 
G01 X28.0322 Y35.6093 
G01 X28.0109 Y35.5880 
G01 X27.9514 Y35.5285 
G01 X27.9130 Y35.4901 
G01 X27.8763 Y35.4534 
G01 X27.8611 Y35.4382 
G01 X27.8122 Y35.3893 
G01 X27.8122 Y34.8868 
G01 X27.7932 Y34.8160 
G01 X27.7570 Y34.7532 
G01 X27.7047 Y34.7006 
G01 X27.6411 Y34.6639 
G01 X27.5703 Y34.6449 
G01 X27.4969 Y34.6449 
G01 X27.4261 Y34.6639 
G01 X27.3633 Y34.7001 
G01 X27.3182 Y34.7449 
G01 X27.3107 Y34.7524 
G01 X24.5167 Y37.5464 
G01 X24.4800 Y37.6100 
G01 X24.4610 Y37.6808 
G01 X24.4610 Y37.7603 
G01 X24.4800 Y37.8311 
G01 X24.5167 Y37.8947 
G01 X24.5685 Y37.9465 
G01 X24.6321 Y37.9832 
G01 X24.7029 Y38.0022 
G01 X25.1079 Y38.0022 
G01 X25.1828 Y38.0771 
G01 X25.1828 Y39.2829 
G01 X25.1079 Y39.3578 
G01 X23.0021 Y39.3578 
G01 X22.9272 Y39.2829 
G01 X22.9272 Y39.2529 
G01 X22.9082 Y39.1821 
G01 X22.8715 Y39.1185 
G01 X22.8197 Y39.0667 
G01 X22.7561 Y39.0300 
G01 X22.6853 Y39.0110 
G01 X19.2247 Y39.0110 
G01 X19.1539 Y39.0300 
G01 X19.0903 Y39.0667 
G01 X19.0385 Y39.1185 
G01 X19.0018 Y39.1821 
G01 X18.9828 Y39.2529 
G01 X18.9828 Y39.2829 
G01 X18.9079 Y39.3578 
G01 X16.8021 Y39.3578 
G01 X16.7272 Y39.2829 
G01 X16.7272 Y38.0771 
G01 X16.8021 Y38.0022 
G01 X18.9079 Y38.0022 
G01 X18.9828 Y38.0771 
G01 X18.9828 Y38.1071 
G01 X19.0018 Y38.1779 
G01 X19.0385 Y38.2415 
G01 X19.0903 Y38.2933 
G01 X19.1539 Y38.3300 
G01 X19.2247 Y38.3490 
G01 X22.6853 Y38.3490 
G01 X22.7561 Y38.3300 
G01 X22.8197 Y38.2933 
G01 X22.8715 Y38.2415 
G01 X22.9082 Y38.1779 
G01 X22.9272 Y38.1071 
G01 X22.9272 Y38.0771 
G01 X23.0021 Y38.0022 
G01 X23.5571 Y38.0022 
G01 X23.6279 Y37.9832 
G01 X23.6915 Y37.9465 
G01 X23.7433 Y37.8947 
G01 X23.7800 Y37.8311 
G01 X23.7990 Y37.7603 
G01 X23.7990 Y37.3992 
G01 X23.8494 Y37.2775 
G01 X24.9168 Y36.2101 
G01 X24.9686 Y36.1583 
G01 X25.0053 Y36.0947 
G01 X25.0243 Y36.0239 
G01 X25.0243 Y35.9505 
G01 X25.0053 Y35.8797 
G01 X24.9686 Y35.8161 
G01 X24.9168 Y35.7643 
G01 X24.8532 Y35.7276 
G01 X24.7824 Y35.7086 
G01 X24.4054 Y35.7086 
G01 X24.4054 Y35.6054 
G01 X25.0700 Y35.6054 
G01 X25.0977 Y35.5939 
G01 X25.1189 Y35.5727 
G01 X25.1304 Y35.5450 
G01 X25.1304 Y35.3304 
G01 X25.2538 Y35.3304 
G01 X25.2888 Y35.3910 
G01 X25.3411 Y35.4436 
G01 X25.4047 Y35.4803 
G01 X25.4755 Y35.4993 
G01 X25.5489 Y35.4993 
G01 X25.6197 Y35.4803 
G01 X25.6824 Y35.4441 
G01 X25.7336 Y35.3933 
G01 X28.8658 Y32.2611 
G01 X29.0225 Y32.1044 
G01 X29.1442 Y32.0540 
G01 X31.2167 Y32.0540 
G01 X31.2875 Y32.0350 
G01 X31.3511 Y31.9983 
G01 X31.4029 Y31.9465 
G01 X31.4901 Y31.8593 
G01 X31.5419 Y31.8075 
G01 X31.5786 Y31.7439 
G01 X31.5927 Y31.6913 
G01 X31.5976 Y31.6731 
G01 X31.5976 Y31.5997 
G01 X31.5786 Y31.5289 
G01 X31.5419 Y31.4653 
G01 X31.4901 Y31.4135 
G01 X31.4265 Y31.3768 
G01 X31.3739 Y31.3627 
G01 X31.3557 Y31.3578 
G01 X29.9745 Y31.3578 
G01 X29.9525 Y31.3451 
G01 X29.8817 Y31.3261 
G01 X29.8446 Y31.3261 
G01 X29.8083 Y31.3261 
G01 X29.8024 Y31.3277 
G01 X29.7375 Y31.3451 
G01 X29.7170 Y31.3569 
G01 X28.2921 Y31.3578 
G01 X28.2172 Y31.2829 
G01 X28.2172 Y31.0529 
G01 X28.1982 Y30.9821 
G01 X28.1615 Y30.9185 
G01 X28.1097 Y30.8667 
G01 X28.0461 Y30.8300 
G01 X27.9753 Y30.8110 
G01 X22.9747 Y30.8110 
G01 X22.9039 Y30.8300 
G01 X22.8403 Y30.8667 
G01 X22.7885 Y30.9185 
G01 X22.7518 Y30.9821 
G01 X22.7328 Y31.0529 
G01 X22.7328 Y31.1329 
G01 X22.6579 Y31.2078 
G01 X21.3521 Y31.2078 
G01 X21.2772 Y31.1329 
G01 X21.2772 Y29.8271 
G01 X21.3521 Y29.7522 
G01 X22.6579 Y29.7522 
G01 X22.7328 Y29.8271 
G01 X22.7328 Y29.9071 
G01 X22.7518 Y29.9779 
G01 X22.7885 Y30.0415 
G01 X22.8403 Y30.0933 
G01 X22.9039 Y30.1300 
G01 X22.9747 Y30.1490 
G01 X27.9753 Y30.1490 
G01 X28.0461 Y30.1300 
G01 X28.1097 Y30.0933 
G01 X28.1615 Y30.0415 
G01 X28.1982 Y29.9779 
G01 X28.2172 Y29.9071 
G01 X28.2172 Y29.6771 
G01 X28.2921 Y29.6022 
G01 X29.7155 Y29.6022 
G01 X29.7186 Y29.6040 
G01 X29.7374 Y29.6149 
G01 X29.8040 Y29.6327 
G01 X29.8083 Y29.6339 
G01 X29.8454 Y29.6339 
G01 X29.8817 Y29.6339 
G01 X29.9525 Y29.6149 
G01 X29.9745 Y29.6022 
G01 X30.2246 Y29.6022 
G01 X30.2954 Y29.5832 
G01 X30.3590 Y29.5465 
G01 X30.4108 Y29.4947 
G01 X30.4475 Y29.4311 
G01 X30.4665 Y29.3603 
G01 X30.4665 Y28.1917 
G01 X30.5169 Y28.0700 
G01 X30.6232 Y27.9636 
G01 X31.7448 Y26.8421 
G01 X31.7966 Y26.7903 
G01 X31.8333 Y26.7267 
G01 X31.8523 Y26.6559 
G01 X31.8523 Y26.5825 
G01 X31.8333 Y26.5117 
G01 X31.7966 Y26.4481 
G01 X31.7448 Y26.3963 
G01 X31.6812 Y26.3596 
G01 X31.6104 Y26.3406 
G01 X31.4444 Y26.3406 
G01 X31.4444 Y26.2374 
G01 X31.9595 Y26.2374 
G01 X32.1213 Y26.2052 
G01 X32.2737 Y26.1421 
G01 X32.4108 Y26.0505 
G01 X32.5275 Y25.9338 
G01 X32.6191 Y25.7967 
G01 X32.6822 Y25.6443 
G01 X32.7144 Y25.4825 
G01 X32.7144 Y25.3175 
G01 X32.6822 Y25.1557 
G01 X32.6191 Y25.0033 
G01 X32.5275 Y24.8662 
G01 X32.4108 Y24.7495 
G01 X32.2737 Y24.6579 
G01 X32.1213 Y24.5948 
G01 X31.9595 Y24.5626 
G01 X31.4444 Y24.5626 
G01 X31.4444 Y24.4594 
G01 X31.9510 Y24.4594 
G01 X32.0972 Y24.4826 
G01 X32.2381 Y24.5283 
G01 X32.3700 Y24.5955 
G01 X32.4898 Y24.6825 
G01 X32.5050 Y24.6977 
G01 X32.5568 Y24.7496 
G01 X32.6113 Y24.7811 
G01 X32.6204 Y24.7863 
G01 X32.6541 Y24.7953 
G01 X32.6912 Y24.8053 
G01 X32.7646 Y24.8053 
G01 X32.8354 Y24.7863 
G01 X32.8990 Y24.7496 
G01 X32.9508 Y24.6978 
G01 X32.9823 Y24.6433 
G01 X32.9875 Y24.6342 
G01 X32.9965 Y24.6005 
G01 X33.0065 Y24.5634 
G01 X33.0065 Y24.3458 
G01 X32.9875 Y24.2750 
G01 X32.9508 Y24.2114 
G01 X32.5063 Y23.7669 
G01 X32.4951 Y23.7523 
G01 X32.4804 Y23.7410 
G01 X32.4674 Y23.7280 
G01 X32.4515 Y23.7188 
G01 X32.4369 Y23.7076 
G01 X32.4198 Y23.7006 
G01 X32.4039 Y23.6913 
G01 X32.3861 Y23.6866 
G01 X32.3691 Y23.6795 
G01 X32.3508 Y23.6771 
G01 X32.3330 Y23.6724 
G01 X32.3146 Y23.6724 
G01 X32.2964 Y23.6700 
G01 X32.2781 Y23.6724 
G01 X32.2597 Y23.6724 
G01 X32.2419 Y23.6771 
G01 X32.2236 Y23.6795 
G01 X32.2066 Y23.6866 
G01 X32.1888 Y23.6913 
G01 X32.1729 Y23.7006 
G01 X32.0540 Y23.7498 
G01 X30.1760 Y23.7498 
G01 X29.8490 Y23.6143 
G01 X29.5987 Y23.3640 
G01 X29.5961 Y23.3578 
G01 X29.5873 Y23.3318 
G01 X29.5821 Y23.3240 
G01 X29.5785 Y23.3153 
G01 X29.5618 Y23.2935 
G01 X29.5466 Y23.2707 
G01 X29.5395 Y23.2646 
G01 X29.5338 Y23.2571 
G01 X29.5121 Y23.2404 
G01 X29.4915 Y23.2223 
G01 X29.4831 Y23.2182 
G01 X29.4756 Y23.2125 
G01 X29.4503 Y23.2020 
G01 X29.4257 Y23.1898 
G01 X29.4165 Y23.1880 
G01 X29.4079 Y23.1844 
G01 X29.3807 Y23.1808 
G01 X29.3538 Y23.1754 
G01 X29.3444 Y23.1760 
G01 X29.3351 Y23.1748 
G01 X29.3080 Y23.1784 
G01 X29.2806 Y23.1801 
G01 X29.2717 Y23.1832 
G01 X29.2624 Y23.1844 
G01 X29.2371 Y23.1949 
G01 X29.2111 Y23.2036 
G01 X29.2033 Y23.2089 
G01 X29.1946 Y23.2124 
G01 X29.1729 Y23.2292 
G01 X29.1501 Y23.2443 
G01 X29.1439 Y23.2514 
G01 X29.1364 Y23.2571 
G01 X29.1197 Y23.2789 
G01 X29.1016 Y23.2994 
G01 X29.0975 Y23.3079 
G01 X29.0918 Y23.3153 
G01 X29.0813 Y23.3406 
G01 X29.0691 Y23.3652 
G01 X29.0673 Y23.3744 
G01 X29.0637 Y23.3831 
G01 X29.0601 Y23.4102 
G01 X29.0316 Y23.5528 
G01 X28.9085 Y23.6348 
G01 X28.7634 Y23.6058 
G01 X28.7230 Y23.5451 
G01 X28.7147 Y23.5284 
G01 X28.7027 Y23.5147 
G01 X28.6927 Y23.4997 
G01 X28.6786 Y23.4873 
G01 X28.6663 Y23.4733 
G01 X28.6512 Y23.4632 
G01 X28.6376 Y23.4512 
G01 X28.6208 Y23.4429 
G01 X28.6052 Y23.4326 
G01 X28.5880 Y23.4268 
G01 X28.5718 Y23.4187 
G01 X28.5535 Y23.4151 
G01 X28.5357 Y23.4091 
G01 X28.5176 Y23.4079 
G01 X28.4999 Y23.4043 
G01 X28.4812 Y23.4055 
G01 X28.4625 Y23.4043 
G01 X28.4447 Y23.4079 
G01 X28.4267 Y23.4091 
G01 X28.4089 Y23.4151 
G01 X28.3906 Y23.4187 
G01 X28.3743 Y23.4268 
G01 X28.3572 Y23.4326 
G01 X28.3416 Y23.4429 
G01 X28.3248 Y23.4512 
G01 X28.3112 Y23.4632 
G01 X28.2961 Y23.4733 
G01 X28.2838 Y23.4873 
G01 X28.2697 Y23.4997 
G01 X28.2597 Y23.5147 
G01 X28.2477 Y23.5284 
G01 X28.2394 Y23.5451 
G01 X28.1990 Y23.6058 
G01 X28.0539 Y23.6348 
G01 X28.0398 Y23.6254 
G01 X28.0312 Y23.6225 
G01 X28.0233 Y23.6180 
G01 X27.9965 Y23.6108 
G01 X27.9703 Y23.6019 
G01 X27.9612 Y23.6014 
G01 X27.9524 Y23.5990 
G01 X27.9247 Y23.5990 
G01 X27.8971 Y23.5972 
G01 X27.8882 Y23.5990 
G01 X27.8791 Y23.5990 
G01 X27.8524 Y23.6062 
G01 X27.8252 Y23.6116 
G01 X27.8170 Y23.6156 
G01 X27.8082 Y23.6180 
G01 X27.7982 Y23.6238 
G01 X26.8480 Y23.6238 
G01 X26.7434 Y23.5192 
G01 X26.7434 Y23.3712 
G01 X26.8480 Y23.2666 
G01 X26.8913 Y23.2666 
G01 X26.9621 Y23.2476 
G01 X27.0257 Y23.2109 
G01 X27.0775 Y23.1591 
G01 X27.1142 Y23.0955 
G01 X27.1332 Y23.0247 
G01 X27.1332 Y22.2018 
G01 X27.2378 Y22.0972 
G01 X27.3858 Y22.0972 
G01 X27.4654 Y22.1768 
G01 X27.4704 Y22.1844 
G01 X27.4912 Y22.2026 
G01 X27.5108 Y22.2222 
G01 X27.5187 Y22.2268 
G01 X27.5255 Y22.2328 
G01 X27.5504 Y22.2451 
G01 X27.5744 Y22.2589 
G01 X27.5831 Y22.2613 
G01 X27.5913 Y22.2653 
G01 X27.6185 Y22.2707 
G01 X27.6452 Y22.2779 
G01 X27.6543 Y22.2779 
G01 X27.6632 Y22.2797 
G01 X27.6909 Y22.2779 
G01 X27.7186 Y22.2779 
G01 X27.7273 Y22.2756 
G01 X27.7364 Y22.2750 
G01 X27.7627 Y22.2661 
G01 X27.7894 Y22.2589 
G01 X27.7973 Y22.2544 
G01 X27.8059 Y22.2515 
G01 X27.8290 Y22.2361 
G01 X27.8530 Y22.2223 
G01 X27.8594 Y22.2158 
G01 X28.0539 Y22.0862 
G01 X28.1990 Y22.1152 
G01 X28.2394 Y22.1759 
G01 X28.2477 Y22.1926 
G01 X28.2597 Y22.2062 
G01 X28.2697 Y22.2213 
G01 X28.2838 Y22.2337 
G01 X28.2961 Y22.2477 
G01 X28.3112 Y22.2578 
G01 X28.3248 Y22.2697 
G01 X28.3416 Y22.2780 
G01 X28.3572 Y22.2884 
G01 X28.3743 Y22.2942 
G01 X28.3906 Y22.3023 
G01 X28.4089 Y22.3059 
G01 X28.4267 Y22.3119 
G01 X28.4447 Y22.3131 
G01 X28.4625 Y22.3167 
G01 X28.4812 Y22.3154 
G01 X28.4999 Y22.3167 
G01 X28.5176 Y22.3131 
G01 X28.5357 Y22.3119 
G01 X28.5535 Y22.3059 
G01 X28.5718 Y22.3023 
G01 X28.5880 Y22.2942 
G01 X28.6052 Y22.2884 
G01 X28.6208 Y22.2780 
G01 X28.6376 Y22.2697 
G01 X28.6512 Y22.2578 
G01 X28.6663 Y22.2477 
G01 X28.6786 Y22.2337 
G01 X28.6927 Y22.2213 
G01 X28.7027 Y22.2062 
G01 X28.7147 Y22.1926 
G01 X28.7230 Y22.1759 
G01 X28.7634 Y22.1152 
G01 X28.9085 Y22.0862 
G01 X29.0316 Y22.1682 
G01 X29.0600 Y22.3101 
G01 X29.0636 Y22.3372 
G01 X29.0672 Y22.3459 
G01 X29.0690 Y22.3551 
G01 X29.0811 Y22.3797 
G01 X29.0916 Y22.4050 
G01 X29.0973 Y22.4125 
G01 X29.1015 Y22.4209 
G01 X29.1196 Y22.4415 
G01 X29.1363 Y22.4632 
G01 X29.1437 Y22.4689 
G01 X29.1499 Y22.4760 
G01 X29.1727 Y22.4912 
G01 X29.1945 Y22.5079 
G01 X29.2032 Y22.5115 
G01 X29.2110 Y22.5167 
G01 X29.2369 Y22.5255 
G01 X29.2623 Y22.5359 
G01 X29.2716 Y22.5372 
G01 X29.2805 Y22.5402 
G01 X29.3078 Y22.5419 
G01 X29.3350 Y22.5455 
G01 X29.3443 Y22.5443 
G01 X29.3537 Y22.5449 
G01 X29.3806 Y22.5395 
G01 X29.4077 Y22.5359 
G01 X29.4164 Y22.5324 
G01 X29.4256 Y22.5305 
G01 X29.4502 Y22.5184 
G01 X29.4755 Y22.5079 
G01 X29.4829 Y22.5022 
G01 X29.4914 Y22.4980 
G01 X29.5119 Y22.4799 
G01 X29.5337 Y22.4632 
G01 X29.5394 Y22.4558 
G01 X29.5465 Y22.4496 
G01 X29.5617 Y22.4268 
G01 X29.5783 Y22.4050 
G01 X29.5819 Y22.3963 
G01 X29.5871 Y22.3885 
G01 X29.5959 Y22.3626 
G01 X29.5987 Y22.3560 
G01 X29.8490 Y22.1057 
G01 X30.1760 Y21.9702 
G01 X32.0540 Y21.9702 
G01 X32.3810 Y22.1057 
G01 X32.6313 Y22.3560 
G01 X32.7668 Y22.6830 
G01 X32.7668 Y23.0125 
G01 X32.7858 Y23.0833 
G01 X32.8225 Y23.1469 
G01 X33.4575 Y23.7819 
G01 X33.5093 Y23.8337 
G01 X33.5729 Y23.8704 
G01 X33.6437 Y23.8894 
G01 X33.7171 Y23.8894 
G01 X33.7879 Y23.8704 
G01 X33.8515 Y23.8337 
G01 X33.9033 Y23.7819 
G01 X33.9400 Y23.7183 
G01 X33.9590 Y23.6475 
G01 X33.9590 Y23.0758 
G01 X33.9400 Y23.0050 
G01 X33.9033 Y22.9414 
G01 X33.5326 Y22.5707 
G01 X33.3744 Y22.4125 
G01 X33.3240 Y22.2908 
G01 X33.3240 Y20.5706 
G01 X33.3264 Y20.5524 
G01 X33.3240 Y20.5342 
G01 X33.3240 Y20.1058 
G01 X33.3264 Y20.0876 
G01 X33.3240 Y20.0694 
G01 X33.3240 Y17.5954 
G01 X33.3264 Y17.5771 
G01 X33.3240 Y17.5589 
G01 X33.3240 Y17.5405 
G01 X33.3192 Y17.5227 
G01 X33.3168 Y17.5044 
G01 X33.3098 Y17.4874 
G01 X33.3050 Y17.4696 
G01 X33.2958 Y17.4537 
G01 X33.2888 Y17.4366 
G01 X33.2775 Y17.4220 
G01 X33.2683 Y17.4061 
G01 X33.2553 Y17.3931 
G01 X33.2441 Y17.3784 
G01 X33.2295 Y17.3672 
G01 X33.2165 Y17.3542 
G01 X33.2005 Y17.3450 
G01 X33.1859 Y17.3338 
G01 X33.1689 Y17.3267 
G01 X33.1529 Y17.3175 
G01 X33.1351 Y17.3128 
G01 X33.1181 Y17.3057 
G01 X33.1021 Y17.2965 
G01 X33.0843 Y17.2917 
G01 X33.0673 Y17.2847 
G01 X33.0491 Y17.2823 
G01 X33.0313 Y17.2775 
G01 X33.0129 Y17.2775 
G01 X32.9946 Y17.2751 
G01 X32.9763 Y17.2775 
G01 X32.9579 Y17.2775 
G01 X32.9401 Y17.2823 
G01 X32.9219 Y17.2847 
G01 X32.9049 Y17.2917 
G01 X32.8871 Y17.2965 
G01 X32.8711 Y17.3057 
G01 X32.8541 Y17.3127 
G01 X32.8395 Y17.3240 
G01 X32.8235 Y17.3332 
G01 X32.8105 Y17.3462 
G01 X32.7959 Y17.3574 
G01 X32.7847 Y17.3720 
G01 X32.7717 Y17.3850 
G01 X32.7625 Y17.4010 
G01 X32.7512 Y17.4156 
G01 X32.7442 Y17.4326 
G01 X32.7350 Y17.4486 
G01 X32.7302 Y17.4664 
G01 X32.7232 Y17.4834 
G01 X32.7208 Y17.5016 
G01 X32.7160 Y17.5194 
G01 X32.7160 Y17.5378 
G01 X32.7136 Y17.5561 
G01 X32.7160 Y17.5743 
G01 X32.7160 Y19.1158 
G01 X32.6656 Y19.2375 
G01 X32.5822 Y19.3209 
G01 X32.5303 Y19.3728 
G01 X32.4936 Y19.4363 
G01 X32.4795 Y19.4890 
G01 X32.4746 Y19.5072 
G01 X32.4746 Y19.5805 
G01 X32.4936 Y19.6514 
G01 X32.5303 Y19.7149 
G01 X32.6313 Y19.8160 
G01 X32.7668 Y20.1430 
G01 X32.7668 Y20.4970 
G01 X32.6313 Y20.8240 
G01 X32.3810 Y21.0743 
G01 X32.0540 Y21.2098 
G01 X30.1760 Y21.2098 
G01 X29.8490 Y21.0743 
G01 X29.5987 Y20.8240 
G01 X29.4632 Y20.4970 
G01 X29.4632 Y20.1430 
G01 X29.5987 Y19.8160 
G01 X29.8490 Y19.5657 
G01 X30.1760 Y19.4302 
G01 X31.4580 Y19.4302 
G01 X31.5288 Y19.4112 
G01 X31.5924 Y19.3745 
G01 X31.6442 Y19.3227 
G01 X31.9465 Y19.0204 
G01 X31.9983 Y18.9686 
G01 X32.0350 Y18.9050 
G01 X32.0540 Y18.8342 
G01 X32.0540 Y17.6062 
G01 X32.0555 Y17.5768 
G01 X32.0540 Y17.5696 
G01 X32.0540 Y17.5622 
G01 X32.0464 Y17.5338 
G01 X32.0403 Y17.5051 
G01 X32.0369 Y17.4985 
G01 X32.0350 Y17.4913 
G01 X32.0203 Y17.4658 
G01 X32.0070 Y17.4397 
G01 X32.0020 Y17.4342 
G01 X31.9983 Y17.4278 
G01 X31.9775 Y17.4070 
G01 X31.9579 Y17.3852 
G01 X31.9517 Y17.3812 
G01 X31.9465 Y17.3759 
G01 X31.9210 Y17.3612 
G01 X31.8964 Y17.3452 
G01 X31.8893 Y17.3429 
G01 X31.8829 Y17.3392 
G01 X31.8545 Y17.3316 
G01 X31.8266 Y17.3226 
G01 X31.8192 Y17.3222 
G01 X31.8121 Y17.3203 
G01 X31.7827 Y17.3203 
G01 X31.7533 Y17.3187 
G01 X31.7461 Y17.3203 
G01 X31.7387 Y17.3203 
G01 X31.7103 Y17.3279 
G01 X31.6816 Y17.3340 
G01 X31.6750 Y17.3373 
G01 X31.6679 Y17.3392 
G01 X31.6424 Y17.3540 
G01 X31.4956 Y17.4288 
G01 X31.4154 Y17.4548 
G01 X31.4154 Y17.3469 
G01 X31.5357 Y17.2971 
G01 X31.6812 Y17.1999 
G01 X31.8049 Y17.0762 
G01 X31.9021 Y16.9307 
G01 X31.9691 Y16.7691 
G01 X32.0032 Y16.5975 
G01 X32.0032 Y16.4225 
G01 X31.9691 Y16.2509 
G01 X31.9021 Y16.0893 
G01 X31.8049 Y15.9438 
G01 X31.6812 Y15.8201 
G01 X31.5357 Y15.7229 
G01 X31.3741 Y15.6559 
G01 X31.2025 Y15.6218 
G01 X31.0275 Y15.6218 
G01 X30.8559 Y15.6559 
G01 X30.6943 Y15.7229 
G01 X30.5488 Y15.8201 
G01 X30.4251 Y15.9438 
G01 X30.3279 Y16.0893 
G01 X30.2781 Y16.2096 
G01 X30.1702 Y16.2096 
G01 X30.1962 Y16.1294 
G01 X30.2654 Y15.9937 
G01 X30.2721 Y15.9849 
G01 X30.2820 Y15.9612 
G01 X30.2937 Y15.9382 
G01 X30.2960 Y15.9274 
G01 X30.3002 Y15.9172 
G01 X30.3036 Y15.8916 
G01 X30.3089 Y15.8665 
G01 X30.3083 Y15.8554 
G01 X30.3098 Y15.8444 
G01 X30.3064 Y15.8189 
G01 X30.3051 Y15.7932 
G01 X30.3016 Y15.7827 
G01 X30.3002 Y15.7717 
G01 X30.2903 Y15.7479 
G01 X30.2824 Y15.7234 
G01 X30.2764 Y15.7142 
G01 X30.2721 Y15.7039 
G01 X30.2565 Y15.6835 
G01 X30.2424 Y15.6619 
G01 X30.2342 Y15.6545 
G01 X30.2275 Y15.6457 
G01 X30.2070 Y15.6301 
G01 X30.1879 Y15.6128 
G01 X30.1781 Y15.6078 
G01 X30.1693 Y15.6011 
G01 X30.1455 Y15.5912 
G01 X30.1226 Y15.5795 
G01 X30.1117 Y15.5772 
G01 X29.9750 Y15.5206 
G01 X29.8686 Y15.4142 
G01 X29.3900 Y14.9356 
G01 X29.3382 Y14.8838 
G01 X29.2746 Y14.8471 
G01 X29.2038 Y14.8281 
G01 X29.1304 Y14.8281 
G01 X29.0596 Y14.8471 
G01 X28.9960 Y14.8838 
G01 X28.9442 Y14.9356 
G01 X28.9075 Y14.9992 
G01 X28.8885 Y15.0700 
G01 X28.8885 Y15.3655 
G01 X28.7924 Y15.5974 
G01 X28.6149 Y15.7749 
G01 X28.3830 Y15.8710 
G01 X28.1320 Y15.8710 
G01 X27.9001 Y15.7749 
G01 X27.8037 Y15.6785 
G01 X27.7518 Y15.6267 
G01 X27.6883 Y15.5900 
G01 X27.6174 Y15.5710 
G01 X25.9729 Y15.5710 
G01 X25.9021 Y15.5900 
G01 X25.8385 Y15.6267 
G01 X25.7867 Y15.6785 
G01 X25.7500 Y15.7421 
G01 X25.7310 Y15.8129 
G01 X25.7310 Y22.8408 
G01 X25.6806 Y22.9625 
G01 X24.2510 Y24.3921 
G01 X24.1992 Y24.4439 
G01 X24.1625 Y24.5075 
G01 X24.1435 Y24.5783 
G01 X24.1435 Y24.6517 
G01 X24.1488 Y24.6715 
G01 X24.1625 Y24.7225 
G01 X24.1992 Y24.7861 
G01 X24.2510 Y24.8379 
G01 X24.3478 Y24.9347 
G01 X24.3996 Y24.9865 
G01 X24.4632 Y25.0232 
G01 X24.5340 Y25.0422 
G01 X25.5679 Y25.0422 
G01 X25.6428 Y25.1171 
G01 X25.6428 Y26.5405 
G01 X25.6301 Y26.5624 
G01 X25.6201 Y26.5999 
G01 X25.6111 Y26.6333 
G01 X25.6111 Y26.6558 
G01 X25.6111 Y26.7067 
G01 X25.6301 Y26.7775 
G01 X25.6428 Y26.7995 
G01 X25.6428 Y28.2229 
G01 X25.5679 Y28.2978 
G01 X23.9621 Y28.2978 
G01 X23.8872 Y28.2229 
G01 X23.8872 Y28.0929 
G01 X23.8682 Y28.0221 
G01 X23.8315 Y27.9585 
G01 X23.7797 Y27.9067 
G01 X23.7161 Y27.8700 
G01 X23.6453 Y27.8510 
G01 X21.1042 Y27.8510 
G01 X20.9825 Y27.8006 
G01 X20.5429 Y27.3610 
G01 X20.4911 Y27.3092 
G01 X20.4275 Y27.2725 
G01 X20.3567 Y27.2535 
G01 X20.2833 Y27.2535 
G01 X20.2125 Y27.2725 
G01 X20.1497 Y27.3087 
G01 X20.1074 Y27.3507 
G01 X20.0971 Y27.3610 
G01 X17.5475 Y29.9106 
G01 X17.4258 Y29.9610 
G01 X16.9947 Y29.9610 
G01 X16.9239 Y29.9800 
G01 X16.8603 Y30.0167 
G01 X16.8085 Y30.0685 
G01 X16.7718 Y30.1321 
G01 X16.7528 Y30.2029 
G01 X16.7528 Y30.3905 
G01 X16.7451 Y30.4193 
G01 X16.7450 Y30.4562 
G01 X16.7450 Y30.4927 
G01 X16.7561 Y30.5339 
G01 X16.7640 Y30.5636 
G01 X16.7816 Y30.5940 
G01 X16.7914 Y30.6111 
G01 X16.8036 Y30.6565 
G01 X16.8036 Y30.9296 
G01 X16.7004 Y30.9296 
G01 X16.7004 Y30.6650 
G01 X16.6889 Y30.6373 
G01 X16.6677 Y30.6161 
G01 X16.6400 Y30.6046 
G01 X15.1100 Y30.6046 
G01 X15.0823 Y30.6161 
G01 X15.0611 Y30.6373 
G01 X15.0496 Y30.6650 
G01 X15.0496 Y30.9296 
G01 X14.9464 Y30.9296 
G01 X14.9464 Y30.6565 
G01 X14.9586 Y30.6111 
G01 X14.9685 Y30.5938 
G01 X14.9860 Y30.5636 
G01 X14.9940 Y30.5336 
G01 X15.0049 Y30.4928 
G01 X15.0049 Y30.4558 
G01 X15.0049 Y30.4194 
G01 X14.9972 Y30.3905 
G01 X14.9972 Y30.2029 
G01 X14.9782 Y30.1321 
G01 X14.9415 Y30.0685 
G01 X14.8897 Y30.0167 
G01 X14.8261 Y29.9800 
G01 X14.7553 Y29.9610 
G01 X14.4547 Y29.9610 
G01 X14.3839 Y29.9800 
G01 X14.3203 Y30.0167 
G01 X14.2685 Y30.0685 
G01 X14.2318 Y30.1321 
G01 X14.2128 Y30.2029 
G01 X14.2128 Y30.3905 
G01 X14.2051 Y30.4193 
G01 X14.2050 Y30.4562 
G01 X14.2050 Y30.4927 
G01 X14.2161 Y30.5339 
G01 X14.2240 Y30.5636 
G01 X14.2416 Y30.5940 
G01 X14.2514 Y30.6111 
G01 X14.2636 Y30.6565 
G01 X14.2636 Y30.9296 
G01 X14.1604 Y30.9296 
G01 X14.1604 Y30.6650 
G01 X14.1489 Y30.6373 
G01 X14.1277 Y30.6161 
G01 X14.1000 Y30.6046 
G01 X12.5700 Y30.6046 
G01 X12.5423 Y30.6161 
G01 X12.5211 Y30.6373 
G01 X12.5096 Y30.6650 
G01 X12.5096 Y30.9296 
G01 X12.4064 Y30.9296 
G01 X12.4064 Y30.6565 
G01 X12.4186 Y30.6111 
G01 X12.4285 Y30.5938 
G01 X12.4460 Y30.5636 
G01 X12.4540 Y30.5336 
G01 X12.4649 Y30.4928 
G01 X12.4649 Y30.4558 
G01 X12.4649 Y30.4194 
G01 X12.4572 Y30.3905 
G01 X12.4572 Y30.2029 
G01 X12.4382 Y30.1321 
G01 X12.4015 Y30.0685 
G01 X12.3497 Y30.0167 
G01 X12.2861 Y29.9800 
G01 X12.2153 Y29.9610 
G01 X11.9147 Y29.9610 
G01 X11.8439 Y29.9800 
G01 X11.7803 Y30.0167 
G01 X11.7285 Y30.0685 
G01 X11.6918 Y30.1321 
G01 X11.6728 Y30.2029 
G01 X11.6728 Y30.3905 
G01 X11.6651 Y30.4193 
G01 X11.6650 Y30.4562 
G01 X11.6650 Y30.4927 
G01 X11.6761 Y30.5339 
G01 X11.6840 Y30.5636 
G01 X11.7016 Y30.5940 
G01 X11.7114 Y30.6111 
G01 X11.7236 Y30.6565 
G01 X11.7236 Y30.9296 
G01 X11.6854 Y30.9296 
G01 X11.6204 Y30.9470 
G01 X11.6204 Y30.6650 
G01 X11.6089 Y30.6373 
G01 X11.5877 Y30.6161 
G01 X11.5600 Y30.6046 
G01 X10.0300 Y30.6046 
G01 X10.0023 Y30.6161 
G01 X9.9811  Y30.6373 
G01 X9.9696  Y30.6650 
G01 X9.9696  Y30.9296 
G01 X9.8664  Y30.9296 
G01 X9.8664  Y30.6565 
G01 X9.8786  Y30.6111 
G01 X9.8885  Y30.5938 
G01 X9.9060  Y30.5636 
G01 X9.9140  Y30.5336 
G01 X9.9249  Y30.4928 
G01 X9.9249  Y30.4558 
G01 X9.9249  Y30.4194 
G01 X9.9172  Y30.3905 
G01 X9.9172  Y28.9271 
G01 X9.9921  Y28.8522 
G01 X10.2221 Y28.8522 
G01 X10.2929 Y28.8332 
G01 X10.3565 Y28.7965 
G01 X10.4083 Y28.7447 
G01 X10.4450 Y28.6811 
G01 X10.4640 Y28.6103 
G01 X10.4640 Y28.4733 
G01 X10.4450 Y28.4025 
G01 X10.4083 Y28.3389 
G01 X7.8151  Y25.7457 
G01 X7.7633  Y25.6939 
G01 X7.6569  Y25.5875 
G01 X7.6065  Y25.4658 
G01 X7.6065  Y24.4329 
G01 X7.5875  Y24.3621 
G01 X7.5508  Y24.2985 
G01 X7.4990  Y24.2467 
G01 X7.4354  Y24.2100 
G01 X7.3646  Y24.1910 
G01 X6.0554  Y24.1910 
G01 X6.0372  Y24.1886 
G01 X6.0189  Y24.1910 
G01 X6.0005  Y24.1910 
G01 X5.9827  Y24.1958 
G01 X5.9644  Y24.1982 
G01 X5.9474  Y24.2052 
G01 X5.9296  Y24.2100 
G01 X5.9137  Y24.2192 
G01 X5.8967  Y24.2262 
G01 X5.8821  Y24.2374 
G01 X5.8661  Y24.2467 
G01 X5.8531  Y24.2597 
G01 X5.8385  Y24.2709 
G01 X5.8273  Y24.2855 
G01 X5.8142  Y24.2985 
G01 X5.8050  Y24.3145 
G01 X5.7938  Y24.3291 
G01 X5.7913  Y24.3353 
G01 X5.5553  Y24.5713 
G01 X5.2469  Y24.6990 
G01 X4.9131  Y24.6990 
G01 X4.6047  Y24.5713 
G01 X4.3687  Y24.3352 
G01 X4.2410  Y24.0269 
G01 X4.2410  Y23.6931 
G01 X4.3687  Y23.3847 
G01 X4.6047  Y23.1487 
G01 X4.6125  Y23.1455 
G01 X4.6370  Y23.1376 
G01 X4.6463  Y23.1315 
G01 X4.6565  Y23.1273 
G01 X4.6769  Y23.1116 
G01 X4.6985  Y23.0976 
G01 X4.7059  Y23.0894 
G01 X4.7147  Y23.0826 
G01 X4.7304  Y23.0622 
G01 X4.7476  Y23.0431 
G01 X4.7526  Y23.0332 
G01 X4.7593  Y23.0244 
G01 X4.7692  Y23.0007 
G01 X4.7809  Y22.9777 
G01 X4.7832  Y22.9669 
G01 X4.7874  Y22.9567 
G01 X4.7908  Y22.9311 
G01 X4.7961  Y22.9060 
G01 X4.7955  Y22.8949 
G01 X4.7970  Y22.8839 
G01 X4.7936  Y22.8584 
G01 X4.7923  Y22.8327 
G01 X4.7889  Y22.8222 
G01 X4.7874  Y22.8112 
G01 X4.7776  Y22.7874 
G01 X4.7696  Y22.7630 
G01 X4.7636  Y22.7537 
G01 X4.7593  Y22.7434 
G01 X4.7437  Y22.7230 
G01 X4.7297  Y22.7014 
G01 X4.7214  Y22.6940 
G01 X4.7147  Y22.6852 
G01 X4.6943  Y22.6696 
G01 X4.6751  Y22.6523 
G01 X4.6653  Y22.6473 
G01 X4.6565  Y22.6406 
G01 X4.6327  Y22.6307 
G01 X4.6136  Y22.6210 
G01 X4.5003  Y22.5387 
G01 X4.4013  Y22.4397 
G01 X4.3190  Y22.3263 
G01 X4.2554  Y22.2016 
G01 X4.2349  Y22.1386 
G01 X4.3440  Y22.1386 
G01 X4.3829  Y22.2326 
G01 X4.4690  Y22.3614 
G01 X4.5786  Y22.4710 
G01 X4.7074  Y22.5571 
G01 X4.8506  Y22.6164 
G01 X5.0025  Y22.6466 
G01 X5.1575  Y22.6466 
G01 X5.3094  Y22.6164 
G01 X5.4526  Y22.5571 
G01 X5.5814  Y22.4710 
G01 X5.6910  Y22.3614 
G01 X5.7771  Y22.2326 
G01 X5.8160  Y22.1386 
G01 X5.9251  Y22.1386 
G01 X5.9046  Y22.2016 
G01 X5.8410  Y22.3263 
G01 X5.7587  Y22.4397 
G01 X5.6597  Y22.5387 
G01 X5.5464  Y22.6210 
G01 X5.5273  Y22.6307 
G01 X5.5035  Y22.6406 
G01 X5.4947  Y22.6473 
G01 X5.4849  Y22.6523 
G01 X5.4657  Y22.6696 
G01 X5.4453  Y22.6852 
G01 X5.4386  Y22.6940 
G01 X5.4303  Y22.7014 
G01 X5.4163  Y22.7230 
G01 X5.4007  Y22.7434 
G01 X5.3964  Y22.7537 
G01 X5.3904  Y22.7630 
G01 X5.3824  Y22.7874 
G01 X5.3726  Y22.8112 
G01 X5.3711  Y22.8222 
G01 X5.3677  Y22.8327 
G01 X5.3664  Y22.8584 
G01 X5.3630  Y22.8839 
G01 X5.3645  Y22.8949 
G01 X5.3639  Y22.9060 
G01 X5.3692  Y22.9311 
G01 X5.3726  Y22.9567 
G01 X5.3768  Y22.9669 
G01 X5.3791  Y22.9777 
G01 X5.3908  Y23.0007 
G01 X5.4007  Y23.0244 
G01 X5.4074  Y23.0332 
G01 X5.4124  Y23.0431 
G01 X5.4296  Y23.0622 
G01 X5.4453  Y23.0826 
G01 X5.4541  Y23.0894 
G01 X5.4615  Y23.0976 
G01 X5.4831  Y23.1116 
G01 X5.5035  Y23.1273 
G01 X5.5137  Y23.1315 
G01 X5.5230  Y23.1376 
G01 X5.5475  Y23.1455 
G01 X5.5553  Y23.1487 
G01 X5.7913  Y23.3847 
G01 X5.7938  Y23.3909 
G01 X5.8050  Y23.4055 
G01 X5.8142  Y23.4215 
G01 X5.8273  Y23.4345 
G01 X5.8385  Y23.4491 
G01 X5.8531  Y23.4603 
G01 X5.8661  Y23.4733 
G01 X5.8821  Y23.4825 
G01 X5.8967  Y23.4937 
G01 X5.9137  Y23.5008 
G01 X5.9296  Y23.5100 
G01 X5.9474  Y23.5148 
G01 X5.9644  Y23.5218 
G01 X5.9827  Y23.5242 
G01 X6.0005  Y23.5290 
G01 X6.0189  Y23.5290 
G01 X6.0372  Y23.5314 
G01 X6.0554  Y23.5290 
G01 X7.3646  Y23.5290 
G01 X7.4354  Y23.5100 
G01 X7.4990  Y23.4733 
G01 X7.5508  Y23.4215 
G01 X7.5875  Y23.3579 
G01 X7.6065  Y23.2871 
G01 X7.6065  Y22.7942 
G01 X7.6569  Y22.6725 
G01 X7.7633  Y22.5661 
G01 X10.2297 Y20.0997 
G01 X10.2815 Y20.0479 
G01 X10.3182 Y19.9843 
G01 X10.3372 Y19.9135 
G01 X10.3372 Y19.4565 
G01 X10.3182 Y19.3857 
G01 X10.2815 Y19.3221 
G01 X9.2444  Y18.2850 
G01 X9.1940  Y18.1633 
G01 X9.1940  Y15.1742 
G01 X9.2444  Y15.0525 
G01 X10.3057 Y13.9912 
G01 X10.3575 Y13.9394 
G01 X10.3942 Y13.8758 
G01 X10.4132 Y13.8050 
G01 X10.4132 Y13.7930 
G01 X10.5487 Y13.4660 
G01 X10.7990 Y13.2157 
G01 X11.1260 Y13.0802 
G01 X13.0040 Y13.0802 
G01 X13.3474 Y13.2224 
G01 X13.3633 Y13.2316 
G01 X13.3811 Y13.2364 
G01 X13.3981 Y13.2435 
G01 X13.4164 Y13.2459 
G01 X13.4342 Y13.2506 
G01 X13.4526 Y13.2506 
G01 X13.4709 Y13.2530 
G01 X13.4891 Y13.2506 
G01 X13.5075 Y13.2506 
G01 X13.5253 Y13.2459 
G01 X13.5436 Y13.2435 
G01 X13.5606 Y13.2364 
G01 X13.5784 Y13.2316 
G01 X13.5944 Y13.2224 
G01 X13.6114 Y13.2154 
G01 X13.6260 Y13.2042 
G01 X13.6419 Y13.1950 
G01 X13.6550 Y13.1819 
G01 X13.6696 Y13.1707 
G01 X13.6808 Y13.1561 
G01 X13.8490 Y12.9879 
G01 X13.9008 Y12.9361 
G01 X13.9375 Y12.8725 
G01 X13.9565 Y12.8017 
G01 X13.9565 Y12.2666 
G01 X13.9461 Y12.2278 
G01 X13.9375 Y12.1958 
G01 X13.9314 Y12.1851 
G01 X13.9008 Y12.1322 
G01 X13.8490 Y12.0804 
G01 X13.7854 Y12.0437 
G01 X13.7146 Y12.0247 
G01 X13.6412 Y12.0247 
G01 X13.6024 Y12.0351 
G01 X13.5704 Y12.0437 
G01 X13.5597 Y12.0498 
G01 X13.5068 Y12.0804 
G01 X13.4550 Y12.1322 
G01 X13.4398 Y12.1474 
G01 X13.3200 Y12.2345 
G01 X13.1881 Y12.3017 
G01 X13.0473 Y12.3474 
G01 X12.9010 Y12.3706 
G01 X12.3944 Y12.3706 
G01 X12.3944 Y12.2674 
G01 X12.9095 Y12.2674 
G01 X13.0713 Y12.2352 
G01 X13.2237 Y12.1721 
G01 X13.3608 Y12.0805 
G01 X13.4774 Y11.9638 
G01 X13.5691 Y11.8267 
G01 X13.6322 Y11.6743 
G01 X13.6644 Y11.5125 
G01 X13.6644 Y11.3475 
G01 X13.6322 Y11.1857 
G01 X13.5691 Y11.0333 
G01 X13.4774 Y10.8962 
G01 X13.3608 Y10.7795 
G01 X13.2237 Y10.6879 
G01 X13.0713 Y10.6248 
G01 X12.9095 Y10.5926 
G01 X11.2205 Y10.5926 
G01 X11.0587 Y10.6248 
G01 X10.9063 Y10.6879 
G01 X10.7692 Y10.7795 
G01 X10.6525 Y10.8962 
G01 X10.5609 Y11.0333 
G01 X10.5330 Y11.1006 
G01 X10.4210 Y11.1006 
G01 X10.4313 Y11.0689 
G01 X10.4985 Y10.9370 
G01 X10.5855 Y10.8172 
G01 X10.6902 Y10.7125 
G01 X10.8100 Y10.6255 
G01 X10.9419 Y10.5583 
G01 X11.0827 Y10.5126 
G01 X11.2290 Y10.4894 
G01 X11.3644 Y10.4894 
G01 X11.4352 Y10.4704 
G01 X11.4988 Y10.4337 
G01 X11.5506 Y10.3819 
G01 X11.5873 Y10.3183 
G01 X11.6063 Y10.2475 
G01 X11.6063 Y9.9544  
G01 X11.5873 Y9.8836  
G01 X11.5506 Y9.8201  
G01 X11.4988 Y9.7682  
G01 X11.4352 Y9.7315  
G01 X11.3644 Y9.7125  
G01 X11.1835 Y9.7125  
G01 X11.0640 Y9.5930  
G01 X11.0640 Y9.4240  
G01 X11.1835 Y9.3045  
G01 X11.3644 Y9.3045  
G01 X11.4352 Y9.2855  
G01 X11.4988 Y9.2489  
G01 X11.5506 Y9.1970  
G01 X11.5873 Y9.1335  
G01 X11.6063 Y9.0626  
G01 X11.6063 Y8.8817  
G01 X11.7258 Y8.7622  
G01 X11.8948 Y8.7622  
G01 X12.0143 Y8.8817  
G01 X12.0143 Y9.0626  
G01 X12.0333 Y9.1335  
G01 X12.0700 Y9.1970  
G01 X12.1218 Y9.2489  
G01 X12.1854 Y9.2855  
G01 X12.2562 Y9.3045  
G01 X12.4371 Y9.3045  
G01 X12.5566 Y9.4240  
G01 X12.5566 Y9.5930  
G01 X12.4371 Y9.7125  
G01 X12.2562 Y9.7125  
G01 X12.1854 Y9.7315  
G01 X12.1218 Y9.7682  
G01 X12.0700 Y9.8201  
G01 X12.0333 Y9.8836  
G01 X12.0143 Y9.9544  
G01 X12.0143 Y10.2475 
G01 X12.0333 Y10.3183 
G01 X12.0700 Y10.3819 
G01 X12.1218 Y10.4337 
G01 X12.1854 Y10.4704 
G01 X12.2562 Y10.4894 
G01 X12.9010 Y10.4894 
G01 X13.0472 Y10.5126 
G01 X13.1881 Y10.5583 
G01 X13.3200 Y10.6255 
G01 X13.4398 Y10.7125 
G01 X13.5444 Y10.8172 
G01 X13.5841 Y10.8718 
G01 X13.5951 Y10.8909 
G01 X13.6055 Y10.9013 
G01 X13.6142 Y10.9133 
G01 X13.6314 Y10.9272 
G01 X13.6470 Y10.9428 
G01 X13.6598 Y10.9502 
G01 X13.6712 Y10.9594 
G01 X13.6914 Y10.9684 
G01 X13.7105 Y10.9795 
G01 X13.7248 Y10.9833 
G01 X13.7382 Y10.9893 
G01 X13.7600 Y10.9927 
G01 X13.7814 Y10.9984 
G01 X13.7961 Y10.9984 
G01 X13.8107 Y11.0007 
G01 X13.8326 Y10.9984 
G01 X13.8547 Y10.9984 
G01 X13.8690 Y10.9946 
G01 X13.8836 Y10.9931 
G01 X13.9042 Y10.9852 
G01 X13.9256 Y10.9795 
G01 X13.9384 Y10.9721 
G01 X13.9521 Y10.9668 
G01 X13.9700 Y10.9538 
G01 X13.9891 Y10.9428 
G01 X13.9995 Y10.9323 
G01 X14.0115 Y10.9237 
G01 X14.0254 Y10.9065 
G01 X14.1133 Y10.8186 
G01 X14.4175 Y10.5144 
G01 X14.5392 Y10.4640 
G01 X15.0242 Y10.4640 
G01 X15.0950 Y10.4450 
G01 X15.1586 Y10.4083 
G01 X15.7816 Y9.7853  
G01 X15.7935 Y9.7766  
G01 X15.8074 Y9.7595  
G01 X15.8230 Y9.7439  
G01 X15.8304 Y9.7311  
G01 X15.8397 Y9.7196  
G01 X15.8486 Y9.6995  
G01 X15.8597 Y9.6804  
G01 X15.8635 Y9.6661  
G01 X15.8695 Y9.6526  
G01 X15.8729 Y9.6308  
G01 X15.8786 Y9.6095  
G01 X15.8786 Y9.5947  
G01 X15.8810 Y9.5801  
G01 X15.8786 Y9.5582  
G01 X15.8786 Y9.5362  
G01 X15.8748 Y9.5219  
G01 X15.8733 Y9.5072  
G01 X15.8654 Y9.4866  
G01 X15.8597 Y9.4653  
G01 X15.8523 Y9.4525  
G01 X15.8470 Y9.4387  
G01 X15.8340 Y9.4209  
G01 X15.8230 Y9.4018  
G01 X15.8125 Y9.3913  
G01 X15.8038 Y9.3794  
G01 X15.7867 Y9.3655  
G01 X15.7711 Y9.3499  
G01 X15.7583 Y9.3425  
G01 X15.7468 Y9.3332  
G01 X15.7267 Y9.3243  
G01 X15.7076 Y9.3132  
G01 X15.6933 Y9.3094  
G01 X15.6798 Y9.3034  
G01 X15.6580 Y9.3000  
G01 X15.6483 Y9.2973  
G01 X15.5139 Y9.2537  
G01 X15.3820 Y9.1865  
G01 X15.2622 Y9.0994  
G01 X15.1575 Y8.9948  
G01 X15.0705 Y8.8750  
G01 X15.0033 Y8.7431  
G01 X14.9576 Y8.6022  
G01 X14.9344 Y8.4560  
G01 X14.9344 Y8.0021  
G01 X14.9871 Y7.9494  
G01 X15.0376 Y7.9494  
G01 X15.0376 Y8.4645  
G01 X15.0698 Y8.6263  
G01 X15.1329 Y8.7787  
G01 X15.2245 Y8.9158  
G01 X15.3412 Y9.0325  
G01 X15.4783 Y9.1241  
G01 X15.6307 Y9.1872  
G01 X15.7925 Y9.2194  
G01 X15.9575 Y9.2194  
G01 X16.1193 Y9.1872  
G01 X16.2717 Y9.1241  
G01 X16.4088 Y9.0325  
G01 X16.5254 Y8.9158  
G01 X16.6171 Y8.7787  
G01 X16.6802 Y8.6263  
G01 X16.7124 Y8.4645  
G01 X16.7124 Y7.9494  
G01 X16.8156 Y7.9494  
G01 X16.8156 Y8.1154  
G01 X16.8209 Y8.1352  
G01 X16.8346 Y8.1862  
G01 X16.8713 Y8.2498  
G01 X16.9231 Y8.3016  
G01 X16.9867 Y8.3383  
G01 X17.0575 Y8.3573  
G01 X17.1309 Y8.3573  
G01 X17.1507 Y8.3520  
G01 X17.2017 Y8.3383  
G01 X17.2653 Y8.3016  
G01 X17.3171 Y8.2498  
G01 X17.4177 Y8.1492  
G01 X17.4695 Y8.0974  
G01 X17.5062 Y8.0338  
G01 X17.5252 Y7.9630  
G01 X17.5252 Y6.6810  
G01 X17.6607 Y6.3540  
G01 X17.9110 Y6.1037  
G01 X18.2720 Y5.9541  
G01 X18.2898 Y5.9493  
G01 X18.3058 Y5.9401  
G01 X18.3228 Y5.9331  
G01 X18.3374 Y5.9219  
G01 X18.3533 Y5.9127  
G01 X18.3664 Y5.8996  
G01 X18.3810 Y5.8884  
G01 X18.3922 Y5.8738  
G01 X18.4052 Y5.8608  
G01 X18.4144 Y5.8448  
G01 X18.4239 Y5.8607  
G01 X18.4393 Y5.8760  
G01 X18.4487 Y5.8883  
G01 X18.4610 Y5.8977  
G01 X18.4758 Y5.9125  
G01 X18.4939 Y5.9230  
G01 X18.5069 Y5.9330  
G01 X18.5220 Y5.9392  
G01 X18.5393 Y5.9492  
G01 X18.5587 Y5.9544  
G01 X18.9190 Y6.1037  
G01 X19.0193 Y6.2039  
G01 X19.0836 Y6.2414  
G01 X19.1545 Y6.2604  
G01 X19.2278 Y6.2604  
G01 X19.2987 Y6.2414  
G01 X19.3622 Y6.2047  
G01 X19.4141 Y6.1528  
G01 X19.9743 Y5.5926  
G01 X20.1325 Y5.4344  
G01 X20.2499 Y5.3857  
G01 X20.2677 Y5.3810  
G01 X20.2837 Y5.3718  
G01 X20.3007 Y5.3647  
G01 X20.3153 Y5.3535  
G01 X20.3313 Y5.3443  
G01 X20.3443 Y5.3313  
G01 X20.3589 Y5.3201  
G01 X20.3701 Y5.3054  
G01 X20.3831 Y5.2924  
G01 X20.3923 Y5.2765  
G01 X20.4036 Y5.2619  
G01 X20.4106 Y5.2448  
G01 X20.4198 Y5.2289  
G01 X20.4246 Y5.2111  
G01 X20.4316 Y5.1941  
G01 X20.4340 Y5.1758  
G01 X20.4388 Y5.1580  
G01 X20.4388 Y5.1396  
G01 X20.4412 Y5.1214  
G01 X20.4388 Y5.1031  
G01 X20.4388 Y5.0847  
G01 X20.4340 Y5.0669  
G01 X20.4316 Y5.0486  
G01 X20.4246 Y5.0316  
G01 X20.4198 Y5.0138  
G01 X20.4106 Y4.9979  
G01 X20.4036 Y4.9809  
G01 X20.3923 Y4.9662  
G01 X20.3831 Y4.9503  
G01 X20.3701 Y4.9373  
G01 X20.3589 Y4.9227  
G01 X20.3443 Y4.9114  
G01 X20.1912 Y4.7584  
G01 X20.1912 Y4.6104  
G01 X20.3515 Y4.4501  
G01 X20.3815 Y4.4201  
G01 X20.3991 Y4.4025  
G01 X20.4334 Y4.3682  
G01 X20.4701 Y4.3047  
G01 X20.4891 Y4.2338  
G01 X20.4891 Y4.1967  
G01 X20.4891 Y4.1605  
G01 X20.4838 Y4.1408  
G01 X20.4701 Y4.0896  
G01 X20.4583 Y4.0691  
G01 X20.4334 Y4.0261  
G01 X20.4126 Y4.0053  
G01 X20.3815 Y3.9742  
G01 X20.1912 Y3.7839  
G01 X20.1912 Y3.0512  
G01 X20.2385 Y3.0039  
G01 X20.2752 Y2.9404  
G01 X20.2942 Y2.8695  
G01 X20.2942 Y2.7962  
G01 X20.2889 Y2.7764  
G01 X20.2752 Y2.7253  
G01 X20.2385 Y2.6618  
G01 X20.1916 Y2.6149  
G01 X20.1912 Y2.6110  
G01 X20.1912 Y2.5883  
G01 X20.1875 Y2.5747  
G01 X20.1861 Y2.5606  
G01 X20.1781 Y2.5394  
G01 X20.1722 Y2.5175  
G01 X20.1651 Y2.5052  
G01 X20.1601 Y2.4920  
G01 X20.1469 Y2.4736  
G01 X20.1355 Y2.4539  
G01 X20.1255 Y2.4440  
G01 X20.1173 Y2.4325  
G01 X20.0997 Y2.4181  
G01 X20.0837 Y2.4021  
G01 X20.0714 Y2.3950  
G01 X20.0605 Y2.3861  
G01 X20.0398 Y2.3767  
G01 X20.0201 Y2.3654  
G01 X20.0065 Y2.3617  
G01 X19.9936 Y2.3559  
G01 X19.9712 Y2.3523  
G01 X19.9493 Y2.3464  
G01 X19.9352 Y2.3464  
G01 X19.9212 Y2.3441  
G01 X19.8986 Y2.3464  
G01 X19.8759 Y2.3464  
G01 X19.8623 Y2.3501  
G01 X18.3010 Y2.5071  
G01 X18.2822 Y2.5066  
G01 X18.2646 Y2.5108  
G01 X18.2467 Y2.5126  
G01 X18.2291 Y2.5193  
G01 X15.7022 Y3.1215  
G01 X15.6835 Y3.1234  
G01 X15.6667 Y3.1299  
G01 X15.6491 Y3.1341  
G01 X15.6326 Y3.1431  
G01 X13.2085 Y4.0767  
G01 X13.1902 Y4.0811  
G01 X13.1744 Y4.0898  
G01 X13.1576 Y4.0963  
G01 X13.1424 Y4.1073  
G01 X10.8643 Y5.3558  
G01 X10.8468 Y5.3626  
G01 X10.8323 Y5.3733  
G01 X10.8165 Y5.3820  
G01 X10.8029 Y5.3950  
G01 X8.7115  Y6.9359  
G01 X8.6951  Y6.9450  
G01 X8.6822  Y6.9575  
G01 X8.6676  Y6.9682  
G01 X8.6559  Y6.9829  
G01 X6.7886  Y8.7888  
G01 X6.7735  Y8.8001  
G00 Z2.5400  
G00 X11.1395 Y9.4227  
G01 Z-0.1000 F254   
G01 X11.1164 Y9.4784  F508   
G01 X11.1164 Y9.5387  
G01 X11.1395 Y9.5944  
G01 X11.1821 Y9.6370  
G01 X11.2378 Y9.6601  
G01 X11.6587 Y9.6601  
G01 X11.6587 Y10.0810 
G01 X11.6818 Y10.1367 
G01 X11.7244 Y10.1794 
G01 X11.7802 Y10.2025 
G01 X11.8405 Y10.2025 
G01 X11.8962 Y10.1794 
G01 X11.9388 Y10.1367 
G01 X11.9619 Y10.0810 
G01 X11.9619 Y9.6601  
G01 X12.3828 Y9.6601  
G01 X12.4385 Y9.6370  
G01 X12.4812 Y9.5944  
G01 X12.5042 Y9.5387  
G01 X12.5042 Y9.4784  
G01 X12.4812 Y9.4227  
G01 X12.4385 Y9.3800  
G01 X12.3828 Y9.3569  
G01 X11.9619 Y9.3569  
G01 X11.9619 Y8.9360  
G01 X11.9388 Y8.8803  
G01 X11.8962 Y8.8377  
G01 X11.8405 Y8.8146  
G01 X11.7802 Y8.8146  
G01 X11.7244 Y8.8377  
G01 X11.6818 Y8.8803  
G01 X11.6587 Y8.9360  
G01 X11.6587 Y9.3569  
G01 X11.2378 Y9.3569  
G01 X11.1821 Y9.3800  
G01 X11.1395 Y9.4227  
G00 Z2.5400  
G00 X11.0587 Y12.2352 
G01 Z-0.1000 F254   
G01 X11.2205 Y12.2674 F508   
G01 X11.7356 Y12.2674 
G01 X11.7356 Y12.3706 
G01 X11.2290 Y12.3706 
G01 X11.0827 Y12.3474 
G01 X10.9419 Y12.3017 
G01 X10.8100 Y12.2345 
G01 X10.6902 Y12.1474 
G01 X10.5855 Y12.0428 
G01 X10.4985 Y11.9230 
G01 X10.4313 Y11.7911 
G01 X10.4210 Y11.7594 
G01 X10.5330 Y11.7594 
G01 X10.5609 Y11.8267 
G01 X10.6525 Y11.9638 
G01 X10.7692 Y12.0805 
G01 X10.9063 Y12.1721 
G01 X11.0587 Y12.2352 
G00 Z2.5400  
G00 X11.0587 Y13.1648 
G01 Z-0.1000 F254   
G01 X10.9063 Y13.2279 F508   
G01 X10.7692 Y13.3195 
G01 X10.6525 Y13.4362 
G01 X10.5609 Y13.5733 
G01 X10.4978 Y13.7257 
G01 X10.4656 Y13.8875 
G01 X10.4656 Y13.9054 
G01 X9.3021  Y15.0689 
G01 X9.2654  Y15.1325 
G01 X9.2464  Y15.2033 
G01 X9.2464  Y18.1342 
G01 X9.2654  Y18.2050 
G01 X9.3021  Y18.2686 
G01 X10.3896 Y19.3561 
G01 X10.3896 Y20.0139 
G01 X7.7664  Y22.6371 
G01 X7.7146  Y22.6889 
G01 X7.6779  Y22.7525 
G01 X7.6589  Y22.8233 
G01 X7.6589  Y23.5814 
G01 X5.8160  Y23.5814 
G01 X5.7771  Y23.4874 
G01 X5.6910  Y23.3586 
G01 X5.5814  Y23.2490 
G01 X5.4526  Y23.1629 
G01 X5.3094  Y23.1036 
G01 X5.1575  Y23.0734 
G01 X5.0025  Y23.0734 
G01 X4.8506  Y23.1036 
G01 X4.7074  Y23.1629 
G01 X4.5786  Y23.2490 
G01 X4.4690  Y23.3586 
G01 X4.3829  Y23.4874 
G01 X4.3236  Y23.6306 
G01 X4.2934  Y23.7825 
G01 X4.2934  Y23.9375 
G01 X4.3236  Y24.0894 
G01 X4.3829  Y24.2326 
G01 X4.4690  Y24.3614 
G01 X4.5786  Y24.4710 
G01 X4.7074  Y24.5571 
G01 X4.8506  Y24.6164 
G01 X5.0025  Y24.6466 
G01 X5.1575  Y24.6466 
G01 X5.3094  Y24.6164 
G01 X5.4526  Y24.5571 
G01 X5.5814  Y24.4710 
G01 X5.6910  Y24.3614 
G01 X5.7771  Y24.2326 
G01 X5.8160  Y24.1386 
G01 X7.5521  Y24.1386 
G01 X7.6589  Y24.2454 
G01 X7.6589  Y25.4367 
G01 X7.6779  Y25.5075 
G01 X7.7146  Y25.5711 
G01 X10.5164 Y28.3729 
G01 X10.5164 Y28.9046 
G01 X10.0300 Y28.9046 
G01 X10.0023 Y28.9161 
G01 X9.9811  Y28.9373 
G01 X9.9696  Y28.9650 
G01 X9.9696  Y30.2950 
G01 X9.9811  Y30.3227 
G01 X10.0023 Y30.3439 
G01 X10.0300 Y30.3554 
G01 X11.5600 Y30.3554 
G01 X11.5877 Y30.3439 
G01 X11.6089 Y30.3227 
G01 X11.6204 Y30.2950 
G01 X11.6204 Y29.9086 
G01 X12.5096 Y29.9086 
G01 X12.5096 Y30.2950 
G01 X12.5211 Y30.3227 
G01 X12.5423 Y30.3439 
G01 X12.5700 Y30.3554 
G01 X14.1000 Y30.3554 
G01 X14.1277 Y30.3439 
G01 X14.1489 Y30.3227 
G01 X14.1604 Y30.2950 
G01 X14.1604 Y29.9086 
G01 X15.0496 Y29.9086 
G01 X15.0496 Y30.2950 
G01 X15.0611 Y30.3227 
G01 X15.0823 Y30.3439 
G01 X15.1100 Y30.3554 
G01 X16.6400 Y30.3554 
G01 X16.6677 Y30.3439 
G01 X16.6889 Y30.3227 
G01 X16.7004 Y30.2950 
G01 X16.7004 Y29.9086 
G01 X17.3967 Y29.9086 
G01 X17.4675 Y29.8896 
G01 X17.5311 Y29.8529 
G01 X20.3200 Y27.0640 
G01 X20.9989 Y27.7429 
G01 X21.0625 Y27.7796 
G01 X21.1333 Y27.7986 
G01 X23.9396 Y27.7986 
G01 X23.9396 Y28.1850 
G01 X23.9511 Y28.2127 
G01 X23.9723 Y28.2339 
G01 X24.0000 Y28.2454 
G01 X25.5300 Y28.2454 
G01 X25.5577 Y28.2339 
G01 X25.5789 Y28.2127 
G01 X25.5904 Y28.1850 
G01 X25.5904 Y26.8550 
G01 X25.5789 Y26.8273 
G01 X25.5577 Y26.8061 
G01 X25.5300 Y26.7946 
G01 X24.0000 Y26.7946 
G01 X23.9723 Y26.8061 
G01 X23.9511 Y26.8273 
G01 X23.9396 Y26.8550 
G01 X23.9396 Y27.2414 
G01 X21.2854 Y27.2414 
G01 X20.5986 Y26.5546 
G01 X20.5986 Y26.0080 
G01 X20.6189 Y25.9877 
G01 X20.6304 Y25.9600 
G01 X20.6304 Y25.8636 
G01 X20.8067 Y25.8636 
G01 X20.8775 Y25.8446 
G01 X20.9411 Y25.8079 
G01 X21.1261 Y25.6229 
G01 X21.1779 Y25.5711 
G01 X21.2146 Y25.5075 
G01 X21.2336 Y25.4367 
G01 X21.2336 Y22.8233 
G01 X21.2146 Y22.7525 
G01 X21.1779 Y22.6889 
G01 X20.8604 Y22.3714 
G01 X20.8086 Y22.3196 
G01 X20.7450 Y22.2829 
G01 X20.6742 Y22.2639 
G01 X20.6105 Y22.2639 
G01 X20.5986 Y22.2520 
G01 X20.5986 Y21.7054 
G01 X20.7529 Y21.5511 
G01 X21.3092 Y21.5511 
G01 X21.3800 Y21.5321 
G01 X21.4436 Y21.4954 
G01 X21.4954 Y21.4436 
G01 X22.3454 Y20.5936 
G01 X22.3821 Y20.5300 
G01 X22.3874 Y20.5104 
G01 X22.7875 Y20.5104 
G01 X22.8152 Y20.4989 
G01 X22.8364 Y20.4777 
G01 X22.8479 Y20.4500 
G01 X22.8479 Y18.9200 
G01 X22.8364 Y18.8923 
G01 X22.8152 Y18.8711 
G01 X22.7875 Y18.8596 
G01 X22.4011 Y18.8596 
G01 X22.4011 Y16.1536 
G01 X22.7336 Y16.1536 
G01 X22.7336 Y16.1900 
G01 X22.7451 Y16.2177 
G01 X22.7663 Y16.2389 
G01 X22.7940 Y16.2504 
G01 X24.4240 Y16.2504 
G01 X24.4517 Y16.2389 
G01 X24.4729 Y16.2177 
G01 X24.4844 Y16.1900 
G01 X24.4844 Y15.5600 
G01 X24.4729 Y15.5323 
G01 X24.4517 Y15.5111 
G01 X24.4240 Y15.4996 
G01 X22.7940 Y15.4996 
G01 X22.7663 Y15.5111 
G01 X22.7451 Y15.5323 
G01 X22.7336 Y15.5600 
G01 X22.7336 Y15.5964 
G01 X22.5036 Y15.5964 
G01 X22.5036 Y11.8629 
G01 X23.2929 Y11.0736 
G01 X30.0471 Y11.0736 
G01 X30.2416 Y11.2681 
G01 X30.2268 Y11.3425 
G01 X30.2268 Y11.5175 
G01 X30.2609 Y11.6891 
G01 X30.3279 Y11.8507 
G01 X30.4251 Y11.9962 
G01 X30.5488 Y12.1199 
G01 X30.6943 Y12.2171 
G01 X30.8559 Y12.2841 
G01 X31.0275 Y12.3182 
G01 X31.2025 Y12.3182 
G01 X31.3741 Y12.2841 
G01 X31.5357 Y12.2171 
G01 X31.6812 Y12.1199 
G01 X31.8049 Y11.9962 
G01 X31.9021 Y11.8507 
G01 X31.9691 Y11.6891 
G01 X32.0032 Y11.5175 
G01 X32.0032 Y11.3425 
G01 X31.9691 Y11.1709 
G01 X31.9021 Y11.0093 
G01 X31.8049 Y10.8638 
G01 X31.6812 Y10.7401 
G01 X31.5357 Y10.6429 
G01 X31.3741 Y10.5759 
G01 X31.2025 Y10.5418 
G01 X31.0275 Y10.5418 
G01 X30.8559 Y10.5759 
G01 X30.6943 Y10.6429 
G01 X30.5488 Y10.7401 
G01 X30.5252 Y10.7637 
G01 X30.3854 Y10.6239 
G01 X30.3336 Y10.5721 
G01 X30.2700 Y10.5354 
G01 X30.1992 Y10.5164 
G01 X23.1408 Y10.5164 
G01 X23.0700 Y10.5354 
G01 X23.0064 Y10.5721 
G01 X22.0539 Y11.5246 
G01 X22.0021 Y11.5764 
G01 X21.9654 Y11.6400 
G01 X21.9464 Y11.7108 
G01 X21.9464 Y15.7596 
G01 X21.8996 Y15.8064 
G01 X21.8629 Y15.8700 
G01 X21.8439 Y15.9408 
G01 X21.8439 Y18.8596 
G01 X21.4575 Y18.8596 
G01 X21.4298 Y18.8711 
G01 X21.4086 Y18.8923 
G01 X21.3971 Y18.9200 
G01 X21.3971 Y20.4500 
G01 X21.4086 Y20.4777 
G01 X21.4298 Y20.4989 
G01 X21.4575 Y20.5104 
G01 X21.6406 Y20.5104 
G01 X21.1571 Y20.9939 
G01 X20.6008 Y20.9939 
G01 X20.5300 Y21.0129 
G01 X20.4664 Y21.0496 
G01 X20.1489 Y21.3671 
G01 X20.0971 Y21.4189 
G01 X20.0604 Y21.4825 
G01 X20.0414 Y21.5533 
G01 X20.0414 Y22.2396 
G01 X19.9400 Y22.2396 
G01 X19.9123 Y22.2511 
G01 X19.8911 Y22.2723 
G01 X19.8796 Y22.3000 
G01 X19.8796 Y23.0500 
G01 X19.8911 Y23.0777 
G01 X19.9123 Y23.0989 
G01 X19.9400 Y23.1104 
G01 X20.5700 Y23.1104 
G01 X20.5977 Y23.0989 
G01 X20.6189 Y23.0777 
G01 X20.6304 Y23.0500 
G01 X20.6304 Y22.9294 
G01 X20.6764 Y22.9754 
G01 X20.6764 Y25.2846 
G01 X20.6546 Y25.3064 
G01 X20.6304 Y25.3064 
G01 X20.6304 Y25.2100 
G01 X20.6189 Y25.1823 
G01 X20.5977 Y25.1611 
G01 X20.5700 Y25.1496 
G01 X19.9400 Y25.1496 
G01 X19.9123 Y25.1611 
G01 X19.8911 Y25.1823 
G01 X19.8796 Y25.2100 
G01 X19.8796 Y25.9600 
G01 X19.8911 Y25.9877 
G01 X19.9123 Y26.0089 
G01 X19.9400 Y26.0204 
G01 X20.0414 Y26.0204 
G01 X20.0414 Y26.5546 
G01 X17.2446 Y29.3514 
G01 X16.7004 Y29.3514 
G01 X16.7004 Y28.9650 
G01 X16.6889 Y28.9373 
G01 X16.6677 Y28.9161 
G01 X16.6400 Y28.9046 
G01 X15.1100 Y28.9046 
G01 X15.0823 Y28.9161 
G01 X15.0611 Y28.9373 
G01 X15.0496 Y28.9650 
G01 X15.0496 Y29.3514 
G01 X14.1604 Y29.3514 
G01 X14.1604 Y28.9650 
G01 X14.1489 Y28.9373 
G01 X14.1277 Y28.9161 
G01 X14.1000 Y28.9046 
G01 X12.5700 Y28.9046 
G01 X12.5423 Y28.9161 
G01 X12.5211 Y28.9373 
G01 X12.5096 Y28.9650 
G01 X12.5096 Y29.3514 
G01 X11.6204 Y29.3514 
G01 X11.6204 Y28.9650 
G01 X11.6089 Y28.9373 
G01 X11.5877 Y28.9161 
G01 X11.5600 Y28.9046 
G01 X11.0736 Y28.9046 
G01 X11.0736 Y28.2208 
G01 X11.0546 Y28.1500 
G01 X11.0179 Y28.0864 
G01 X10.9661 Y28.0346 
G01 X8.2161  Y25.2846 
G01 X8.2161  Y24.4086 
G01 X8.8146  Y24.4086 
G01 X8.8146  Y24.4625 
G01 X8.8261  Y24.4902 
G01 X8.8473  Y24.5114 
G01 X8.8750  Y24.5229 
G01 X10.1750 Y24.5229 
G01 X10.2027 Y24.5114 
G01 X10.2239 Y24.4902 
G01 X10.2354 Y24.4625 
G01 X10.2354 Y23.7975 
G01 X10.2239 Y23.7698 
G01 X10.2027 Y23.7486 
G01 X10.1750 Y23.7371 
G01 X8.8750  Y23.7371 
G01 X8.8473  Y23.7486 
G01 X8.8261  Y23.7698 
G01 X8.8146  Y23.7975 
G01 X8.8146  Y23.8514 
G01 X8.2161  Y23.8514 
G01 X8.2161  Y22.9754 
G01 X10.6311 Y20.5604 
G01 X11.7800 Y20.5604 
G01 X11.8077 Y20.5489 
G01 X11.8289 Y20.5277 
G01 X11.8404 Y20.5000 
G01 X11.8404 Y18.8700 
G01 X11.8289 Y18.8423 
G01 X11.8077 Y18.8211 
G01 X11.7800 Y18.8096 
G01 X10.6336 Y18.8096 
G01 X9.8036  Y17.9796 
G01 X9.8036  Y15.3554 
G01 X10.6539 Y14.5051 
G01 X10.7692 Y14.6204 
G01 X10.9063 Y14.7121 
G01 X11.0587 Y14.7752 
G01 X11.2205 Y14.8074 
G01 X12.9095 Y14.8074 
G01 X13.0713 Y14.7752 
G01 X13.2237 Y14.7121 
G01 X13.3608 Y14.6204 
G01 X13.4774 Y14.5038 
G01 X13.5691 Y14.3667 
G01 X13.6322 Y14.2143 
G01 X13.6644 Y14.0525 
G01 X13.6644 Y14.0346 
G01 X14.5104 Y13.1886 
G01 X14.5471 Y13.1250 
G01 X14.5661 Y13.0542 
G01 X14.5661 Y11.2279 
G01 X14.7204 Y11.0736 
G01 X15.2767 Y11.0736 
G01 X15.3475 Y11.0546 
G01 X15.4111 Y11.0179 
G01 X15.4629 Y10.9661 
G01 X17.6663 Y8.7627  
G01 X17.6729 Y8.7787  
G01 X17.7645 Y8.9158  
G01 X17.8812 Y9.0325  
G01 X18.0183 Y9.1241  
G01 X18.1707 Y9.1872  
G01 X18.3325 Y9.2194  
G01 X18.4975 Y9.2194  
G01 X18.6593 Y9.1872  
G01 X18.8117 Y9.1241  
G01 X18.9488 Y9.0325  
G01 X19.0654 Y8.9158  
G01 X19.1571 Y8.7787  
G01 X19.2202 Y8.6263  
G01 X19.2524 Y8.4645  
G01 X19.2524 Y6.7755  
G01 X19.2202 Y6.6137  
G01 X19.1571 Y6.4613  
G01 X19.0654 Y6.3242  
G01 X18.9488 Y6.2075  
G01 X18.8117 Y6.1159  
G01 X18.6593 Y6.0528  
G01 X18.4975 Y6.0206  
G01 X18.3325 Y6.0206  
G01 X18.1707 Y6.0528  
G01 X18.0183 Y6.1159  
G01 X17.8812 Y6.2075  
G01 X17.7645 Y6.3242  
G01 X17.6729 Y6.4613  
G01 X17.6098 Y6.6137  
G01 X17.5776 Y6.7755  
G01 X17.5776 Y8.0634  
G01 X15.1246 Y10.5164 
G01 X14.5683 Y10.5164 
G01 X14.4975 Y10.5354 
G01 X14.4339 Y10.5721 
G01 X14.1164 Y10.8896 
G01 X14.0646 Y10.9414 
G01 X14.0279 Y11.0050 
G01 X14.0089 Y11.0758 
G01 X14.0089 Y12.9021 
G01 X13.4761 Y13.4349 
G01 X13.3608 Y13.3195 
G01 X13.2237 Y13.2279 
G01 X13.0713 Y13.1648 
G01 X12.9095 Y13.1326 
G01 X11.2205 Y13.1326 
G01 X11.0587 Y13.1648 
G00 Z2.5400  
G00 X11.0587 Y15.7048 
G01 Z-0.1000 F254   
G01 X10.9063 Y15.7679 F508   
G01 X10.7692 Y15.8595 
G01 X10.6525 Y15.9762 
G01 X10.5609 Y16.1133 
G01 X10.4978 Y16.2657 
G01 X10.4656 Y16.4275 
G01 X10.4656 Y16.5925 
G01 X10.4978 Y16.7543 
G01 X10.5609 Y16.9067 
G01 X10.6525 Y17.0438 
G01 X10.7692 Y17.1605 
G01 X10.9063 Y17.2521 
G01 X11.0587 Y17.3152 
G01 X11.2205 Y17.3474 
G01 X12.9095 Y17.3474 
G01 X13.0713 Y17.3152 
G01 X13.2237 Y17.2521 
G01 X13.3608 Y17.1605 
G01 X13.4774 Y17.0438 
G01 X13.5691 Y16.9067 
G01 X13.6322 Y16.7543 
G01 X13.6644 Y16.5925 
G01 X13.6644 Y16.5746 
G01 X15.1454 Y15.0936 
G01 X15.1821 Y15.0300 
G01 X15.2011 Y14.9592 
G01 X15.2011 Y13.1329 
G01 X15.4629 Y12.8711 
G01 X15.4996 Y12.8075 
G01 X15.5186 Y12.7367 
G01 X15.5186 Y12.5723 
G01 X15.5953 Y12.5280 
G01 X15.7030 Y12.4203 
G01 X15.7792 Y12.2883 
G01 X15.8186 Y12.1412 
G01 X15.8186 Y11.9888 
G01 X15.7792 Y11.8417 
G01 X15.7030 Y11.7097 
G01 X15.5953 Y11.6020 
G01 X15.4633 Y11.5258 
G01 X15.3162 Y11.4864 
G01 X15.1638 Y11.4864 
G01 X15.0167 Y11.5258 
G01 X14.8847 Y11.6020 
G01 X14.7770 Y11.7097 
G01 X14.7008 Y11.8417 
G01 X14.6614 Y11.9888 
G01 X14.6614 Y12.1412 
G01 X14.7008 Y12.2883 
G01 X14.7770 Y12.4203 
G01 X14.8847 Y12.5280 
G01 X14.9614 Y12.5723 
G01 X14.9614 Y12.5846 
G01 X14.7514 Y12.7946 
G01 X14.6996 Y12.8464 
G01 X14.6629 Y12.9100 
G01 X14.6439 Y12.9808 
G01 X14.6439 Y14.8071 
G01 X13.4761 Y15.9749 
G01 X13.3608 Y15.8595 
G01 X13.2237 Y15.7679 
G01 X13.0713 Y15.7048 
G01 X12.9095 Y15.6726 
G01 X11.2205 Y15.6726 
G01 X11.0587 Y15.7048 
G00 Z2.5400  
G00 X8.6290  Y16.0467 
G01 Z-0.1000 F254   
G01 X8.6290  Y16.9743 F508   
G01 X8.5416  Y17.0616 
G01 X8.3295  Y17.2738 
G01 X7.5968  Y17.2738 
G01 X7.4922  Y17.1692 
G01 X7.4922  Y15.8518 
G01 X7.5571  Y15.7869 
G01 X7.5780  Y15.7660 
G01 X7.6090  Y15.7350 
G01 X7.6183  Y15.7189 
G01 X7.6345  Y15.7282 
G01 X7.7053  Y15.7472 
G01 X8.3295  Y15.7472 
G01 X8.3739  Y15.7917 
G01 X8.4107  Y15.8284 
G01 X8.4258  Y15.8435 
G01 X8.4366  Y15.8544 
G01 X8.4687  Y15.8864 
G01 X8.5845  Y16.0022 
G01 X8.6290  Y16.0467 
G00 Z2.5400  
G00 X8.5574  Y16.0492 
G01 Z-0.1000 F254   
G01 X8.5219  Y16.0137 F508   
G01 X8.3270  Y15.8188 
G01 X8.2806  Y15.7996 
G01 X7.6457  Y15.7996 
G01 X7.5993  Y15.8188 
G01 X7.5638  Y15.8543 
G01 X7.5446  Y15.9007 
G01 X7.5446  Y15.9509 
G01 X7.5446  Y17.0701 
G01 X7.5446  Y17.1203 
G01 X7.5638  Y17.1667 
G01 X7.5993  Y17.2022 
G01 X7.6457  Y17.2214 
G01 X8.2806  Y17.2214 
G01 X8.3270  Y17.2022 
G01 X8.3625  Y17.1667 
G01 X8.5574  Y16.9718 
G01 X8.5766  Y16.9254 
G01 X8.5766  Y16.0956 
G01 X8.5574  Y16.0492 
G00 Z2.5400  
G00 X8.3242  Y16.1730 
G01 Z-0.1000 F254   
G01 X8.3242  Y16.8480 F508   
G01 X8.2032  Y16.9690 
G01 X7.7970  Y16.9690 
G01 X7.7970  Y16.0520 
G01 X8.2032  Y16.0520 
G01 X8.3242  Y16.1730 
G00 Z2.5400  
G00 X5.3232  Y18.5927 
G01 Z-0.1000 F254   
G01 X5.4427  Y18.7122 F508   
G01 X5.4427  Y18.8812 
G01 X5.3232  Y19.0007 
G01 X5.1423  Y19.0007 
G01 X5.0714  Y19.0197 
G01 X5.0079  Y19.0564 
G01 X4.9560  Y19.1082 
G01 X4.9194  Y19.1718 
G01 X4.9004  Y19.2426 
G01 X4.9004  Y19.4235 
G01 X4.7809  Y19.5430 
G01 X4.6119  Y19.5430 
G01 X4.4924  Y19.4235 
G01 X4.4924  Y19.2426 
G01 X4.4734  Y19.1718 
G01 X4.4367  Y19.1082 
G01 X4.3848  Y19.0564 
G01 X4.3213  Y19.0197 
G01 X4.2504  Y19.0007 
G01 X4.0695  Y19.0007 
G01 X3.9500  Y18.8812 
G01 X3.9500  Y18.7122 
G01 X4.0695  Y18.5927 
G01 X4.2504  Y18.5927 
G01 X4.3213  Y18.5737 
G01 X4.3848  Y18.5370 
G01 X4.4367  Y18.4852 
G01 X4.4734  Y18.4216 
G01 X4.4924  Y18.3508 
G01 X4.4924  Y18.1699 
G01 X4.6119  Y18.0504 
G01 X4.7809  Y18.0504 
G01 X4.9004  Y18.1699 
G01 X4.9004  Y18.3508 
G01 X4.9194  Y18.4216 
G01 X4.9560  Y18.4852 
G01 X5.0079  Y18.5370 
G01 X5.0714  Y18.5737 
G01 X5.1423  Y18.5927 
G01 X5.3232  Y18.5927 
G00 Z2.5400  
G00 X5.3246  Y18.6682 
G01 Z-0.1000 F254   
G01 X5.2689  Y18.6451 F508   
G01 X4.8480  Y18.6451 
G01 X4.8480  Y18.2242 
G01 X4.8249  Y18.1685 
G01 X4.7822  Y18.1258 
G01 X4.7265  Y18.1028 
G01 X4.6662  Y18.1028 
G01 X4.6105  Y18.1258 
G01 X4.5678  Y18.1685 
G01 X4.5448  Y18.2242 
G01 X4.5448  Y18.6451 
G01 X4.1239  Y18.6451 
G01 X4.0682  Y18.6682 
G01 X4.0255  Y18.7108 
G01 X4.0024  Y18.7665 
G01 X4.0024  Y18.8268 
G01 X4.0255  Y18.8826 
G01 X4.0682  Y18.9252 
G01 X4.1239  Y18.9483 
G01 X4.5448  Y18.9483 
G01 X4.5448  Y19.3692 
G01 X4.5678  Y19.4249 
G01 X4.6105  Y19.4675 
G01 X4.6662  Y19.4906 
G01 X4.7265  Y19.4906 
G01 X4.7822  Y19.4675 
G01 X4.8249  Y19.4249 
G01 X4.8480  Y19.3692 
G01 X4.8480  Y18.9483 
G01 X5.2689  Y18.9483 
G01 X5.3246  Y18.9252 
G01 X5.3672  Y18.8826 
G01 X5.3903  Y18.8268 
G01 X5.3903  Y18.7665 
G01 X5.3672  Y18.7108 
G01 X5.3246  Y18.6682 
G00 Z2.5400  
G00 X5.3586  Y21.0149 
G01 Z-0.1000 F254   
G01 X5.4216  Y21.0354 F508   
G01 X5.5463  Y21.0990 
G01 X5.6597  Y21.1813 
G01 X5.7587  Y21.2803 
G01 X5.8410  Y21.3936 
G01 X5.9046  Y21.5184 
G01 X5.9251  Y21.5814 
G01 X5.8160  Y21.5814 
G01 X5.7771  Y21.4874 
G01 X5.6910  Y21.3586 
G01 X5.5814  Y21.2490 
G01 X5.4526  Y21.1629 
G01 X5.3586  Y21.1240 
G01 X5.3586  Y21.0149 
G00 Z2.5400  
G00 X4.8014  Y21.0149 
G01 Z-0.1000 F254   
G01 X4.8014  Y21.1240 F508   
G01 X4.7074  Y21.1629 
G01 X4.5786  Y21.2490 
G01 X4.4690  Y21.3586 
G01 X4.3829  Y21.4874 
G01 X4.3440  Y21.5814 
G01 X4.2349  Y21.5814 
G01 X4.2554  Y21.5184 
G01 X4.3190  Y21.3936 
G01 X4.4013  Y21.2803 
G01 X4.5003  Y21.1813 
G01 X4.6136  Y21.0990 
G01 X4.7384  Y21.0354 
G01 X4.8014  Y21.0149 
G00 Z2.5400  
G00 X4.7951  Y26.5946 
G01 Z-0.1000 F254   
G01 X4.7394  Y26.6177 F508   
G01 X4.6968  Y26.6603 
G01 X4.6737  Y26.7160 
G01 X4.6737  Y27.8610 
G01 X4.6968  Y27.9167 
G01 X4.7394  Y27.9594 
G01 X4.7951  Y27.9825 
G01 X4.8555  Y27.9825 
G01 X4.9112  Y27.9594 
G01 X4.9538  Y27.9167 
G01 X4.9769  Y27.8610 
G01 X4.9769  Y26.7160 
G01 X4.9538  Y26.6603 
G01 X4.9112  Y26.6177 
G01 X4.8555  Y26.5946 
G01 X4.7951  Y26.5946 
G00 Z2.5400  
G00 X4.7408  Y26.5422 
G01 Z-0.1000 F254   
G01 X4.9098  Y26.5422 F508   
G01 X5.0293  Y26.6617 
G01 X5.0293  Y27.9154 
G01 X4.9098  Y28.0349 
G01 X4.7408  Y28.0349 
G01 X4.6213  Y27.9154 
G01 X4.6213  Y26.6617 
G01 X4.7408  Y26.5422 
G00 Z2.5400  
G00 X4.9342  Y29.7172 
G01 Z-0.1000 F254   
G01 X5.2771  Y29.7172 F508   
G01 X5.3215  Y29.7617 
G01 X5.3583  Y29.7984 
G01 X5.3734  Y29.8135 
G01 X5.3842  Y29.8244 
G01 X5.4163  Y29.8564 
G01 X5.4674  Y29.9075 
G01 X5.5193  Y29.9594 
G01 X5.5828  Y29.9961 
G01 X5.6355  Y30.0102 
G01 X5.6537  Y30.0151 
G01 X5.7270  Y30.0151 
G01 X5.7979  Y29.9961 
G01 X5.8614  Y29.9594 
G01 X5.8915  Y29.9294 
G01 X6.1036  Y29.7172 
G01 X6.4465  Y29.7172 
G01 X6.4909  Y29.7617 
G01 X6.5277  Y29.7984 
G01 X6.5428  Y29.8135 
G01 X6.5536  Y29.8244 
G01 X6.5857  Y29.8564 
G01 X6.6879  Y29.9586 
G01 X6.7522  Y29.9961 
G01 X6.7552  Y29.9969 
G01 X6.8231  Y30.0151 
G01 X6.8964  Y30.0151 
G01 X6.9673  Y29.9961 
G01 X7.0308  Y29.9594 
G01 X7.0827  Y29.9075 
G01 X7.2730  Y29.7172 
G01 X7.8108  Y29.7172 
G01 X7.8597  Y29.7661 
G01 X7.8759  Y29.7823 
G01 X7.9116  Y29.8180 
G01 X7.9500  Y29.8564 
G01 X8.0613  Y29.9678 
G01 X8.1103  Y30.0167 
G01 X8.1103  Y30.3596 
G01 X8.0630  Y30.4069 
G01 X8.0263  Y30.4704 
G01 X8.0122  Y30.5231 
G01 X8.0073  Y30.5413 
G01 X8.0073  Y30.6146 
G01 X8.0263  Y30.6855 
G01 X8.0630  Y30.7490 
G01 X8.1103  Y30.7963 
G01 X8.1103  Y30.9443 
G01 X8.0229  Y31.0316 
G01 X7.8108  Y31.2438 
G01 X7.2730  Y31.2438 
G01 X7.2528  Y31.2236 
G01 X7.2257  Y31.1965 
G01 X7.2090  Y31.1868 
G01 X7.1622  Y31.1598 
G01 X7.0913  Y31.1408 
G01 X7.0550  Y31.1408 
G01 X7.0180  Y31.1408 
G01 X6.9947  Y31.1471 
G01 X6.9471  Y31.1598 
G01 X6.9255  Y31.1723 
G01 X6.8836  Y31.1965 
G01 X6.8363  Y31.2438 
G01 X6.2985  Y31.2438 
G01 X6.2056  Y31.1509 
G01 X6.1899  Y31.1352 
G01 X6.1538  Y31.0990 
G01 X6.0902  Y31.0624 
G01 X6.0565  Y31.0533 
G01 X6.0194  Y31.0434 
G01 X5.9460  Y31.0434 
G01 X5.9072  Y31.0538 
G01 X5.8752  Y31.0624 
G01 X5.8116  Y31.0990 
G01 X5.7743  Y31.1364 
G01 X5.7598  Y31.1509 
G01 X5.6669  Y31.2438 
G01 X5.1291  Y31.2438 
G01 X5.0245  Y31.1392 
G01 X5.0245  Y30.9912 
G01 X5.1119  Y30.9038 
G01 X5.1637  Y30.8520 
G01 X5.2004  Y30.7885 
G01 X5.2194  Y30.7176 
G01 X5.2194  Y30.5112 
G01 X5.2004  Y30.4404 
G01 X5.1637  Y30.3768 
G01 X5.1119  Y30.3250 
G01 X5.0483  Y30.2883 
G01 X4.9775  Y30.2693 
G01 X4.7393  Y30.2693 
G01 X4.6347  Y30.1647 
G01 X4.6347  Y30.0167 
G01 X4.7221  Y29.9294 
G01 X4.9342  Y29.7172 
G00 Z2.5400  
G00 X4.9367  Y29.7888 
G01 Z-0.1000 F254   
G01 X4.9012  Y29.8243 F508   
G01 X4.7063  Y30.0192 
G01 X4.6871  Y30.0656 
G01 X4.6871  Y30.1158 
G01 X4.7063  Y30.1622 
G01 X4.7418  Y30.1977 
G01 X4.7882  Y30.2169 
G01 X4.8384  Y30.2169 
G01 X4.8848  Y30.1977 
G01 X5.0605  Y30.0220 
G01 X5.1508  Y30.0220 
G01 X5.2718  Y30.1430 
G01 X5.2718  Y30.9390 
G01 X5.1780  Y30.9390 
G01 X5.1316  Y30.9582 
G01 X5.0961  Y30.9937 
G01 X5.0769  Y31.0401 
G01 X5.0769  Y31.0903 
G01 X5.0961  Y31.1367 
G01 X5.1316  Y31.1722 
G01 X5.1780  Y31.1914 
G01 X5.6180  Y31.1914 
G01 X5.6644  Y31.1722 
G01 X5.6999  Y31.1367 
G01 X5.7191  Y31.0903 
G01 X5.7191  Y31.0401 
G01 X5.6999  Y30.9937 
G01 X5.6644  Y30.9582 
G01 X5.6180  Y30.9390 
G01 X5.5242  Y30.9390 
G01 X5.5242  Y30.0656 
G01 X5.5050  Y30.0192 
G01 X5.4695  Y29.9837 
G01 X5.2746  Y29.7888 
G01 X5.2282  Y29.7696 
G01 X4.9831  Y29.7696 
G01 X4.9367  Y29.7888 
G00 Z2.5400  
G00 X5.8757  Y30.0192 
G01 Z-0.1000 F254   
G01 X5.8565  Y30.0656 F508   
G01 X5.8565  Y30.1158 
G01 X5.8757  Y30.1622 
G01 X5.9112  Y30.1977 
G01 X5.9576  Y30.2169 
G01 X6.0078  Y30.2169 
G01 X6.0542  Y30.1977 
G01 X6.2299  Y30.0220 
G01 X6.3202  Y30.0220 
G01 X6.4412  Y30.1430 
G01 X6.4412  Y30.9390 
G01 X6.3474  Y30.9390 
G01 X6.3010  Y30.9582 
G01 X6.2655  Y30.9937 
G01 X6.2463  Y31.0401 
G01 X6.2463  Y31.0903 
G01 X6.2655  Y31.1367 
G01 X6.3010  Y31.1722 
G01 X6.3474  Y31.1914 
G01 X6.7874  Y31.1914 
G01 X6.8338  Y31.1722 
G01 X6.8693  Y31.1367 
G01 X6.8885  Y31.0903 
G01 X6.8885  Y31.0401 
G01 X6.8693  Y30.9937 
G01 X6.8338  Y30.9582 
G01 X6.7874  Y30.9390 
G01 X6.6936  Y30.9390 
G01 X6.6936  Y30.0656 
G01 X6.6744  Y30.0192 
G01 X6.6389  Y29.9837 
G01 X6.4440  Y29.7888 
G01 X6.3976  Y29.7696 
G01 X6.1525  Y29.7696 
G01 X6.1061  Y29.7888 
G01 X6.0706  Y29.8243 
G01 X5.8757  Y30.0192 
G00 Z2.5400  
G00 X7.0451  Y30.0192 
G01 Z-0.1000 F254   
G01 X7.0259  Y30.0656 F508   
G01 X7.0259  Y30.1158 
G01 X7.0451  Y30.1622 
G01 X7.0806  Y30.1977 
G01 X7.1270  Y30.2169 
G01 X7.1772  Y30.2169 
G01 X7.2236  Y30.1977 
G01 X7.3993  Y30.0220 
G01 X7.6845  Y30.0220 
G01 X7.8055  Y30.1430 
G01 X7.8055  Y30.2333 
G01 X7.6845  Y30.3543 
G01 X7.3219  Y30.3543 
G01 X7.2755  Y30.3735 
G01 X7.2400  Y30.4090 
G01 X7.0451  Y30.6039 
G01 X7.0259  Y30.6503 
G01 X7.0259  Y30.8954 
G01 X7.0451  Y30.9418 
G01 X7.0487  Y30.9453 
G01 X7.2400  Y31.1367 
G01 X7.2720  Y31.1686 
G01 X7.2755  Y31.1722 
G01 X7.3219  Y31.1914 
G01 X7.7619  Y31.1914 
G01 X7.8083  Y31.1722 
G01 X7.8438  Y31.1367 
G01 X8.0387  Y30.9418 
G01 X8.0579  Y30.8954 
G01 X8.0579  Y30.8452 
G01 X8.0387  Y30.7988 
G01 X8.0032  Y30.7633 
G01 X7.9568  Y30.7441 
G01 X7.9066  Y30.7441 
G01 X7.8602  Y30.7633 
G01 X7.6845  Y30.9390 
G01 X7.3993  Y30.9390 
G01 X7.2783  Y30.8180 
G01 X7.2783  Y30.7277 
G01 X7.3993  Y30.6067 
G01 X7.7619  Y30.6067 
G01 X7.8083  Y30.5875 
G01 X8.0032  Y30.3926 
G01 X8.0387  Y30.3571 
G01 X8.0579  Y30.3107 
G01 X8.0579  Y30.0656 
G01 X8.0387  Y30.0192 
G01 X8.0351  Y30.0157 
G01 X8.0032  Y29.9837 
G01 X7.8118  Y29.7924 
G01 X7.8083  Y29.7888 
G01 X7.7619  Y29.7696 
G01 X7.3219  Y29.7696 
G01 X7.2755  Y29.7888 
G01 X7.0451  Y30.0192 
G00 Z2.5400  
G00 X9.8664  Y31.7304 
G01 Z-0.1000 F254   
G01 X9.9696  Y31.7304 F508   
G01 X9.9696  Y31.9950 
G01 X9.9811  Y32.0227 
G01 X10.0023 Y32.0439 
G01 X10.0300 Y32.0554 
G01 X10.3946 Y32.0554 
G01 X10.3946 Y32.1586 
G01 X10.0215 Y32.1586 
G01 X9.9761  Y32.1464 
G01 X9.9353  Y32.1229 
G01 X9.9021  Y32.0897 
G01 X9.8786  Y32.0489 
G01 X9.8664  Y32.0035 
G01 X9.8664  Y31.7304 
G00 Z2.5400  
G00 X11.1954 Y32.0554 
G01 Z-0.1000 F254   
G01 X11.5600 Y32.0554 F508   
G01 X11.5877 Y32.0439 
G01 X11.6089 Y32.0227 
G01 X11.6204 Y31.9950 
G01 X11.6204 Y31.7312 
G01 X11.6328 Y31.7328 
G01 X11.6511 Y31.7304 
G01 X11.7236 Y31.7304 
G01 X11.7236 Y32.0035 
G01 X11.7114 Y32.0489 
G01 X11.6879 Y32.0897 
G01 X11.6547 Y32.1229 
G01 X11.6139 Y32.1464 
G01 X11.5685 Y32.1586 
G01 X11.1954 Y32.1586 
G01 X11.1954 Y32.0554 
G00 Z2.5400  
G00 X12.4186 Y32.0489 
G01 Z-0.1000 F254   
G01 X12.4064 Y32.0035 F508   
G01 X12.4064 Y31.7304 
G01 X12.5096 Y31.7304 
G01 X12.5096 Y31.9950 
G01 X12.5211 Y32.0227 
G01 X12.5423 Y32.0439 
G01 X12.5700 Y32.0554 
G01 X12.9346 Y32.0554 
G01 X12.9346 Y32.1586 
G01 X12.5615 Y32.1586 
G01 X12.5161 Y32.1464 
G01 X12.4753 Y32.1229 
G01 X12.4421 Y32.0897 
G01 X12.4186 Y32.0489 
G00 Z2.5400  
G00 X13.7354 Y32.0554 
G01 Z-0.1000 F254   
G01 X14.1000 Y32.0554 F508   
G01 X14.1277 Y32.0439 
G01 X14.1489 Y32.0227 
G01 X14.1604 Y31.9950 
G01 X14.1604 Y31.7304 
G01 X14.2636 Y31.7304 
G01 X14.2636 Y32.0035 
G01 X14.2514 Y32.0489 
G01 X14.2279 Y32.0897 
G01 X14.1947 Y32.1229 
G01 X14.1539 Y32.1464 
G01 X14.1085 Y32.1586 
G01 X13.7354 Y32.1586 
G01 X13.7354 Y32.0554 
G00 Z2.5400  
G00 X14.9586 Y32.0489 
G01 Z-0.1000 F254   
G01 X14.9464 Y32.0035 F508   
G01 X14.9464 Y31.7304 
G01 X15.0496 Y31.7304 
G01 X15.0496 Y31.9950 
G01 X15.0611 Y32.0227 
G01 X15.0823 Y32.0439 
G01 X15.1100 Y32.0554 
G01 X15.4746 Y32.0554 
G01 X15.4746 Y32.1586 
G01 X15.1015 Y32.1586 
G01 X15.0561 Y32.1464 
G01 X15.0153 Y32.1229 
G01 X14.9821 Y32.0897 
G01 X14.9586 Y32.0489 
G00 Z2.5400  
G00 X16.2754 Y32.0554 
G01 Z-0.1000 F254   
G01 X16.6400 Y32.0554 F508   
G01 X16.6677 Y32.0439 
G01 X16.6889 Y32.0227 
G01 X16.7004 Y31.9950 
G01 X16.7004 Y31.7304 
G01 X16.8036 Y31.7304 
G01 X16.8036 Y32.0035 
G01 X16.7914 Y32.0489 
G01 X16.7679 Y32.0897 
G01 X16.7347 Y32.1229 
G01 X16.6939 Y32.1464 
G01 X16.6485 Y32.1586 
G01 X16.2754 Y32.1586 
G01 X16.2754 Y32.0554 
G00 Z2.5400  
G00 X16.7453 Y34.2871 
G01 Z-0.1000 F254   
G01 X16.7861 Y34.2636 F508   
G01 X16.8315 Y34.2514 
G01 X17.5046 Y34.2514 
G01 X17.5046 Y34.3546 
G01 X16.8400 Y34.3546 
G01 X16.8123 Y34.3661 
G01 X16.7911 Y34.3873 
G01 X16.7796 Y34.4150 
G01 X16.7796 Y34.6296 
G01 X16.6764 Y34.6296 
G01 X16.6764 Y34.4065 
G01 X16.6886 Y34.3611 
G01 X16.7121 Y34.3203 
G01 X16.7453 Y34.2871 
G00 Z2.5400  
G00 X16.7796 Y35.3304 
G01 Z-0.1000 F254   
G01 X16.7796 Y35.5450 F508   
G01 X16.7911 Y35.5727 
G01 X16.8123 Y35.5939 
G01 X16.8400 Y35.6054 
G01 X17.5046 Y35.6054 
G01 X17.5046 Y35.7086 
G01 X16.8315 Y35.7086 
G01 X16.7861 Y35.6964 
G01 X16.7453 Y35.6729 
G01 X16.7121 Y35.6397 
G01 X16.6886 Y35.5989 
G01 X16.6764 Y35.5535 
G01 X16.6764 Y35.3304 
G01 X16.7796 Y35.3304 
G00 Z2.5400  
G00 X18.2054 Y35.6054 
G01 Z-0.1000 F254   
G01 X18.8700 Y35.6054 F508   
G01 X18.8977 Y35.5939 
G01 X18.9189 Y35.5727 
G01 X18.9304 Y35.5450 
G01 X18.9304 Y35.3304 
G01 X19.0336 Y35.3304 
G01 X19.0336 Y35.5535 
G01 X19.0214 Y35.5989 
G01 X18.9979 Y35.6397 
G01 X18.9647 Y35.6729 
G01 X18.9239 Y35.6964 
G01 X18.8785 Y35.7086 
G01 X18.2054 Y35.7086 
G01 X18.2054 Y35.6054 
G00 Z2.5400  
G00 X18.2054 Y34.3546 
G01 Z-0.1000 F254   
G01 X18.2054 Y34.2514 F508   
G01 X18.8785 Y34.2514 
G01 X18.9239 Y34.2636 
G01 X18.9647 Y34.2871 
G01 X18.9979 Y34.3203 
G01 X19.0214 Y34.3611 
G01 X19.0336 Y34.4065 
G01 X19.0336 Y34.6296 
G01 X18.9304 Y34.6296 
G01 X18.9304 Y34.4150 
G01 X18.9189 Y34.3873 
G01 X18.8977 Y34.3661 
G01 X18.8700 Y34.3546 
G01 X18.2054 Y34.3546 
G00 Z2.5400  
G00 X19.1621 Y31.1897 
G01 Z-0.1000 F254   
G01 X19.1386 Y31.1489 F508   
G01 X19.1264 Y31.1035 
G01 X19.1264 Y30.8554 
G01 X19.2296 Y30.8554 
G01 X19.2296 Y31.0950 
G01 X19.2411 Y31.1227 
G01 X19.2623 Y31.1439 
G01 X19.2900 Y31.1554 
G01 X19.5296 Y31.1554 
G01 X19.5296 Y31.2586 
G01 X19.2815 Y31.2586 
G01 X19.2361 Y31.2464 
G01 X19.1953 Y31.2229 
G01 X19.1621 Y31.1897 
G00 Z2.5400  
G00 X19.1264 Y30.1046 
G01 Z-0.1000 F254   
G01 X19.1264 Y29.8565 F508   
G01 X19.1386 Y29.8111 
G01 X19.1621 Y29.7703 
G01 X19.1953 Y29.7371 
G01 X19.2361 Y29.7136 
G01 X19.2815 Y29.7014 
G01 X19.5296 Y29.7014 
G01 X19.5296 Y29.8046 
G01 X19.2900 Y29.8046 
G01 X19.2623 Y29.8161 
G01 X19.2411 Y29.8373 
G01 X19.2296 Y29.8650 
G01 X19.2296 Y30.1046 
G01 X19.1264 Y30.1046 
G00 Z2.5400  
G00 X20.2804 Y29.8046 
G01 Z-0.1000 F254   
G01 X20.2804 Y29.7014 F508   
G01 X20.5285 Y29.7014 
G01 X20.5739 Y29.7136 
G01 X20.6147 Y29.7371 
G01 X20.6479 Y29.7703 
G01 X20.6714 Y29.8111 
G01 X20.6836 Y29.8565 
G01 X20.6836 Y30.1046 
G01 X20.5804 Y30.1046 
G01 X20.5804 Y29.8650 
G01 X20.5689 Y29.8373 
G01 X20.5477 Y29.8161 
G01 X20.5200 Y29.8046 
G01 X20.2804 Y29.8046 
G00 Z2.5400  
G00 X21.3411 Y29.8373 
G01 Z-0.1000 F254   
G01 X21.3296 Y29.8650 F508   
G01 X21.3296 Y31.0950 
G01 X21.3411 Y31.1227 
G01 X21.3623 Y31.1439 
G01 X21.3900 Y31.1554 
G01 X22.6200 Y31.1554 
G01 X22.6477 Y31.1439 
G01 X22.6689 Y31.1227 
G01 X22.6804 Y31.0950 
G01 X22.6804 Y30.7586 
G01 X28.2696 Y30.7586 
G01 X28.2696 Y31.2450 
G01 X28.2811 Y31.2727 
G01 X28.3023 Y31.2939 
G01 X28.3300 Y31.3054 
G01 X29.6600 Y31.3054 
G01 X29.6877 Y31.2939 
G01 X29.7089 Y31.2727 
G01 X29.7204 Y31.2450 
G01 X29.7204 Y29.7150 
G01 X29.7089 Y29.6873 
G01 X29.6877 Y29.6661 
G01 X29.6600 Y29.6546 
G01 X28.3300 Y29.6546 
G01 X28.3023 Y29.6661 
G01 X28.2811 Y29.6873 
G01 X28.2696 Y29.7150 
G01 X28.2696 Y30.2014 
G01 X22.6804 Y30.2014 
G01 X22.6804 Y29.8650 
G01 X22.6689 Y29.8373 
G01 X22.6477 Y29.8161 
G01 X22.6200 Y29.8046 
G01 X21.3900 Y29.8046 
G01 X21.3623 Y29.8161 
G01 X21.3411 Y29.8373 
G00 Z2.5400  
G00 X20.6836 Y30.8554 
G01 Z-0.1000 F254   
G01 X20.6836 Y31.1035 F508   
G01 X20.6714 Y31.1489 
G01 X20.6479 Y31.1897 
G01 X20.6147 Y31.2229 
G01 X20.5739 Y31.2464 
G01 X20.5285 Y31.2586 
G01 X20.2804 Y31.2586 
G01 X20.2804 Y31.1554 
G01 X20.5200 Y31.1554 
G01 X20.5477 Y31.1439 
G01 X20.5689 Y31.1227 
G01 X20.5804 Y31.0950 
G01 X20.5804 Y30.8554 
G01 X20.6836 Y30.8554 
G00 Z2.5400  
G00 X21.3123 Y26.0089 
G01 Z-0.1000 F254   
G01 X21.3400 Y26.0204 F508   
G01 X21.9700 Y26.0204 
G01 X21.9977 Y26.0089 
G01 X22.0189 Y25.9877 
G01 X22.0304 Y25.9600 
G01 X22.0304 Y25.6786 
G01 X22.7156 Y25.6786 
G01 X22.6383 Y25.8117 
G01 X22.5989 Y25.9588 
G01 X22.5989 Y26.1112 
G01 X22.6383 Y26.2583 
G01 X22.7145 Y26.3903 
G01 X22.8222 Y26.4980 
G01 X22.9542 Y26.5742 
G01 X23.1013 Y26.6136 
G01 X23.2537 Y26.6136 
G01 X23.4008 Y26.5742 
G01 X23.5328 Y26.4980 
G01 X23.6405 Y26.3903 
G01 X23.7167 Y26.2583 
G01 X23.7561 Y26.1112 
G01 X23.7561 Y25.9588 
G01 X23.7167 Y25.8117 
G01 X23.6405 Y25.6797 
G01 X23.5328 Y25.5720 
G01 X23.4561 Y25.5277 
G01 X23.4561 Y25.3633 
G01 X23.4371 Y25.2925 
G01 X23.4004 Y25.2289 
G01 X23.3486 Y25.1771 
G01 X23.2850 Y25.1404 
G01 X23.2142 Y25.1214 
G01 X21.8033 Y25.1214 
G01 X21.7325 Y25.1404 
G01 X21.7165 Y25.1496 
G01 X21.3400 Y25.1496 
G01 X21.3123 Y25.1611 
G01 X21.2911 Y25.1823 
G01 X21.2796 Y25.2100 
G01 X21.2796 Y25.9600 
G01 X21.2911 Y25.9877 
G01 X21.3123 Y26.0089 
G00 Z2.5400  
G00 X21.3123 Y25.0389 
G01 Z-0.1000 F254   
G01 X21.3400 Y25.0504 F508   
G01 X21.9700 Y25.0504 
G01 X21.9977 Y25.0389 
G01 X22.0189 Y25.0177 
G01 X22.0304 Y24.9900 
G01 X22.0304 Y24.8936 
G01 X23.4446 Y24.8936 
G01 X23.9396 Y25.3886 
G01 X23.9396 Y26.4850 
G01 X23.9511 Y26.5127 
G01 X23.9723 Y26.5339 
G01 X24.0000 Y26.5454 
G01 X25.5300 Y26.5454 
G01 X25.5577 Y26.5339 
G01 X25.5789 Y26.5127 
G01 X25.5904 Y26.4850 
G01 X25.5904 Y25.1550 
G01 X25.5789 Y25.1273 
G01 X25.5577 Y25.1061 
G01 X25.5300 Y25.0946 
G01 X24.4336 Y25.0946 
G01 X23.9540 Y24.6150 
G01 X25.6229 Y22.9461 
G01 X25.6596 Y22.8825 
G01 X25.6786 Y22.8117 
G01 X25.6786 Y15.5186 
G01 X27.7502 Y15.5186 
G01 X27.7945 Y15.5953 
G01 X27.9022 Y15.7030 
G01 X28.0342 Y15.7792 
G01 X28.1813 Y15.8186 
G01 X28.3337 Y15.8186 
G01 X28.4808 Y15.7792 
G01 X28.6128 Y15.7030 
G01 X28.7205 Y15.5953 
G01 X28.7967 Y15.4633 
G01 X28.8361 Y15.3162 
G01 X28.8361 Y15.1638 
G01 X28.7967 Y15.0167 
G01 X28.7205 Y14.8847 
G01 X28.6128 Y14.7770 
G01 X28.4808 Y14.7008 
G01 X28.3337 Y14.6614 
G01 X28.1813 Y14.6614 
G01 X28.0342 Y14.7008 
G01 X27.9022 Y14.7770 
G01 X27.7945 Y14.8847 
G01 X27.7502 Y14.9614 
G01 X25.5154 Y14.9614 
G01 X24.9361 Y14.3821 
G01 X24.8725 Y14.3454 
G01 X24.8017 Y14.3264 
G01 X24.4844 Y14.3264 
G01 X24.4844 Y14.2900 
G01 X24.4729 Y14.2623 
G01 X24.4517 Y14.2411 
G01 X24.4240 Y14.2296 
G01 X22.7940 Y14.2296 
G01 X22.7663 Y14.2411 
G01 X22.7451 Y14.2623 
G01 X22.7336 Y14.2900 
G01 X22.7336 Y14.9200 
G01 X22.7451 Y14.9477 
G01 X22.7663 Y14.9689 
G01 X22.7940 Y14.9804 
G01 X24.4240 Y14.9804 
G01 X24.4517 Y14.9689 
G01 X24.4729 Y14.9477 
G01 X24.4844 Y14.9200 
G01 X24.4844 Y14.8836 
G01 X24.6496 Y14.8836 
G01 X25.1214 Y15.3554 
G01 X25.1214 Y22.6596 
G01 X23.4446 Y24.3364 
G01 X22.0304 Y24.3364 
G01 X22.0304 Y24.2400 
G01 X22.0189 Y24.2123 
G01 X21.9977 Y24.1911 
G01 X21.9700 Y24.1796 
G01 X21.3400 Y24.1796 
G01 X21.3123 Y24.1911 
G01 X21.2911 Y24.2123 
G01 X21.2796 Y24.2400 
G01 X21.2796 Y24.9900 
G01 X21.2911 Y25.0177 
G01 X21.3123 Y25.0389 
G00 Z2.5400  
G00 X20.6189 Y25.0177 
G01 Z-0.1000 F254   
G01 X20.6304 Y24.9900 F508   
G01 X20.6304 Y24.2400 
G01 X20.6189 Y24.2123 
G01 X20.5977 Y24.1911 
G01 X20.5700 Y24.1796 
G01 X19.9400 Y24.1796 
G01 X19.9123 Y24.1911 
G01 X19.8911 Y24.2123 
G01 X19.8796 Y24.2400 
G01 X19.8796 Y24.3364 
G01 X18.3804 Y24.3364 
G01 X16.9040 Y22.8600 
G01 X17.0504 Y22.7136 
G01 X17.0871 Y22.6500 
G01 X17.1061 Y22.5792 
G01 X17.1061 Y17.8954 
G01 X17.5779 Y17.4236 
G01 X19.0867 Y17.4236 
G01 X19.1575 Y17.4046 
G01 X19.2211 Y17.3679 
G01 X19.2729 Y17.3161 
G01 X20.5429 Y16.0461 
G01 X20.5796 Y15.9825 
G01 X20.5986 Y15.9117 
G01 X20.5986 Y14.7204 
G01 X21.1261 Y14.1929 
G01 X21.1779 Y14.1411 
G01 X21.2146 Y14.0775 
G01 X21.2336 Y14.0067 
G01 X21.2336 Y11.8629 
G01 X23.7179 Y9.3786  
G01 X23.7546 Y9.3150  
G01 X23.7736 Y9.2442  
G01 X23.7736 Y9.1730  
G01 X23.8917 Y9.1241  
G01 X24.0288 Y9.0325  
G01 X24.1455 Y8.9158  
G01 X24.2371 Y8.7787  
G01 X24.3002 Y8.6263  
G01 X24.3324 Y8.4645  
G01 X24.3324 Y6.7755  
G01 X24.3002 Y6.6137  
G01 X24.2371 Y6.4613  
G01 X24.1455 Y6.3242  
G01 X24.0288 Y6.2075  
G01 X23.8917 Y6.1159  
G01 X23.7393 Y6.0528  
G01 X23.5775 Y6.0206  
G01 X23.4125 Y6.0206  
G01 X23.2507 Y6.0528  
G01 X23.0983 Y6.1159  
G01 X22.9612 Y6.2075  
G01 X22.8445 Y6.3242  
G01 X22.7529 Y6.4613  
G01 X22.6898 Y6.6137  
G01 X22.6576 Y6.7755  
G01 X22.6576 Y8.4645  
G01 X22.6898 Y8.6263  
G01 X22.7529 Y8.7787  
G01 X22.8445 Y8.9158  
G01 X22.9612 Y9.0325  
G01 X23.0983 Y9.1241  
G01 X23.1592 Y9.1493  
G01 X20.7839 Y11.5246 
G01 X20.7321 Y11.5764 
G01 X20.6954 Y11.6400 
G01 X20.6764 Y11.7108 
G01 X20.6764 Y13.8546 
G01 X20.2046 Y14.3264 
G01 X19.1764 Y14.3264 
G01 X19.1764 Y14.3000 
G01 X19.1649 Y14.2723 
G01 X19.1437 Y14.2511 
G01 X19.1160 Y14.2396 
G01 X17.4860 Y14.2396 
G01 X17.4583 Y14.2511 
G01 X17.4371 Y14.2723 
G01 X17.4256 Y14.3000 
G01 X17.4256 Y14.9300 
G01 X17.4371 Y14.9577 
G01 X17.4583 Y14.9789 
G01 X17.4860 Y14.9904 
G01 X19.1160 Y14.9904 
G01 X19.1437 Y14.9789 
G01 X19.1649 Y14.9577 
G01 X19.1764 Y14.9300 
G01 X19.1764 Y14.8936 
G01 X20.0414 Y14.8936 
G01 X20.0414 Y15.7596 
G01 X18.9346 Y16.8664 
G01 X17.4258 Y16.8664 
G01 X17.3550 Y16.8854 
G01 X17.2914 Y16.9221 
G01 X16.6564 Y17.5571 
G01 X16.6046 Y17.6089 
G01 X16.5679 Y17.6725 
G01 X16.5489 Y17.7433 
G01 X16.5489 Y22.4271 
G01 X16.3946 Y22.5814 
G01 X15.6324 Y22.5814 
G01 X15.6324 Y21.9435 
G01 X15.6209 Y21.9158 
G01 X15.5997 Y21.8946 
G01 X15.5720 Y21.8831 
G01 X13.9420 Y21.8831 
G01 X13.9143 Y21.8946 
G01 X13.8931 Y21.9158 
G01 X13.8816 Y21.9435 
G01 X13.8816 Y23.7765 
G01 X13.8931 Y23.8042 
G01 X13.9143 Y23.8254 
G01 X13.9420 Y23.8369 
G01 X15.5720 Y23.8369 
G01 X15.5997 Y23.8254 
G01 X15.6209 Y23.8042 
G01 X15.6324 Y23.7765 
G01 X15.6324 Y23.1386 
G01 X16.3946 Y23.1386 
G01 X18.0939 Y24.8379 
G01 X18.1575 Y24.8746 
G01 X18.2283 Y24.8936 
G01 X19.8796 Y24.8936 
G01 X19.8796 Y24.9900 
G01 X19.8911 Y25.0177 
G01 X19.9123 Y25.0389 
G01 X19.9400 Y25.0504 
G01 X20.5700 Y25.0504 
G01 X20.5977 Y25.0389 
G01 X20.6189 Y25.0177 
G00 Z2.5400  
G00 X20.6189 Y24.0477 
G01 Z-0.1000 F254   
G01 X20.6304 Y24.0200 F508   
G01 X20.6304 Y23.2700 
G01 X20.6189 Y23.2423 
G01 X20.5977 Y23.2211 
G01 X20.5700 Y23.2096 
G01 X19.9400 Y23.2096 
G01 X19.9123 Y23.2211 
G01 X19.8911 Y23.2423 
G01 X19.8796 Y23.2700 
G01 X19.8796 Y23.2956 
G01 X19.7928 Y23.2088 
G01 X19.8023 Y23.1922 
G01 X19.8082 Y23.1820 
G01 X19.8172 Y23.1483 
G01 X19.8272 Y23.1112 
G01 X19.8272 Y22.2621 
G01 X19.8815 Y22.2078 
G01 X19.9333 Y22.1559 
G01 X19.9700 Y22.0924 
G01 X19.9890 Y22.0215 
G01 X19.9890 Y21.5242 
G01 X20.0394 Y21.4025 
G01 X20.1976 Y21.2443 
G01 X20.3268 Y21.1151 
G01 X20.3786 Y21.0633 
G01 X20.4153 Y20.9997 
G01 X20.4294 Y20.9471 
G01 X20.4343 Y20.9289 
G01 X20.4343 Y20.8555 
G01 X20.4153 Y20.7847 
G01 X20.3786 Y20.7211 
G01 X20.3268 Y20.6693 
G01 X20.2632 Y20.6326 
G01 X20.2106 Y20.6185 
G01 X20.1924 Y20.6136 
G01 X19.7490 Y20.6136 
G01 X19.7036 Y20.6014 
G01 X19.6628 Y20.5779 
G01 X19.6242 Y20.5393 
G01 X19.5607 Y20.5026 
G01 X19.5229 Y20.4925 
G01 X19.4898 Y20.4836 
G01 X19.4164 Y20.4836 
G01 X19.3826 Y20.4927 
G01 X19.3456 Y20.5026 
G01 X19.2821 Y20.5393 
G01 X19.2302 Y20.5911 
G01 X19.1704 Y20.6947 
G01 X19.1372 Y20.7279 
G01 X19.0964 Y20.7514 
G01 X19.0510 Y20.7636 
G01 X18.7029 Y20.7636 
G01 X18.7029 Y20.6604 
G01 X19.0425 Y20.6604 
G01 X19.0702 Y20.6489 
G01 X19.0914 Y20.6277 
G01 X19.1029 Y20.6000 
G01 X19.1029 Y20.1604 
G01 X19.3520 Y20.1604 
G01 X19.4228 Y20.1414 
G01 X19.4864 Y20.1047 
G01 X19.5057 Y20.0854 
G01 X19.6971 Y20.0854 
G01 X19.6971 Y20.4500 
G01 X19.7086 Y20.4777 
G01 X19.7298 Y20.4989 
G01 X19.7575 Y20.5104 
G01 X21.0875 Y20.5104 
G01 X21.1152 Y20.4989 
G01 X21.1364 Y20.4777 
G01 X21.1479 Y20.4500 
G01 X21.1479 Y18.9200 
G01 X21.1364 Y18.8923 
G01 X21.1152 Y18.8711 
G01 X21.0875 Y18.8596 
G01 X20.8229 Y18.8596 
G01 X20.8229 Y18.7564 
G01 X21.0960 Y18.7564 
G01 X21.1414 Y18.7686 
G01 X21.1587 Y18.7785 
G01 X21.1889 Y18.7960 
G01 X21.2189 Y18.8040 
G01 X21.2597 Y18.8149 
G01 X21.2967 Y18.8149 
G01 X21.3331 Y18.8149 
G01 X21.3620 Y18.8072 
G01 X21.5496 Y18.8072 
G01 X21.6204 Y18.7882 
G01 X21.6840 Y18.7515 
G01 X21.7358 Y18.6997 
G01 X21.7725 Y18.6361 
G01 X21.7915 Y18.5653 
G01 X21.7915 Y15.9117 
G01 X21.8457 Y15.7808 
G01 X21.8750 Y15.7300 
G01 X21.8940 Y15.6592 
G01 X21.8940 Y11.9125 
G01 X21.8863 Y11.8836 
G01 X21.8750 Y11.8417 
G01 X21.8383 Y11.7781 
G01 X21.7865 Y11.7263 
G01 X21.7229 Y11.6896 
G01 X21.7082 Y11.6856 
G01 X21.6521 Y11.6706 
G01 X21.5787 Y11.6706 
G01 X21.5498 Y11.6783 
G01 X21.5079 Y11.6896 
G01 X21.4443 Y11.7263 
G01 X21.3925 Y11.7781 
G01 X21.3417 Y11.8289 
G01 X21.3050 Y11.8925 
G01 X21.3015 Y11.9056 
G01 X21.2860 Y11.9633 
G01 X21.2860 Y14.0358 
G01 X21.2356 Y14.1575 
G01 X20.7585 Y14.6346 
G01 X20.7067 Y14.6864 
G01 X20.6700 Y14.7500 
G01 X20.6510 Y14.8208 
G01 X20.6510 Y15.9408 
G01 X20.6006 Y16.0625 
G01 X19.3957 Y17.2674 
G01 X19.2375 Y17.4256 
G01 X19.1158 Y17.4760 
G01 X17.6783 Y17.4760 
G01 X17.6075 Y17.4950 
G01 X17.5439 Y17.5317 
G01 X17.2660 Y17.8096 
G01 X17.2142 Y17.8614 
G01 X17.1775 Y17.9250 
G01 X17.1585 Y17.9958 
G01 X17.1585 Y18.3645 
G01 X17.1775 Y18.4353 
G01 X17.2142 Y18.4989 
G01 X17.2652 Y18.5499 
G01 X17.3296 Y18.5874 
G01 X17.3326 Y18.5882 
G01 X17.4004 Y18.6064 
G01 X17.4738 Y18.6064 
G01 X17.7521 Y18.6064 
G01 X17.7521 Y18.7096 
G01 X17.4125 Y18.7096 
G01 X17.3848 Y18.7211 
G01 X17.3636 Y18.7423 
G01 X17.3521 Y18.7700 
G01 X17.3521 Y20.6000 
G01 X17.3636 Y20.6277 
G01 X17.3848 Y20.6489 
G01 X17.4125 Y20.6604 
G01 X17.7521 Y20.6604 
G01 X17.7521 Y20.7636 
G01 X17.4004 Y20.7636 
G01 X17.3296 Y20.7826 
G01 X17.2660 Y20.8193 
G01 X17.2142 Y20.8711 
G01 X17.1775 Y20.9347 
G01 X17.1585 Y21.0055 
G01 X17.1585 Y22.6083 
G01 X17.1102 Y22.7250 
G01 X17.1010 Y22.7409 
G01 X17.0962 Y22.7587 
G01 X17.0892 Y22.7757 
G01 X17.0867 Y22.7940 
G01 X17.0820 Y22.8118 
G01 X17.0820 Y22.8302 
G01 X17.0796 Y22.8485 
G01 X17.0820 Y22.8667 
G01 X17.0820 Y22.8852 
G01 X17.0867 Y22.9030 
G01 X17.0892 Y22.9212 
G01 X17.0962 Y22.9382 
G01 X17.1010 Y22.9560 
G01 X17.1102 Y22.9720 
G01 X17.1172 Y22.9890 
G01 X17.1284 Y23.0036 
G01 X17.1376 Y23.0195 
G01 X17.1507 Y23.0326 
G01 X17.1619 Y23.0472 
G01 X17.1765 Y23.0584 
G01 X18.2946 Y24.1765 
G01 X18.3464 Y24.2283 
G01 X18.4100 Y24.2650 
G01 X18.4808 Y24.2840 
G01 X19.5345 Y24.2840 
G01 X19.5543 Y24.2787 
G01 X19.6053 Y24.2650 
G01 X19.6689 Y24.2283 
G01 X19.7207 Y24.1765 
G01 X19.7574 Y24.1129 
G01 X19.7764 Y24.0421 
G01 X19.7764 Y23.9236 
G01 X19.8796 Y23.9236 
G01 X19.8796 Y24.0200 
G01 X19.8911 Y24.0477 
G01 X19.9123 Y24.0689 
G01 X19.9400 Y24.0804 
G01 X20.5700 Y24.0804 
G01 X20.5977 Y24.0689 
G01 X20.6189 Y24.0477 
G00 Z2.5400  
G00 X21.2911 Y24.0477 
G01 Z-0.1000 F254   
G01 X21.3123 Y24.0689 F508   
G01 X21.3400 Y24.0804 
G01 X21.9700 Y24.0804 
G01 X21.9977 Y24.0689 
G01 X22.0189 Y24.0477 
G01 X22.0304 Y24.0200 
G01 X22.0304 Y23.2700 
G01 X22.0189 Y23.2423 
G01 X21.9977 Y23.2211 
G01 X21.9700 Y23.2096 
G01 X21.8686 Y23.2096 
G01 X21.8686 Y23.1104 
G01 X21.9700 Y23.1104 
G01 X21.9977 Y23.0989 
G01 X22.0189 Y23.0777 
G01 X22.0304 Y23.0500 
G01 X22.0304 Y22.3000 
G01 X22.0189 Y22.2723 
G01 X21.9977 Y22.2511 
G01 X21.9700 Y22.2396 
G01 X21.3400 Y22.2396 
G01 X21.3123 Y22.2511 
G01 X21.2911 Y22.2723 
G01 X21.2796 Y22.3000 
G01 X21.2796 Y23.0500 
G01 X21.2911 Y23.0777 
G01 X21.3114 Y23.0980 
G01 X21.3114 Y23.2220 
G01 X21.2911 Y23.2423 
G01 X21.2796 Y23.2700 
G01 X21.2796 Y24.0200 
G01 X21.2911 Y24.0477 
G00 Z2.5400  
G00 X18.7703 Y25.5720 
G01 Z-0.1000 F254   
G01 X18.6383 Y25.4958 F508   
G01 X18.4912 Y25.4564 
G01 X18.3388 Y25.4564 
G01 X18.2533 Y25.4793 
G01 X17.9511 Y25.1771 
G01 X17.8875 Y25.1404 
G01 X17.8167 Y25.1214 
G01 X17.3348 Y25.1214 
G01 X17.2905 Y25.0447 
G01 X17.1828 Y24.9370 
G01 X17.0508 Y24.8608 
G01 X16.9037 Y24.8214 
G01 X16.7513 Y24.8214 
G01 X16.6042 Y24.8608 
G01 X16.4722 Y24.9370 
G01 X16.3645 Y25.0447 
G01 X16.3202 Y25.1214 
G01 X15.6324 Y25.1214 
G01 X15.6324 Y24.4835 
G01 X15.6209 Y24.4558 
G01 X15.5997 Y24.4346 
G01 X15.5720 Y24.4231 
G01 X13.9420 Y24.4231 
G01 X13.9143 Y24.4346 
G01 X13.8931 Y24.4558 
G01 X13.8816 Y24.4835 
G01 X13.8816 Y26.3165 
G01 X13.8931 Y26.3442 
G01 X13.9143 Y26.3654 
G01 X13.9420 Y26.3769 
G01 X15.5720 Y26.3769 
G01 X15.5997 Y26.3654 
G01 X15.6209 Y26.3442 
G01 X15.6324 Y26.3165 
G01 X15.6324 Y25.6786 
G01 X16.3202 Y25.6786 
G01 X16.3645 Y25.7553 
G01 X16.4722 Y25.8630 
G01 X16.6042 Y25.9392 
G01 X16.7513 Y25.9786 
G01 X16.9037 Y25.9786 
G01 X17.0508 Y25.9392 
G01 X17.1828 Y25.8630 
G01 X17.2905 Y25.7553 
G01 X17.3348 Y25.6786 
G01 X17.6646 Y25.6786 
G01 X17.8593 Y25.8733 
G01 X17.8364 Y25.9588 
G01 X17.8364 Y26.1112 
G01 X17.8758 Y26.2583 
G01 X17.9520 Y26.3903 
G01 X18.0597 Y26.4980 
G01 X18.1917 Y26.5742 
G01 X18.3388 Y26.6136 
G01 X18.4912 Y26.6136 
G01 X18.6383 Y26.5742 
G01 X18.7703 Y26.4980 
G01 X18.8780 Y26.3903 
G01 X18.9542 Y26.2583 
G01 X18.9936 Y26.1112 
G01 X18.9936 Y25.9588 
G01 X18.9542 Y25.8117 
G01 X18.8780 Y25.6797 
G01 X18.7703 Y25.5720 
G00 Z2.5400  
G00 X19.1029 Y19.2096 
G01 Z-0.1000 F254   
G01 X19.1029 Y18.7700 F508   
G01 X19.0914 Y18.7423 
G01 X19.0702 Y18.7211 
G01 X19.0425 Y18.7096 
G01 X18.7029 Y18.7096 
G01 X18.7029 Y18.6064 
G01 X19.0510 Y18.6064 
G01 X19.0964 Y18.6186 
G01 X19.1372 Y18.6421 
G01 X19.1704 Y18.6753 
G01 X19.2302 Y18.7789 
G01 X19.2821 Y18.8307 
G01 X19.3456 Y18.8674 
G01 X19.3833 Y18.8775 
G01 X19.4164 Y18.8864 
G01 X19.4898 Y18.8864 
G01 X19.5236 Y18.8773 
G01 X19.5607 Y18.8674 
G01 X19.6242 Y18.8307 
G01 X19.6628 Y18.7921 
G01 X19.7036 Y18.7686 
G01 X19.7490 Y18.7564 
G01 X20.0221 Y18.7564 
G01 X20.0221 Y18.8596 
G01 X19.7575 Y18.8596 
G01 X19.7298 Y18.8711 
G01 X19.7086 Y18.8923 
G01 X19.6971 Y18.9200 
G01 X19.6971 Y19.2846 
G01 X19.5057 Y19.2846 
G01 X19.4864 Y19.2653 
G01 X19.4228 Y19.2286 
G01 X19.3520 Y19.2096 
G01 X19.1029 Y19.2096 
G00 Z2.5400  
G00 X19.1160 Y16.2504 
G01 Z-0.1000 F254   
G01 X19.1437 Y16.2389 F508   
G01 X19.1649 Y16.2177 
G01 X19.1764 Y16.1900 
G01 X19.1764 Y15.5600 
G01 X19.1649 Y15.5323 
G01 X19.1437 Y15.5111 
G01 X19.1160 Y15.4996 
G01 X17.4860 Y15.4996 
G01 X17.4583 Y15.5111 
G01 X17.4371 Y15.5323 
G01 X17.4256 Y15.5600 
G01 X17.4256 Y15.5964 
G01 X16.1536 Y15.5964 
G01 X16.1536 Y13.1329 
G01 X16.4154 Y12.8711 
G01 X16.4521 Y12.8075 
G01 X16.4711 Y12.7367 
G01 X16.4711 Y11.2279 
G01 X17.5779 Y10.1211 
G01 X19.0867 Y10.1211 
G01 X19.1575 Y10.1021 
G01 X19.2211 Y10.0654 
G01 X19.2729 Y10.0136 
G01 X19.8561 Y9.4304  
G01 X19.9079 Y9.3786  
G01 X19.9446 Y9.3150  
G01 X19.9636 Y9.2442  
G01 X19.9636 Y6.4654  
G01 X20.4354 Y5.9936  
G01 X27.1896 Y5.9936  
G01 X27.6614 Y6.4654  
G01 X27.6614 Y7.0217  
G01 X27.6804 Y7.0925  
G01 X27.7171 Y7.1561  
G01 X27.7689 Y7.2079  
G01 X29.0389 Y8.4779  
G01 X29.1025 Y8.5146  
G01 X29.1733 Y8.5336  
G01 X34.8096 Y8.5336  
G01 X35.9164 Y9.6404  
G01 X35.9164 Y13.8546 
G01 X34.0562 Y15.7148 
G01 X33.9141 Y15.6559 
G01 X33.7425 Y15.6218 
G01 X33.5675 Y15.6218 
G01 X33.3959 Y15.6559 
G01 X33.2343 Y15.7229 
G01 X33.0888 Y15.8201 
G01 X32.9651 Y15.9438 
G01 X32.8679 Y16.0893 
G01 X32.8009 Y16.2509 
G01 X32.7668 Y16.4225 
G01 X32.7668 Y16.5975 
G01 X32.8009 Y16.7691 
G01 X32.8679 Y16.9307 
G01 X32.9651 Y17.0762 
G01 X33.0888 Y17.1999 
G01 X33.2343 Y17.2971 
G01 X33.3764 Y17.3560 
G01 X33.3764 Y22.2617 
G01 X33.3954 Y22.3325 
G01 X33.4321 Y22.3961 
G01 X33.4839 Y22.4479 
G01 X34.0114 Y22.9754 
G01 X34.0114 Y26.2371 
G01 X32.1621 Y28.0864 
G01 X32.1254 Y28.1500 
G01 X32.1064 Y28.2208 
G01 X32.1064 Y31.3171 
G01 X31.3171 Y32.1064 
G01 X29.1733 Y32.1064 
G01 X29.1025 Y32.1254 
G01 X29.0389 Y32.1621 
G01 X28.9871 Y32.2139 
G01 X23.9071 Y37.2939 
G01 X23.8704 Y37.3575 
G01 X23.8514 Y37.4283 
G01 X23.8514 Y38.0546 
G01 X23.0400 Y38.0546 
G01 X23.0123 Y38.0661 
G01 X22.9911 Y38.0873 
G01 X22.9796 Y38.1150 
G01 X22.9796 Y38.4014 
G01 X18.9304 Y38.4014 
G01 X18.9304 Y38.1150 
G01 X18.9189 Y38.0873 
G01 X18.8977 Y38.0661 
G01 X18.8700 Y38.0546 
G01 X16.8400 Y38.0546 
G01 X16.8123 Y38.0661 
G01 X16.7911 Y38.0873 
G01 X16.7796 Y38.1150 
G01 X16.7796 Y39.2450 
G01 X16.7911 Y39.2727 
G01 X16.8123 Y39.2939 
G01 X16.8400 Y39.3054 
G01 X18.8700 Y39.3054 
G01 X18.8977 Y39.2939 
G01 X18.9189 Y39.2727 
G01 X18.9304 Y39.2450 
G01 X18.9304 Y38.9586 
G01 X22.9796 Y38.9586 
G01 X22.9796 Y39.2450 
G01 X22.9911 Y39.2727 
G01 X23.0123 Y39.2939 
G01 X23.0400 Y39.3054 
G01 X25.0700 Y39.3054 
G01 X25.0977 Y39.2939 
G01 X25.1189 Y39.2727 
G01 X25.1304 Y39.2450 
G01 X25.1304 Y38.1150 
G01 X25.1189 Y38.0873 
G01 X25.0977 Y38.0661 
G01 X25.0700 Y38.0546 
G01 X24.4086 Y38.0546 
G01 X24.4086 Y37.5804 
G01 X29.3254 Y32.6636 
G01 X31.4692 Y32.6636 
G01 X31.5400 Y32.6446 
G01 X31.6036 Y32.6079 
G01 X32.5561 Y31.6554 
G01 X32.6079 Y31.6036 
G01 X32.6446 Y31.5400 
G01 X32.6636 Y31.4692 
G01 X32.6636 Y28.3729 
G01 X34.4611 Y26.5754 
G01 X34.5129 Y26.5236 
G01 X34.5496 Y26.4600 
G01 X34.5686 Y26.3892 
G01 X34.5686 Y22.8233 
G01 X34.5496 Y22.7525 
G01 X34.5129 Y22.6889 
G01 X33.9336 Y22.1096 
G01 X33.9336 Y17.3560 
G01 X34.0757 Y17.2971 
G01 X34.2212 Y17.1999 
G01 X34.3449 Y17.0762 
G01 X34.4421 Y16.9307 
G01 X34.5091 Y16.7691 
G01 X34.5432 Y16.5975 
G01 X34.5432 Y16.4225 
G01 X34.5091 Y16.2509 
G01 X34.4502 Y16.1088 
G01 X36.3661 Y14.1929 
G01 X36.4179 Y14.1411 
G01 X36.4546 Y14.0775 
G01 X36.4736 Y14.0067 
G01 X36.4736 Y9.4883  
G01 X36.4546 Y9.4175  
G01 X36.4179 Y9.3539  
G01 X35.1479 Y8.0839  
G01 X35.0961 Y8.0321  
G01 X35.0325 Y7.9954  
G01 X34.9617 Y7.9764  
G01 X29.3254 Y7.9764  
G01 X28.2186 Y6.8696  
G01 X28.2186 Y6.3133  
G01 X28.1996 Y6.2425  
G01 X28.1629 Y6.1789  
G01 X27.4761 Y5.4921  
G01 X27.4125 Y5.4554  
G01 X27.3417 Y5.4364  
G01 X20.2833 Y5.4364  
G01 X20.2125 Y5.4554  
G01 X20.1489 Y5.4921  
G01 X20.0971 Y5.5439  
G01 X19.4621 Y6.1789  
G01 X19.4254 Y6.2425  
G01 X19.4064 Y6.3133  
G01 X19.4064 Y9.0921  
G01 X18.9346 Y9.5639  
G01 X17.4258 Y9.5639  
G01 X17.3550 Y9.5829  
G01 X17.2914 Y9.6196  
G01 X16.0214 Y10.8896 
G01 X15.9696 Y10.9414 
G01 X15.9329 Y11.0050 
G01 X15.9139 Y11.0758 
G01 X15.9139 Y12.5846 
G01 X15.7039 Y12.7946 
G01 X15.6521 Y12.8464 
G01 X15.6154 Y12.9100 
G01 X15.5964 Y12.9808 
G01 X15.5964 Y16.0771 
G01 X15.3864 Y16.2871 
G01 X15.3346 Y16.3389 
G01 X15.2979 Y16.4025 
G01 X15.2789 Y16.4733 
G01 X15.2789 Y18.7096 
G01 X14.6125 Y18.7096 
G01 X14.5848 Y18.7211 
G01 X14.5636 Y18.7423 
G01 X14.5521 Y18.7700 
G01 X14.5521 Y19.4064 
G01 X13.7404 Y19.4064 
G01 X13.7404 Y18.8700 
G01 X13.7289 Y18.8423 
G01 X13.7077 Y18.8211 
G01 X13.6800 Y18.8096 
G01 X12.3500 Y18.8096 
G01 X12.3223 Y18.8211 
G01 X12.3011 Y18.8423 
G01 X12.2896 Y18.8700 
G01 X12.2896 Y20.5000 
G01 X12.3011 Y20.5277 
G01 X12.3223 Y20.5489 
G01 X12.3500 Y20.5604 
G01 X13.6800 Y20.5604 
G01 X13.7077 Y20.5489 
G01 X13.7289 Y20.5277 
G01 X13.7404 Y20.5000 
G01 X13.7404 Y19.9636 
G01 X14.5521 Y19.9636 
G01 X14.5521 Y20.6000 
G01 X14.5636 Y20.6277 
G01 X14.5848 Y20.6489 
G01 X14.6125 Y20.6604 
G01 X16.2425 Y20.6604 
G01 X16.2702 Y20.6489 
G01 X16.2914 Y20.6277 
G01 X16.3029 Y20.6000 
G01 X16.3029 Y18.7700 
G01 X16.2914 Y18.7423 
G01 X16.2702 Y18.7211 
G01 X16.2425 Y18.7096 
G01 X15.8361 Y18.7096 
G01 X15.8361 Y16.6254 
G01 X16.0979 Y16.3636 
G01 X16.1346 Y16.3000 
G01 X16.1536 Y16.2292 
G01 X16.1536 Y16.1536 
G01 X17.4256 Y16.1536 
G01 X17.4256 Y16.1900 
G01 X17.4371 Y16.2177 
G01 X17.4583 Y16.2389 
G01 X17.4860 Y16.2504 
G01 X19.1160 Y16.2504 
G00 Z2.5400  
G00 X19.1160 Y13.7204 
G01 Z-0.1000 F254   
G01 X19.1437 Y13.7089 F508   
G01 X19.1649 Y13.6877 
G01 X19.1764 Y13.6600 
G01 X19.1764 Y13.6136 
G01 X19.7217 Y13.6136 
G01 X19.7925 Y13.5946 
G01 X19.8561 Y13.5579 
G01 X20.2254 Y13.1886 
G01 X20.2621 Y13.1250 
G01 X20.2811 Y13.0542 
G01 X20.2811 Y11.5454 
G01 X21.1779 Y10.6486 
G01 X21.2146 Y10.5850 
G01 X21.2336 Y10.5142 
G01 X21.2336 Y9.1730  
G01 X21.3517 Y9.1241  
G01 X21.4888 Y9.0325  
G01 X21.6055 Y8.9158  
G01 X21.6971 Y8.7787  
G01 X21.7602 Y8.6263  
G01 X21.7924 Y8.4645  
G01 X21.7924 Y6.7755  
G01 X21.7602 Y6.6137  
G01 X21.6971 Y6.4613  
G01 X21.6055 Y6.3242  
G01 X21.4888 Y6.2075  
G01 X21.3517 Y6.1159  
G01 X21.1993 Y6.0528  
G01 X21.0375 Y6.0206  
G01 X20.8725 Y6.0206  
G01 X20.7107 Y6.0528  
G01 X20.5583 Y6.1159  
G01 X20.4212 Y6.2075  
G01 X20.3045 Y6.3242  
G01 X20.2129 Y6.4613  
G01 X20.1498 Y6.6137  
G01 X20.1176 Y6.7755  
G01 X20.1176 Y8.4645  
G01 X20.1498 Y8.6263  
G01 X20.2129 Y8.7787  
G01 X20.3045 Y8.9158  
G01 X20.4212 Y9.0325  
G01 X20.5583 Y9.1241  
G01 X20.6764 Y9.1730  
G01 X20.6764 Y10.3621 
G01 X19.8314 Y11.2071 
G01 X19.7796 Y11.2589 
G01 X19.7429 Y11.3225 
G01 X19.7239 Y11.3933 
G01 X19.7239 Y12.9021 
G01 X19.5696 Y13.0564 
G01 X19.1764 Y13.0564 
G01 X19.1764 Y13.0300 
G01 X19.1649 Y13.0023 
G01 X19.1437 Y12.9811 
G01 X19.1160 Y12.9696 
G01 X17.4860 Y12.9696 
G01 X17.4583 Y12.9811 
G01 X17.4371 Y13.0023 
G01 X17.4256 Y13.0300 
G01 X17.4256 Y13.0664 
G01 X17.3405 Y13.0664 
G01 X17.2905 Y12.9797 
G01 X17.1828 Y12.8720 
G01 X17.0508 Y12.7958 
G01 X16.9037 Y12.7564 
G01 X16.7513 Y12.7564 
G01 X16.6042 Y12.7958 
G01 X16.4722 Y12.8720 
G01 X16.3645 Y12.9797 
G01 X16.2883 Y13.1117 
G01 X16.2489 Y13.2588 
G01 X16.2489 Y13.4112 
G01 X16.2883 Y13.5583 
G01 X16.3645 Y13.6903 
G01 X16.4722 Y13.7980 
G01 X16.6042 Y13.8742 
G01 X16.7513 Y13.9136 
G01 X16.9037 Y13.9136 
G01 X17.0508 Y13.8742 
G01 X17.1828 Y13.7980 
G01 X17.2905 Y13.6903 
G01 X17.3290 Y13.6236 
G01 X17.4256 Y13.6236 
G01 X17.4256 Y13.6600 
G01 X17.4371 Y13.6877 
G01 X17.4583 Y13.7089 
G01 X17.4860 Y13.7204 
G01 X19.1160 Y13.7204 
G00 Z2.5400  
G00 X19.1160 Y12.4504 
G01 Z-0.1000 F254   
G01 X19.1437 Y12.4389 F508   
G01 X19.1649 Y12.4177 
G01 X19.1764 Y12.3900 
G01 X19.1764 Y11.7600 
G01 X19.1649 Y11.7323 
G01 X19.1437 Y11.7111 
G01 X19.1160 Y11.6996 
G01 X18.5796 Y11.6996 
G01 X18.5796 Y11.5964 
G01 X19.1245 Y11.5964 
G01 X19.1699 Y11.6086 
G01 X19.2106 Y11.6321 
G01 X19.2218 Y11.6432 
G01 X19.2560 Y11.6630 
G01 X19.2853 Y11.6799 
G01 X19.3278 Y11.6913 
G01 X19.3562 Y11.6989 
G01 X19.3931 Y11.6989 
G01 X19.4295 Y11.6989 
G01 X19.4762 Y11.6864 
G01 X19.5004 Y11.6799 
G01 X19.5454 Y11.6540 
G01 X19.5639 Y11.6433 
G01 X19.5952 Y11.6120 
G01 X19.6158 Y11.5914 
G01 X19.6356 Y11.5572 
G01 X19.6525 Y11.5279 
G01 X19.6639 Y11.4855 
G01 X19.6715 Y11.4570 
G01 X19.6715 Y11.4202 
G01 X19.6715 Y11.3837 
G01 X19.6715 Y11.3642 
G01 X19.7219 Y11.2425 
G01 X19.8283 Y11.1361 
G01 X20.5165 Y10.4479 
G01 X20.5683 Y10.3961 
G01 X20.6050 Y10.3325 
G01 X20.6240 Y10.2617 
G01 X20.6240 Y9.4124  
G01 X20.6264 Y9.3942  
G01 X20.6240 Y9.3759  
G01 X20.6240 Y9.3575  
G01 X20.6192 Y9.3397  
G01 X20.6168 Y9.3214  
G01 X20.6098 Y9.3044  
G01 X20.6050 Y9.2866  
G01 X20.5958 Y9.2707  
G01 X20.5888 Y9.2537  
G01 X20.5775 Y9.2391  
G01 X20.5683 Y9.2231  
G01 X20.5553 Y9.2101  
G01 X20.5441 Y9.1955  
G01 X20.5295 Y9.1843  
G01 X20.5165 Y9.1712  
G01 X20.5005 Y9.1620  
G01 X20.4859 Y9.1508  
G01 X20.4689 Y9.1438  
G01 X20.4529 Y9.1345  
G01 X20.4415 Y9.1315  
G01 X20.4365 Y9.1286  
G01 X20.4219 Y9.1174  
G01 X20.4049 Y9.1103  
G01 X20.3889 Y9.1011  
G01 X20.3711 Y9.0963  
G01 X20.3541 Y9.0893  
G01 X20.3358 Y9.0869  
G01 X20.3181 Y9.0821  
G01 X20.2996 Y9.0821  
G01 X20.2814 Y9.0797  
G01 X20.2631 Y9.0821  
G01 X20.2447 Y9.0821  
G01 X20.2269 Y9.0869  
G01 X20.2086 Y9.0893  
G01 X20.1916 Y9.0963  
G01 X20.1739 Y9.1011  
G01 X20.1579 Y9.1103  
G01 X20.1409 Y9.1174  
G01 X20.1263 Y9.1286  
G01 X20.1103 Y9.1378  
G01 X20.0973 Y9.1508  
G01 X20.0827 Y9.1620  
G01 X20.0715 Y9.1766  
G01 X20.0584 Y9.1896  
G01 X20.0492 Y9.2056  
G01 X20.0380 Y9.2202  
G01 X20.0310 Y9.2372  
G01 X20.0218 Y9.2531  
G01 X20.0170 Y9.2710  
G01 X19.9656 Y9.3950  
G01 X19.3957 Y9.9649  
G01 X19.2375 Y10.1231 
G01 X19.1158 Y10.1735 
G01 X17.6783 Y10.1735 
G01 X17.6075 Y10.1925 
G01 X17.5439 Y10.2292 
G01 X16.6310 Y11.1421 
G01 X16.5792 Y11.1939 
G01 X16.5425 Y11.2575 
G01 X16.5235 Y11.3283 
G01 X16.5235 Y12.4621 
G01 X16.5425 Y12.5329 
G01 X16.5792 Y12.5965 
G01 X16.6310 Y12.6483 
G01 X16.6946 Y12.6850 
G01 X16.7654 Y12.7040 
G01 X16.9516 Y12.7040 
G01 X16.9555 Y12.7050 
G01 X16.9725 Y12.7121 
G01 X16.9908 Y12.7145 
G01 X17.0086 Y12.7193 
G01 X17.0270 Y12.7193 
G01 X17.0452 Y12.7217 
G01 X17.0635 Y12.7193 
G01 X17.0820 Y12.7193 
G01 X17.0997 Y12.7145 
G01 X17.1180 Y12.7121 
G01 X17.1350 Y12.7050 
G01 X17.1528 Y12.7003 
G01 X17.1688 Y12.6911 
G01 X17.1858 Y12.6840 
G01 X17.2004 Y12.6728 
G01 X17.2163 Y12.6636 
G01 X17.2294 Y12.6506 
G01 X17.2440 Y12.6394 
G01 X17.2552 Y12.6248 
G01 X17.2682 Y12.6117 
G01 X17.2774 Y12.5958 
G01 X17.2886 Y12.5812 
G01 X17.2957 Y12.5641 
G01 X17.3049 Y12.5482 
G01 X17.3096 Y12.5304 
G01 X17.3167 Y12.5134 
G01 X17.3191 Y12.4951 
G01 X17.3239 Y12.4773 
G01 X17.3239 Y12.4589 
G01 X17.3263 Y12.4407 
G01 X17.3239 Y12.4224 
G01 X17.3239 Y12.4040 
G01 X17.3224 Y12.3985 
G01 X17.3224 Y12.3536 
G01 X17.4256 Y12.3536 
G01 X17.4256 Y12.3900 
G01 X17.4371 Y12.4177 
G01 X17.4583 Y12.4389 
G01 X17.4860 Y12.4504 
G01 X19.1160 Y12.4504 
G00 Z2.5400  
G00 X18.0224 Y11.6996 
G01 Z-0.1000 F254   
G01 X17.4860 Y11.6996 F508   
G01 X17.4583 Y11.7111 
G01 X17.4371 Y11.7323 
G01 X17.4256 Y11.7600 
G01 X17.4256 Y11.7964 
G01 X17.3224 Y11.7964 
G01 X17.3224 Y11.7515 
G01 X17.3346 Y11.7061 
G01 X17.3581 Y11.6653 
G01 X17.3913 Y11.6321 
G01 X17.4321 Y11.6086 
G01 X17.4775 Y11.5964 
G01 X17.7784 Y11.5964 
G01 X17.8742 Y11.6517 
G01 X18.0213 Y11.6911 
G01 X18.0224 Y11.6996 
G00 Z2.5400  
G00 X22.7451 Y11.7223 
G01 Z-0.1000 F254   
G01 X22.7336 Y11.7500 F508   
G01 X22.7336 Y12.3800 
G01 X22.7451 Y12.4077 
G01 X22.7663 Y12.4289 
G01 X22.7940 Y12.4404 
G01 X24.4240 Y12.4404 
G01 X24.4517 Y12.4289 
G01 X24.4729 Y12.4077 
G01 X24.4844 Y12.3800 
G01 X24.4844 Y12.3436 
G01 X25.8452 Y12.3436 
G01 X25.8895 Y12.4203 
G01 X25.9972 Y12.5280 
G01 X26.1292 Y12.6042 
G01 X26.2763 Y12.6436 
G01 X26.4287 Y12.6436 
G01 X26.5758 Y12.6042 
G01 X26.7078 Y12.5280 
G01 X26.8155 Y12.4203 
G01 X26.8598 Y12.3436 
G01 X29.0946 Y12.3436 
G01 X30.3198 Y13.5688 
G01 X30.2609 Y13.7109 
G01 X30.2268 Y13.8825 
G01 X30.2268 Y14.0575 
G01 X30.2609 Y14.2291 
G01 X30.3279 Y14.3907 
G01 X30.4251 Y14.5362 
G01 X30.5488 Y14.6599 
G01 X30.6943 Y14.7571 
G01 X30.8559 Y14.8241 
G01 X31.0275 Y14.8582 
G01 X31.2025 Y14.8582 
G01 X31.3741 Y14.8241 
G01 X31.5357 Y14.7571 
G01 X31.6812 Y14.6599 
G01 X31.8049 Y14.5362 
G01 X31.9021 Y14.3907 
G01 X31.9691 Y14.2291 
G01 X32.0032 Y14.0575 
G01 X32.0032 Y13.8825 
G01 X31.9691 Y13.7109 
G01 X31.9021 Y13.5493 
G01 X31.8049 Y13.4038 
G01 X31.6812 Y13.2801 
G01 X31.5357 Y13.1829 
G01 X31.3741 Y13.1159 
G01 X31.2025 Y13.0818 
G01 X31.0275 Y13.0818 
G01 X30.8559 Y13.1159 
G01 X30.7138 Y13.1748 
G01 X29.3811 Y11.8421 
G01 X29.3175 Y11.8054 
G01 X29.2467 Y11.7864 
G01 X26.8598 Y11.7864 
G01 X26.8155 Y11.7097 
G01 X26.7078 Y11.6020 
G01 X26.5758 Y11.5258 
G01 X26.4287 Y11.4864 
G01 X26.2763 Y11.4864 
G01 X26.1292 Y11.5258 
G01 X25.9972 Y11.6020 
G01 X25.8895 Y11.7097 
G01 X25.8452 Y11.7864 
G01 X24.4844 Y11.7864 
G01 X24.4844 Y11.7500 
G01 X24.4729 Y11.7223 
G01 X24.4517 Y11.7011 
G01 X24.4240 Y11.6896 
G01 X22.7940 Y11.6896 
G01 X22.7663 Y11.7011 
G01 X22.7451 Y11.7223 
G00 Z2.5400  
G00 X22.7451 Y12.9923 
G01 Z-0.1000 F254   
