( Made using CamBam - http://www.cambam.co.uk )
( Gesture_rf_controller_v1_outline 5/29/2015 5:25:55 PM )
( T0 : 1.6 )
G20 G90 G64 G40
G0 Z2.0
( T0 : 1.6 )
T0 M6
( Profile1 )
G17
M3 S1000
G0 X43.3227 Y22.225
G0 Z0.0625
G1 F10.0 Z-0.8
G3 F100.0 X10.7237 Y41.0461 I-21.7327 J0.0
G3 Y3.4039 I10.8664 J-18.8211
G3 X43.3227 Y22.225 I10.8664 J18.8211
G1 F10.0 Z-1.6
G3 F100.0 X10.7237 Y41.0461 I-21.7327 J0.0
G3 Y3.4039 I10.8664 J-18.8211
G3 X43.3227 Y22.225 I10.8664 J18.8211
G1 F10.0 Z-1.8
G3 F100.0 X10.7237 Y41.0461 I-21.7327 J0.0
G3 Y3.4039 I10.8664 J-18.8211
G3 X43.3227 Y22.225 I10.8664 J18.8211
G0 Z2.0
M5
M30
